<?xml version="1.0" encoding="UTF-8"?>
<map version="1.10" tiledversion="1.11.2" orientation="orthogonal" renderorder="right-down" width="30" height="30" tilewidth="32" tileheight="32" infinite="0" nextlayerid="12" nextobjectid="129">
 <properties>
  <property name="buildPolicy" value="full"/>
  <property name="description" value="A cozy place for your Mytes"/>
  <property name="displayName" value="Your Home"/>
  <property name="location" value="inside"/>
  <property name="name" value="Your Home"/>
  <property name="region" value="home"/>
  <property name="worldX" value="0"/>
  <property name="worldY" value="1"/>
 </properties>
 <tileset firstgid="1" source="../tilesets/walls3.tsx"/>
 <layer id="3" name="Base Floor" width="30" height="30">
  <data encoding="csv">
7,8,8,8,8,8,8,8,8,8,8,8,8,8,8,8,8,8,8,8,8,8,8,8,8,8,8,8,8,9,
18,19,19,19,19,19,19,19,19,19,19,19,19,19,19,19,19,19,19,19,19,19,19,19,19,19,19,19,19,20,
18,19,19,19,19,19,19,19,19,19,19,19,19,19,19,19,19,19,19,19,19,19,19,19,19,19,19,19,19,20,
18,19,19,19,19,19,19,19,19,19,19,19,19,19,19,19,19,19,19,19,19,19,19,19,19,19,19,19,19,20,
18,19,19,19,19,19,19,19,19,19,19,19,19,19,19,19,19,19,19,19,19,19,19,19,19,19,19,19,19,20,
18,19,19,19,19,19,19,19,19,19,19,19,19,19,19,19,19,19,19,19,19,19,19,19,19,19,19,19,19,20,
18,19,19,19,19,19,19,19,19,19,19,19,19,19,19,19,19,19,19,19,19,19,19,19,19,19,19,19,19,20,
18,19,19,19,19,19,19,19,19,19,19,19,19,19,19,19,19,19,19,19,19,19,19,19,19,19,19,19,19,20,
18,19,19,19,19,19,19,19,19,19,19,19,19,19,19,19,19,19,19,19,19,19,19,19,19,19,19,19,19,20,
18,19,19,19,19,19,19,19,19,19,19,19,19,19,19,19,19,19,19,19,19,19,19,19,19,19,19,19,19,20,
18,19,19,19,19,19,19,19,19,19,19,19,19,19,19,19,19,19,19,19,19,19,19,19,19,19,19,19,19,20,
18,19,19,19,19,19,19,19,19,19,19,19,19,19,19,19,19,19,19,19,19,19,19,19,19,19,19,19,19,20,
18,19,19,19,19,19,19,19,19,19,19,19,19,19,19,19,19,19,19,19,19,19,19,19,19,19,19,19,19,20,
18,19,19,19,19,19,19,19,19,19,19,19,19,19,19,19,19,19,19,19,19,19,19,19,19,19,19,19,19,20,
18,19,19,0,0,0,0,19,19,19,19,19,19,19,19,19,19,19,19,19,19,19,19,19,19,19,19,19,19,20,
18,19,19,19,19,19,19,19,19,19,19,19,19,19,19,19,19,19,19,19,19,19,19,19,19,19,19,19,19,20,
18,19,19,19,19,19,19,19,19,19,19,19,19,19,19,19,19,19,19,19,19,19,19,19,19,19,19,19,19,20,
18,19,19,19,19,19,19,19,19,19,19,19,19,19,19,19,19,19,19,19,19,19,19,19,19,19,19,19,19,20,
18,19,19,19,19,19,19,19,19,19,19,19,19,19,19,19,19,19,19,19,19,19,19,19,19,19,19,19,19,20,
18,19,19,19,19,19,19,19,19,19,19,19,19,19,19,19,19,19,19,19,19,19,19,19,19,19,19,19,19,20,
18,19,19,19,19,19,19,19,19,19,19,19,19,19,19,19,19,19,19,19,19,19,19,19,19,19,19,19,19,20,
18,19,19,19,19,19,19,19,19,19,19,19,19,19,19,19,19,19,19,19,19,19,19,19,19,19,19,19,19,20,
18,19,19,19,19,19,19,19,19,19,19,19,19,19,19,19,19,19,19,19,19,19,19,19,19,19,19,19,19,20,
18,19,19,19,19,19,19,19,19,19,19,19,19,19,19,19,19,19,19,19,19,19,19,19,19,19,19,19,19,20,
18,19,19,19,19,19,19,19,19,19,19,19,19,19,19,19,19,19,19,19,19,19,19,19,19,19,19,19,19,20,
18,19,19,19,19,19,19,19,19,19,19,19,19,19,19,19,19,19,19,19,19,19,19,19,19,19,19,19,19,20,
18,19,19,19,19,19,19,19,19,19,19,19,19,19,19,19,19,19,19,19,19,19,19,19,19,19,19,19,19,20,
18,19,19,19,19,19,19,19,19,19,19,19,19,19,19,19,19,19,19,19,19,19,19,19,19,19,19,19,19,20,
18,19,19,19,19,19,19,19,19,19,19,19,10,30,30,30,30,11,19,19,19,19,19,19,19,19,19,19,19,20,
29,30,30,30,30,30,30,30,30,30,30,30,31,0,0,0,0,29,30,30,30,30,30,30,30,30,30,30,30,31
</data>
 </layer>
 <layer id="5" name="Wood" width="30" height="30" opacity="0.9">
  <data encoding="csv">
40,41,41,41,41,41,41,41,41,41,41,41,41,41,41,41,41,41,41,41,41,41,41,41,41,41,41,41,41,42,
51,52,52,52,52,52,52,52,52,52,52,52,52,52,52,52,52,52,52,52,52,52,52,52,52,52,52,52,52,53,
51,52,52,52,52,52,52,52,52,52,52,52,52,52,52,52,52,52,52,52,52,52,52,52,52,52,52,52,52,53,
51,52,52,52,52,52,52,52,52,52,52,52,52,52,52,52,52,52,52,52,52,52,52,52,52,52,52,52,52,53,
51,52,52,52,52,52,52,52,52,52,52,52,52,52,52,52,52,52,52,52,52,52,52,52,52,52,52,52,52,53,
51,52,52,52,52,52,52,52,52,52,52,52,52,52,52,52,52,52,52,52,52,52,52,52,52,52,52,52,52,53,
51,52,52,52,52,52,52,52,52,52,52,52,52,52,52,52,52,52,52,52,52,52,52,52,52,52,52,52,52,53,
51,52,52,52,52,52,52,52,52,52,52,52,52,52,52,52,52,52,52,52,52,52,52,52,52,52,52,52,52,53,
51,52,52,52,52,52,52,52,52,52,52,52,52,52,52,52,52,52,52,52,52,52,52,52,52,52,52,52,52,53,
51,52,52,52,52,52,52,52,52,52,52,52,52,52,52,52,52,52,52,52,52,52,52,52,52,52,52,52,52,53,
51,52,52,52,52,52,52,52,52,52,52,52,52,52,52,52,52,52,52,52,52,52,52,52,52,52,52,52,52,53,
51,52,52,52,52,52,52,52,52,52,52,52,52,52,52,52,52,52,52,52,52,52,52,52,52,52,52,52,52,53,
51,52,52,52,52,52,52,52,52,52,52,52,52,52,52,52,52,52,52,52,52,52,52,52,52,52,52,52,52,53,
51,52,52,52,52,52,52,52,52,52,52,52,52,52,52,52,52,52,52,52,52,52,52,52,52,52,52,52,52,53,
62,63,44,52,52,52,52,43,63,63,63,44,52,52,52,52,52,52,43,63,63,63,63,63,63,63,63,63,63,64,
0,0,62,63,63,63,63,64,0,0,0,51,52,52,52,52,52,52,53,0,0,0,0,0,0,0,0,0,0,0,
0,0,0,0,0,0,0,0,0,0,40,55,52,52,52,52,52,52,53,0,0,0,0,0,0,0,0,0,0,0,
0,0,0,0,0,0,0,0,0,0,51,52,52,52,52,52,52,52,53,0,0,0,0,0,0,0,0,0,0,0,
0,0,0,0,0,0,0,0,0,0,51,52,52,52,52,52,52,52,53,0,0,0,0,0,0,0,0,0,0,0,
0,0,0,0,0,0,0,0,0,0,51,52,52,52,52,52,52,52,53,0,0,0,0,0,0,0,0,0,0,0,
0,0,0,0,0,0,0,0,0,0,62,44,52,52,52,52,52,52,53,0,0,0,0,0,0,0,0,0,0,0,
0,0,0,0,0,0,0,0,0,0,0,51,52,52,52,52,52,52,54,42,0,0,0,0,0,0,0,0,0,0,
0,0,0,0,0,0,0,0,0,0,0,51,52,52,52,52,52,52,52,53,0,0,0,0,0,0,0,0,0,0,
0,0,0,0,0,0,0,0,0,0,0,51,52,52,52,52,52,52,52,53,0,0,0,0,0,0,0,0,0,0,
0,0,0,0,0,0,0,0,0,0,0,51,52,52,52,52,52,52,52,53,0,0,0,0,0,0,0,0,0,0,
0,0,0,0,0,0,0,0,0,0,0,51,52,52,52,52,52,52,43,64,0,0,0,0,0,0,0,0,0,0,
0,0,0,0,0,0,0,0,0,0,0,51,52,52,52,52,52,52,53,0,0,0,0,0,0,0,0,0,0,0,
0,0,0,0,0,0,0,0,0,0,0,51,52,52,52,52,52,52,53,0,0,0,0,0,0,0,0,0,0,0,
0,0,0,0,0,0,0,0,0,0,0,51,43,63,63,63,63,44,53,0,0,0,0,0,0,0,0,0,0,0,
0,0,0,0,0,0,0,0,0,0,0,62,64,0,0,0,0,62,64,0,0,0,0,0,0,0,0,0,0,0
</data>
 </layer>
 <layer id="4" name="Walls" width="30" height="30">
  <properties>
   <property name="blocksLineOfSight" type="bool" value="true"/>
   <property name="wallConnectGroup" value="plaster_wall"/>
   <property name="wallConstructionId" value="plaster_wall"/>
   <property name="wallFinishId" value="plaster_plain"/>
   <property name="wallHeightCells" type="int" value="5"/>
  </properties>
  <data encoding="csv">
1,4,4,4,4,4,4,4,4,4,4,4,4,4,4,4,4,4,4,4,4,4,4,4,4,4,4,4,4,3,
26,0,0,0,0,0,0,0,0,0,0,0,0,0,0,0,0,0,0,0,0,0,0,0,0,0,0,0,0,26,
26,0,0,0,0,0,0,0,0,0,0,0,0,0,0,0,0,0,0,0,0,0,0,0,0,0,0,0,0,26,
26,0,0,0,0,0,0,0,0,0,0,0,0,0,0,0,0,0,0,0,0,0,0,0,0,0,0,0,0,26,
26,0,0,0,0,0,0,0,0,0,0,0,0,0,0,0,0,0,0,0,0,0,0,0,0,0,0,0,0,26,
26,0,0,0,0,0,0,0,0,0,0,0,0,0,0,0,0,0,0,0,0,0,0,0,0,0,0,0,0,26,
26,0,0,0,0,0,0,0,0,0,0,0,0,0,0,0,0,0,0,0,0,0,0,0,0,0,0,0,0,26,
26,0,0,0,0,0,0,0,0,0,0,0,0,0,0,0,0,0,0,0,0,0,0,0,0,0,0,0,0,26,
26,0,0,0,0,0,0,0,0,0,0,0,0,0,0,0,0,0,0,0,0,0,0,0,0,0,0,0,0,26,
26,0,0,0,0,0,0,0,0,0,0,0,0,0,0,0,0,0,0,0,0,0,0,0,0,0,0,0,0,26,
26,0,0,0,0,0,0,0,0,0,0,0,0,0,0,0,0,0,0,0,0,0,0,0,0,0,0,0,0,26,
26,0,0,0,0,0,0,0,0,0,0,0,0,0,0,0,0,0,0,0,0,0,0,0,0,0,0,0,0,26,
26,0,0,0,0,0,0,0,0,0,0,0,0,0,0,0,0,0,0,0,0,0,0,0,0,0,0,0,0,26,
26,0,0,0,0,0,0,0,0,0,0,0,0,0,0,0,0,0,0,0,0,0,0,0,0,0,0,0,0,26,
14,4,17,0,0,0,0,15,4,4,4,3,0,0,0,0,0,0,1,4,4,4,4,4,4,4,4,4,4,12,
26,0,0,0,0,0,0,0,0,0,0,26,0,0,0,0,0,0,26,0,0,0,0,0,0,0,0,0,0,26,
26,0,0,0,0,0,0,0,0,0,0,27,0,0,0,0,0,0,26,0,0,0,0,0,0,0,0,0,0,26,
26,0,0,0,0,0,0,0,0,0,0,0,0,0,0,0,0,0,26,0,0,0,0,0,0,0,0,0,0,26,
26,0,0,0,0,0,0,0,0,0,0,0,0,0,0,0,0,0,26,0,0,0,0,0,0,0,0,0,0,26,
26,0,0,0,0,0,0,0,0,0,0,0,0,0,0,0,0,0,26,0,0,0,0,0,0,0,0,0,0,26,
26,0,0,0,0,0,0,0,0,0,0,5,0,0,0,0,0,0,26,0,0,0,0,0,0,0,0,0,0,26,
26,0,0,0,0,0,0,0,0,0,0,26,0,0,0,0,0,0,27,0,0,0,0,0,0,0,0,0,0,26,
26,0,0,0,0,0,0,0,0,0,0,26,0,0,0,0,0,0,0,0,0,0,0,0,0,0,0,0,0,26,
26,0,0,0,0,0,0,0,0,0,0,26,0,0,0,0,0,0,0,0,0,0,0,0,0,0,0,0,0,26,
26,0,0,0,0,0,0,0,0,0,0,26,0,0,0,0,0,0,0,0,0,0,0,0,0,0,0,0,0,26,
26,0,0,0,0,0,0,0,0,0,0,26,0,0,0,0,0,0,5,0,0,0,0,0,0,0,0,0,0,26,
26,0,0,0,0,0,0,0,0,0,0,26,0,0,0,0,0,0,26,0,0,0,0,0,0,0,0,0,0,26,
26,0,0,0,0,0,0,0,0,0,0,26,0,0,0,0,0,0,26,0,0,0,0,0,0,0,0,0,0,26,
26,0,0,0,0,0,0,0,0,0,0,26,0,0,0,0,0,0,26,0,0,0,0,0,0,0,0,0,0,26,
23,4,4,4,4,4,4,4,4,4,4,2,17,0,0,0,0,15,2,4,4,4,4,4,4,4,4,4,4,25
</data>
 </layer>
 <objectgroup id="9" name="Zones">
  <object id="94" name="Zone" x="608" y="480" width="320" height="448">
   <properties>
    <property name="displayName" value="Bedroom"/>
    <property name="floorFinishId" value="floor_carpet_sage"/>
    <property name="type" value="rest"/>
    <property name="wallFinishId" value="wallpaper_blue_flower"/>
   </properties>
  </object>
  <object id="95" name="Zone" x="32" y="480" width="320" height="448">
   <properties>
    <property name="displayName" value="Playroom"/>
    <property name="floorFinishId" value="floor_boards"/>
    <property name="type" value="play"/>
    <property name="wallFinishId" value="paint_sage"/>
   </properties>
  </object>
  <object id="96" name="Zone" x="32" y="31" width="448" height="417">
   <properties>
    <property name="displayName" value="Kitchen"/>
    <property name="floorFinishId" value="floor_tile_check"/>
    <property name="type" value="food"/>
   </properties>
  </object>
  <object id="97" name="Zone" x="480" y="32" width="448" height="416">
   <properties>
    <property name="displayName" value="Chatroom"/>
    <property name="floorFinishId" value="floor_boards_walnut"/>
    <property name="type" value="social"/>
    <property name="wallFinishId" value="paint_terracotta"/>
   </properties>
  </object>
  <object id="119" name="Bird" x="800" y="352" width="64" height="64">
   <properties>
    <property name="variant" value="sparrow"/>
   </properties>
  </object>
 </objectgroup>
 <objectgroup id="11" name="Rooms">
  <object id="124" name="LIGHTVOLUME" x="608" y="480" width="320" height="448">
   <properties>
    <property name="displayName" value="Bedroom"/>
    <property name="floorFinishId" value="floor_carpet_sage"/>
    <property name="roomId" value="zone_bedroom"/>
    <property name="wallFinishId" value="wallpaper_blue_flower"/>
   </properties>
  </object>
  <object id="125" name="LIGHTVOLUME" x="32" y="480" width="320" height="448">
   <properties>
    <property name="displayName" value="Playroom"/>
    <property name="floorFinishId" value="floor_boards"/>
    <property name="roomId" value="zone_playroom"/>
    <property name="wallFinishId" value="paint_sage"/>
   </properties>
  </object>
  <object id="126" name="LIGHTVOLUME" x="32" y="31" width="448" height="417">
   <properties>
    <property name="displayName" value="Kitchen"/>
    <property name="floorFinishId" value="floor_tile_check"/>
    <property name="roomId" value="zone_kitchen"/>
   </properties>
  </object>
  <object id="127" name="LIGHTVOLUME" x="480" y="32" width="448" height="416">
   <properties>
    <property name="displayName" value="Chatroom"/>
    <property name="floorFinishId" value="floor_boards_walnut"/>
    <property name="roomId" value="zone_chatroom"/>
    <property name="wallFinishId" value="paint_terracotta"/>
   </properties>
  </object>
  <object id="128" name="LIGHTVOLUME" x="384" y="480" width="192" height="448">
   <properties>
    <property name="displayName" value="Hallway"/>
    <property name="roomId" value="zone_hallway"/>
   </properties>
  </object>
 </objectgroup>
 <objectgroup id="7" name="Objects">
  <properties>
   <property name="displayName" value="Your House"/>
  </properties>
  <object id="120" name="Painting" x="128" y="0" width="36" height="28">
   <properties>
    <property name="face" value="south"/>
    <property name="u" type="float" value="16"/>
    <property name="v" type="float" value="0.4"/>
    <property name="variant" value="painting"/>
   </properties>
  </object>
  <object id="123" name="Painting" x="704" y="448" width="36" height="28">
   <properties>
    <property name="face" value="south"/>
    <property name="u" type="float" value="16"/>
    <property name="v" type="float" value="0.4"/>
    <property name="variant" value="painting_still_life"/>
   </properties>
  </object>
  <object id="121" name="Window" x="320" y="0" width="32" height="32">
   <properties>
    <property name="blocksLineOfSight" type="bool" value="false"/>
    <property name="continuesTopTrim" type="bool" value="true"/>
    <property name="openingHeight" type="int" value="64"/>
    <property name="sillHeight" type="int" value="32"/>
    <property name="wallOpening" type="bool" value="true"/>
   </properties>
  </object>
  <object id="122" name="Window" x="576" y="0" width="128" height="64">
   <properties>
    <property name="blocksLineOfSight" type="bool" value="false"/>
    <property name="continuesTopTrim" type="bool" value="true"/>
    <property name="openingHeight" type="int" value="64"/>
    <property name="sillHeight" type="int" value="32"/>
    <property name="variant" value="double"/>
    <property name="wallOpening" type="bool" value="true"/>
   </properties>
  </object>
  <object id="5" name="Door" x="576" y="704" width="32" height="96">
   <properties>
    <property name="direction" value="Right"/>
    <property name="openingHeight" type="int" value="128"/>
   </properties>
  </object>
  <object id="7" name="Door" x="416" y="928" width="128" height="32">
   <properties>
    <property name="direction" value="Horizontal"/>
    <property name="openingHeight" type="int" value="128"/>
   </properties>
  </object>
  <object id="113" name="Rug" x="640" y="576" width="192" height="128">
   <properties>
    <property name="variant" value="rug_default"/>
   </properties>
  </object>
  <object id="16" name="Bed" x="704" y="480" width="128" height="256">
   <properties>
    <property name="claimedBy" value="Lentil"/>
    <property name="direction" value="S"/>
    <property name="variant" value="bed_big_long"/>
   </properties>
  </object>
  <object id="65" name="Portal" x="544" y="192" width="128" height="128">
   <properties>
    <property name="portalId" value="house_outside"/>
    <property name="targetMap" value="Outside"/>
    <property name="targetPortalId" value="outside_house"/>
   </properties>
  </object>
  <object id="68" name="Ball" x="160" y="128" width="64" height="64">
   <properties>
    <property name="variant" value="red_ball"/>
   </properties>
  </object>
  <object id="69" name="Flower" x="768" y="256" width="64" height="64">
   <properties>
    <property name="variant" value="flower_1"/>
   </properties>
  </object>
  <object id="71" name="Flower" x="768" y="96" width="64" height="64">
   <properties>
    <property name="variant" value="flower_1"/>
   </properties>
  </object>
  <object id="72" name="Flower" x="448" y="384" width="64" height="64">
   <properties>
    <property name="variant" value="flower_2"/>
   </properties>
  </object>
  <object id="76" name="Flower" x="448" y="576" width="64" height="64">
   <properties>
    <property name="variant" value="flower_2"/>
   </properties>
  </object>
  <object id="78" name="Door" x="96" y="448" width="128" height="32">
   <properties>
    <property name="direction" value="Horizontal"/>
   </properties>
  </object>
  <object id="79" name="Spawn" x="224" y="256" width="192" height="192">
   <properties>
    <property name="type" value="myte"/>
   </properties>
  </object>
  <object id="82" name="Door" x="352" y="544" width="32" height="96">
   <properties>
    <property name="direction" value="Left"/>
   </properties>
  </object>
  <object id="106" name="Flower" x="62" y="316" width="64" height="64">
   <properties>
    <property name="variant" value="flower_3"/>
   </properties>
  </object>
  <object id="107" name="Treasure Chest" x="64" y="160" width="64" height="64">
   <properties>
    <property name="items">{COIN, coin, 100},
{FOOD, apple},
{HEALTH, health_orb, 10}</property>
    <property name="variant" value="wooden_chest"/>
   </properties>
  </object>
  <object id="114" name="Crop" x="64" y="608" width="64" height="128">
   <properties>
    <property name="variant" value="tomato"/>
   </properties>
  </object>
  <object id="115" name="Crop" x="128" y="608" width="64" height="128">
   <properties>
    <property name="variant" value="carrot"/>
   </properties>
  </object>
  <object id="116" name="Crop" x="192" y="608" width="64" height="128">
   <properties>
    <property name="variant" value="wheat"/>
   </properties>
  </object>
  <object id="117" name="Crop" x="256" y="608" width="64" height="128">
   <properties>
    <property name="variant" value="berry"/>
   </properties>
  </object>
 </objectgroup>
 <objectgroup id="10" name="Mobs">
  <object id="66" name="Butterfly" x="352" y="160" width="64" height="64">
   <properties>
    <property name="variant" value="small"/>
   </properties>
  </object>
  <object id="80" name="Butterfly" x="480" y="96" width="64" height="64">
   <properties>
    <property name="variant" value="yellow_butterfly"/>
   </properties>
  </object>
  <object id="81" name="Butterfly" x="672" y="352" width="64" height="64">
   <properties>
    <property name="variant" value="blue_butterfly"/>
   </properties>
  </object>
  <object id="105" name="Butterfly" x="448" y="800" width="64" height="64">
   <properties>
    <property name="variant" value="blue_butterfly"/>
   </properties>
  </object>
 </objectgroup>
</map>
