<?xml version="1.0" encoding="UTF-8"?>
<map version="1.10" tiledversion="1.11.2" orientation="orthogonal" renderorder="right-down" width="64" height="64" tilewidth="32" tileheight="32" infinite="0" nextlayerid="4" nextobjectid="266">
 <properties>
  <property name="buildPolicy" value="full"/>
  <property name="description" value="A wide open field with nothing on it. Somewhere to build."/>
  <property name="displayName" value="The Sandbox"/>
  <property name="location" value="outside"/>
  <property name="name" value="Sandbox"/>
  <property name="region" value="overworld"/>
  <property name="worldX" value="2"/>
  <property name="worldY" value="1"/>
 </properties>
 <tileset firstgid="1" source="../tilesets/walls3.tsx"/>
 <layer id="1" name="Grass" width="64" height="64">
  <properties>
   <property name="terrainWangSet" value="Ground"/>
  </properties>
  <data encoding="csv">
85,85,85,85,85,85,85,85,85,85,85,85,85,85,85,85,85,85,85,85,85,85,85,85,85,85,85,85,85,85,85,85,85,85,85,85,85,85,85,85,85,85,85,85,85,85,85,85,85,85,85,85,85,85,85,85,85,85,85,85,85,85,85,85,
85,85,85,85,85,85,85,85,85,85,85,85,85,85,85,85,85,85,85,85,85,85,85,85,85,85,85,85,85,85,85,85,85,85,85,85,85,85,85,85,85,85,85,85,85,85,85,85,85,85,85,85,85,85,85,85,85,85,85,85,85,85,85,85,
85,85,85,85,85,85,85,85,85,85,85,85,85,85,85,85,85,85,85,85,85,85,85,85,85,85,85,85,85,85,85,85,85,85,85,85,85,85,85,85,85,85,85,85,85,85,85,85,85,85,85,85,85,85,85,85,85,85,85,85,85,85,85,85,
85,85,85,85,85,85,85,85,85,85,85,85,85,85,85,85,85,85,85,85,85,85,85,85,85,85,85,85,85,85,85,85,85,85,85,85,85,85,85,85,85,85,85,85,85,85,85,85,85,85,85,85,85,85,85,85,85,85,85,85,85,85,85,85,
85,85,85,85,85,85,85,85,85,85,85,85,85,85,85,85,85,85,85,85,85,85,85,85,85,85,85,85,85,85,85,85,85,85,85,85,85,85,85,85,85,85,85,85,85,85,85,85,85,85,85,85,85,85,85,85,85,85,85,85,85,85,85,85,
85,85,85,85,85,85,85,85,85,85,85,85,85,85,85,85,85,85,85,85,85,85,85,85,85,85,85,85,85,85,85,85,85,85,85,85,85,85,85,85,85,85,85,85,85,85,85,85,85,85,85,85,85,85,85,85,85,85,85,85,85,85,85,85,
85,85,85,85,85,85,85,85,85,85,85,85,85,85,85,85,85,85,85,85,85,85,85,85,85,85,85,85,85,85,85,85,85,85,85,85,85,85,85,85,85,85,85,85,85,85,85,85,85,85,85,85,85,85,85,85,85,85,85,85,85,85,85,85,
85,85,85,85,85,85,85,85,85,85,85,85,85,85,85,85,85,85,85,85,85,85,85,85,85,85,85,85,85,85,85,85,85,85,85,85,85,85,85,85,85,85,85,85,85,85,85,85,85,85,85,85,85,85,85,85,85,85,85,85,85,85,85,85,
85,85,85,85,85,85,85,85,85,85,85,85,85,85,85,85,85,85,85,85,85,85,85,85,85,85,85,85,85,85,85,85,85,85,85,85,85,85,85,85,85,85,85,85,85,85,85,85,85,85,85,85,85,85,85,85,85,85,85,85,85,85,85,85,
85,85,85,85,85,85,85,85,85,85,85,85,85,85,85,85,85,85,85,85,85,85,85,85,85,85,85,85,85,85,85,85,85,85,85,85,85,85,85,85,85,85,85,85,85,85,85,85,85,85,85,85,85,85,85,85,85,85,85,85,85,85,85,85,
85,85,85,85,85,85,85,85,85,85,85,85,85,85,85,85,85,85,85,85,85,85,85,85,85,85,85,85,85,85,85,85,85,85,85,85,85,85,85,85,85,85,85,85,85,85,85,85,85,85,85,85,85,85,85,85,85,85,85,85,85,85,85,85,
85,85,85,85,85,85,85,85,85,85,85,85,85,85,85,85,85,85,85,85,85,85,85,85,85,85,85,85,85,85,85,85,85,85,85,85,85,85,85,85,85,85,85,85,85,85,85,85,85,85,85,85,85,85,85,85,85,85,85,85,85,85,85,85,
85,85,85,85,85,85,85,85,85,85,85,85,85,85,85,85,85,85,85,85,85,85,85,85,85,85,85,85,85,85,85,85,85,85,85,85,85,85,85,85,85,85,85,85,85,85,85,85,85,85,85,85,85,85,85,85,85,85,85,85,85,85,85,85,
85,85,85,85,85,85,85,85,85,85,85,85,85,85,85,85,85,85,85,85,85,85,85,85,85,85,85,85,85,85,85,85,85,85,85,85,85,85,85,85,85,85,85,85,85,85,85,85,85,85,85,85,85,85,85,85,85,85,85,85,85,85,85,85,
85,85,85,85,85,85,85,85,85,85,85,85,85,85,85,85,85,85,85,85,85,85,85,85,85,85,85,85,85,85,85,85,85,85,85,85,85,85,85,85,85,85,85,85,85,85,85,85,85,85,85,85,85,85,85,85,85,85,85,85,85,85,85,85,
85,85,85,85,85,85,85,85,85,85,85,85,85,85,85,85,85,85,85,85,85,85,85,85,85,85,85,85,85,85,85,85,85,85,85,85,85,85,85,85,85,85,85,85,85,85,85,85,85,85,85,85,85,85,85,85,85,85,85,85,85,85,85,85,
85,85,85,85,85,85,85,85,85,85,85,85,85,85,85,85,85,85,85,85,85,85,85,85,85,85,85,85,85,85,85,85,85,85,85,85,85,85,85,85,85,85,85,85,85,85,85,85,85,85,85,85,85,85,85,85,85,85,85,85,85,85,85,85,
85,85,85,85,85,85,85,85,85,85,85,85,85,85,85,85,85,85,85,85,85,85,85,85,85,85,85,85,85,85,85,85,85,85,85,85,85,85,85,85,85,85,85,85,85,85,85,85,85,85,85,85,85,85,85,85,85,85,85,85,85,85,85,85,
85,85,85,85,85,85,85,85,85,85,85,85,85,85,85,85,85,85,85,85,85,85,85,85,85,85,85,85,85,85,85,85,85,85,85,85,85,85,85,85,85,85,85,85,85,85,85,85,85,85,85,85,85,85,85,85,85,85,85,85,85,85,85,85,
85,85,85,85,85,85,85,85,85,85,85,85,85,85,85,85,85,85,85,85,85,85,85,85,85,85,85,85,85,85,85,85,85,85,85,85,85,85,85,85,85,85,85,85,85,85,85,85,85,85,85,85,85,85,85,85,85,85,85,85,85,85,85,85,
85,85,85,85,85,85,85,85,85,85,85,85,85,85,85,85,85,85,85,85,85,85,85,85,85,85,85,85,85,85,85,85,85,85,85,85,85,85,85,85,85,85,85,85,85,85,85,85,85,85,85,85,85,85,85,85,85,85,85,85,85,85,85,85,
85,85,85,85,85,85,85,85,85,85,85,85,85,85,85,85,85,85,85,85,85,85,85,85,85,85,85,85,85,85,85,85,85,85,85,85,85,85,85,85,85,85,85,85,85,85,85,85,85,85,85,85,85,85,85,85,85,85,85,85,85,85,85,85,
85,85,85,85,85,85,85,85,85,85,85,85,85,85,85,85,85,85,85,85,85,85,85,85,85,85,85,85,85,85,85,85,85,85,85,85,85,85,85,85,85,85,85,85,85,85,85,85,85,85,85,85,85,85,85,85,85,85,85,85,85,85,85,85,
85,85,85,85,85,85,85,85,85,85,85,85,85,85,85,85,85,85,85,85,85,85,85,85,85,85,85,85,85,85,85,85,85,85,85,85,85,85,85,85,85,85,85,85,85,85,85,85,85,85,85,85,85,85,85,85,85,85,85,85,85,85,85,85,
85,85,85,85,85,85,85,85,85,85,85,85,85,85,85,85,85,85,85,85,85,85,85,85,85,85,85,85,85,85,85,85,85,85,85,85,85,85,85,85,85,85,85,85,85,85,85,85,85,85,85,85,85,85,85,85,85,85,85,85,85,85,85,85,
85,85,85,85,85,85,85,85,85,85,85,85,85,85,85,85,85,85,85,85,85,85,85,85,85,85,85,85,85,85,85,85,85,85,85,85,85,85,85,85,85,85,85,85,85,85,85,85,85,85,85,85,85,85,85,85,85,85,85,85,85,85,85,85,
85,85,85,85,85,85,85,85,85,85,85,85,85,85,85,85,85,85,85,85,85,85,85,85,85,85,85,85,85,85,85,85,85,85,85,85,85,85,85,85,85,85,85,85,85,85,85,85,85,85,85,85,85,85,85,85,85,85,85,85,85,85,85,85,
85,85,85,85,85,85,85,85,85,85,85,85,85,85,85,85,85,85,85,85,85,85,85,85,85,85,85,85,85,85,85,85,85,85,85,85,85,85,85,85,85,85,85,85,85,85,85,85,85,85,85,85,85,85,85,85,85,85,85,85,85,85,85,85,
85,85,85,85,85,85,85,85,85,85,85,85,85,85,85,85,85,85,85,85,85,85,85,85,85,85,85,85,85,85,85,85,85,85,85,85,85,85,85,85,85,85,85,85,85,85,85,85,85,85,85,85,85,85,85,85,85,85,85,85,85,85,85,85,
85,85,85,85,85,85,85,85,85,85,85,85,85,85,85,85,85,85,85,85,85,85,85,85,85,85,85,85,85,85,85,85,85,85,85,85,85,85,85,85,85,85,85,85,85,85,85,85,85,85,85,85,85,85,85,85,85,85,85,85,85,85,85,85,
85,85,85,85,85,85,85,85,85,85,85,85,85,85,85,85,85,85,85,85,85,85,85,85,85,85,85,85,85,85,85,85,85,85,85,85,85,85,85,85,85,85,85,85,85,85,85,85,85,85,85,85,85,85,85,85,85,85,85,85,85,85,85,85,
85,85,85,85,85,85,85,85,85,85,85,85,85,85,85,85,85,85,85,85,85,85,85,85,85,85,85,85,85,85,85,85,85,85,85,85,85,85,85,85,85,85,85,85,85,85,85,85,85,85,85,85,85,85,85,85,85,85,85,85,85,85,85,85,
85,85,85,85,85,85,85,85,85,85,85,85,85,85,85,85,85,85,85,85,85,85,85,85,85,85,85,85,85,85,85,85,85,85,85,85,85,85,85,85,85,85,85,85,85,85,85,85,85,85,85,85,85,85,85,85,85,85,85,85,85,85,85,85,
85,85,85,85,85,85,85,85,85,85,85,85,85,85,85,85,85,85,85,85,85,85,85,85,85,85,85,85,85,85,85,85,85,85,85,85,85,85,85,85,85,85,85,85,85,85,85,85,85,85,85,85,85,85,85,85,85,85,85,85,85,85,85,85,
85,85,85,85,85,85,85,85,85,85,85,85,85,85,85,85,85,85,85,85,85,85,85,85,85,85,85,85,85,85,85,85,85,85,85,85,85,85,85,85,85,85,85,85,85,85,85,85,85,85,85,85,85,85,85,85,85,85,85,85,85,85,85,85,
85,85,85,85,85,85,85,85,85,85,85,85,85,85,85,85,85,85,85,85,85,85,85,85,85,85,85,85,85,85,85,85,85,85,85,85,85,85,85,85,85,85,85,85,85,85,85,85,85,85,85,85,85,85,85,85,85,85,85,85,85,85,85,85,
85,85,85,85,85,85,85,85,85,85,85,85,85,85,85,85,85,85,85,85,85,85,85,85,85,85,85,85,85,85,85,85,85,85,85,85,85,85,85,85,85,85,85,85,85,85,85,85,85,85,85,85,85,85,85,85,85,85,85,85,85,85,85,85,
85,85,85,85,85,85,85,85,85,85,85,85,85,85,85,85,85,85,85,85,85,85,85,85,85,85,85,85,85,85,85,85,85,85,85,85,85,85,85,85,85,85,85,85,85,85,85,85,85,85,85,85,85,85,85,85,85,85,85,85,85,85,85,85,
85,85,85,85,85,85,85,85,85,85,85,85,85,85,85,85,85,85,85,85,85,85,85,85,85,85,85,85,85,85,85,85,85,85,85,85,85,85,85,85,85,85,85,85,85,85,85,85,85,85,85,85,85,85,85,85,85,85,85,85,85,85,85,85,
85,85,85,85,85,85,85,85,85,85,85,85,85,85,85,85,85,85,85,85,85,85,85,85,85,85,85,85,85,85,85,85,85,85,85,85,85,85,85,85,85,85,85,85,85,85,85,85,85,85,85,85,85,85,85,85,85,85,85,85,85,85,85,85,
85,85,85,85,85,85,85,85,85,85,85,85,85,85,85,85,85,85,85,85,85,85,85,85,85,85,85,85,85,85,85,85,85,85,85,85,85,85,85,85,85,85,85,85,85,85,85,85,85,85,85,85,85,85,85,85,85,85,85,85,85,85,85,85,
85,85,85,85,85,85,85,85,85,85,85,85,85,85,85,85,85,85,85,85,85,85,85,85,85,85,85,85,85,85,85,85,85,85,85,85,85,85,85,85,85,85,85,85,85,85,85,85,85,85,85,85,85,85,85,85,85,85,85,85,85,85,85,85,
85,85,85,85,85,85,85,85,85,85,85,85,85,85,85,85,85,85,85,85,85,85,85,85,85,85,85,85,85,85,85,85,85,85,85,85,85,85,85,85,85,85,85,85,85,85,85,85,85,85,85,85,85,85,85,85,85,85,85,85,85,85,85,85,
85,85,85,85,85,85,85,85,85,85,85,85,85,85,85,85,85,85,85,85,85,85,85,85,85,85,85,85,85,85,85,85,85,85,85,85,85,85,85,85,85,85,85,85,85,85,85,85,85,85,85,85,85,85,85,85,85,85,85,85,85,85,85,85,
85,85,85,85,85,85,85,85,85,85,85,85,85,85,85,85,85,85,85,85,85,85,85,85,85,85,85,85,85,85,85,85,85,85,85,85,85,85,85,85,85,85,85,85,85,85,85,85,85,85,85,85,85,85,85,85,85,85,85,85,85,85,85,85,
85,85,85,85,85,85,85,85,85,85,85,85,85,85,85,85,85,85,85,85,85,85,85,85,85,85,85,85,85,85,85,85,85,85,85,85,85,85,85,85,85,85,85,85,85,85,85,85,85,85,85,85,85,85,85,85,85,85,85,85,85,85,85,85,
85,85,85,85,85,85,85,85,85,85,85,85,85,85,85,85,85,85,85,85,85,85,85,85,85,85,85,85,85,85,85,85,85,85,85,85,85,85,85,85,85,85,85,85,85,85,85,85,85,85,85,85,85,85,85,85,85,85,85,85,85,85,85,85,
85,85,85,85,85,85,85,85,85,85,85,85,85,85,85,85,85,85,85,85,85,85,85,85,85,85,85,85,85,85,85,85,85,85,85,85,85,85,85,85,85,85,85,85,85,85,85,85,85,85,85,85,85,85,85,85,85,85,85,85,85,85,85,85,
85,85,85,85,85,85,85,85,85,85,85,85,85,85,85,85,85,85,85,85,85,85,85,85,85,85,85,85,85,85,85,85,85,85,85,85,85,85,85,85,85,85,85,85,85,85,85,85,85,85,85,85,85,85,85,85,85,85,85,85,85,85,85,85,
85,85,85,85,85,85,85,85,85,85,85,85,85,85,85,85,85,85,85,85,85,85,85,85,85,85,85,85,85,85,85,85,85,85,85,85,85,85,85,85,85,85,85,85,85,85,85,85,85,85,85,85,85,85,85,85,85,85,85,85,85,85,85,85,
85,85,85,85,85,85,85,85,85,85,85,85,85,85,85,85,85,85,85,85,85,85,85,85,85,85,85,85,85,85,85,85,85,85,85,85,85,85,85,85,85,85,85,85,85,85,85,85,85,85,85,85,85,85,85,85,85,85,85,85,85,85,85,85,
85,85,85,85,85,85,85,85,85,85,85,85,85,85,85,85,85,85,85,85,85,85,85,85,85,85,85,85,85,85,85,85,85,85,85,85,85,85,85,85,85,85,85,85,85,85,85,85,85,85,85,85,85,85,85,85,85,85,85,85,85,85,85,85,
85,85,85,85,85,85,85,85,85,85,85,85,85,85,85,85,85,85,85,85,85,85,85,85,85,85,85,85,85,85,85,85,85,85,85,85,85,85,85,85,85,85,85,85,85,85,85,85,85,85,85,85,85,85,85,85,85,85,85,85,85,85,85,85,
85,85,85,85,85,85,85,85,85,85,85,85,85,85,85,85,85,85,85,85,85,85,85,85,85,85,85,85,85,85,85,85,85,85,85,85,85,85,85,85,85,85,85,85,85,85,85,85,85,85,85,85,85,85,85,85,85,85,85,85,85,85,85,85,
85,85,85,85,85,85,85,85,85,85,85,85,85,85,85,85,85,85,85,85,85,85,85,85,85,85,85,85,85,85,85,85,85,85,85,85,85,85,85,85,85,85,85,85,85,85,85,85,85,85,85,85,85,85,85,85,85,85,85,85,85,85,85,85,
85,85,85,85,85,85,85,85,85,85,85,85,85,85,85,85,85,85,85,85,85,85,85,85,85,85,85,85,85,85,85,85,85,85,85,85,85,85,85,85,85,85,85,85,85,85,85,85,85,85,85,85,85,85,85,85,85,85,85,85,85,85,85,85,
85,85,85,85,85,85,85,85,85,85,85,85,85,85,85,85,85,85,85,85,85,85,85,85,85,85,85,85,85,85,85,85,85,85,85,85,85,85,85,85,85,85,85,85,85,85,85,85,85,85,85,85,85,85,85,85,85,85,85,85,85,85,85,85,
85,85,85,85,85,85,85,85,85,85,85,85,85,85,85,85,85,85,85,85,85,85,85,85,85,85,85,85,85,85,85,85,85,85,85,85,85,85,85,85,85,85,85,85,85,85,85,85,85,85,85,85,85,85,85,85,85,85,85,85,85,85,85,85,
85,85,85,85,85,85,85,85,85,85,85,85,85,85,85,85,85,85,85,85,85,85,85,85,85,85,85,85,85,85,85,85,85,85,85,85,85,85,85,85,85,85,85,85,85,85,85,85,85,85,85,85,85,85,85,85,85,85,85,85,85,85,85,85,
85,85,85,85,85,85,85,85,85,85,85,85,85,85,85,85,85,85,85,85,85,85,85,85,85,85,85,85,85,85,85,85,85,85,85,85,85,85,85,85,85,85,85,85,85,85,85,85,85,85,85,85,85,85,85,85,85,85,85,85,85,85,85,85,
85,85,85,85,85,85,85,85,85,85,85,85,85,85,85,85,85,85,85,85,85,85,85,85,85,85,85,85,85,85,85,85,85,85,85,85,85,85,85,85,85,85,85,85,85,85,85,85,85,85,85,85,85,85,85,85,85,85,85,85,85,85,85,85,
85,85,85,85,85,85,85,85,85,85,85,85,85,85,85,85,85,85,85,85,85,85,85,85,85,85,85,85,85,85,85,85,85,85,85,85,85,85,85,85,85,85,85,85,85,85,85,85,85,85,85,85,85,85,85,85,85,85,85,85,85,85,85,85,
85,85,85,85,85,85,85,85,85,85,85,85,85,85,85,85,85,85,85,85,85,85,85,85,85,85,85,85,85,85,85,85,85,85,85,85,85,85,85,85,85,85,85,85,85,85,85,85,85,85,85,85,85,85,85,85,85,85,85,85,85,85,85,85,
85,85,85,85,85,85,85,85,85,85,85,85,85,85,85,85,85,85,85,85,85,85,85,85,85,85,85,85,85,85,85,85,85,85,85,85,85,85,85,85,85,85,85,85,85,85,85,85,85,85,85,85,85,85,85,85,85,85,85,85,85,85,85,85
</data>
 </layer>
 <layer id="2" name="Path" width="64" height="64">
  <properties>
   <property name="terrainWangSet" value="Ground"/>
  </properties>
  <data encoding="csv">
0,0,0,0,0,0,0,0,0,0,0,0,0,0,0,0,0,0,0,0,0,0,0,0,0,0,0,0,0,0,0,0,0,0,0,0,0,0,0,0,0,0,0,0,0,0,0,0,0,0,0,0,0,0,0,0,0,0,0,0,0,0,0,0,
0,0,0,0,0,0,0,0,0,0,0,0,0,0,0,0,0,0,0,0,0,0,0,0,0,0,0,0,0,0,0,0,0,0,0,0,0,0,0,0,0,0,0,0,0,0,0,0,0,0,0,0,0,0,0,0,0,0,0,0,0,0,0,0,
0,0,0,0,0,0,0,0,0,0,0,0,0,0,0,0,0,0,0,0,0,7,8,9,0,0,0,0,0,0,0,0,0,0,0,0,0,0,0,0,0,0,0,0,0,0,0,0,0,0,0,0,0,0,0,0,0,0,0,0,0,0,0,0,
0,0,0,0,0,0,0,0,0,0,0,0,0,0,0,0,0,0,0,0,0,18,19,20,0,0,0,0,0,0,0,0,0,0,0,0,0,0,0,0,0,0,0,0,0,0,0,0,0,0,0,0,0,0,0,0,0,0,0,0,0,0,0,0,
0,0,0,0,0,0,0,0,0,0,0,0,0,40,41,41,41,41,41,41,42,29,30,31,0,0,0,0,0,0,0,0,0,0,0,0,0,0,0,0,0,0,0,0,0,0,0,0,0,0,0,0,0,0,0,0,0,0,0,0,0,0,0,0,
0,0,0,0,0,0,0,0,0,0,0,0,0,51,52,52,52,52,52,52,53,0,0,0,0,0,0,0,0,0,0,0,0,0,0,0,0,0,0,0,0,0,0,0,0,0,0,0,0,0,0,0,0,0,0,0,0,0,0,0,0,0,0,0,
0,0,0,0,0,0,0,0,0,0,0,0,0,51,52,52,52,52,52,52,53,0,0,0,0,0,0,0,0,0,0,0,0,0,0,0,0,0,0,0,0,0,0,0,0,0,0,0,0,0,0,0,0,0,0,0,0,0,0,0,0,0,0,0,
0,0,0,0,0,0,0,0,0,0,0,0,0,51,52,52,52,52,52,52,53,0,0,0,0,0,0,0,0,0,0,0,0,0,0,0,0,0,0,0,0,0,0,0,0,0,0,0,0,0,0,0,0,0,0,0,0,0,0,0,0,0,0,0,
0,0,0,0,0,0,0,0,0,0,0,0,0,51,52,52,52,52,52,52,53,0,0,0,0,0,0,0,0,0,0,0,0,0,0,0,0,0,0,0,0,40,41,41,41,41,41,41,41,41,41,41,42,0,0,0,0,0,0,0,0,0,0,0,
0,0,0,0,0,0,0,0,0,0,0,0,0,51,52,52,52,52,52,52,53,0,0,0,0,0,0,0,0,0,0,0,0,0,0,0,0,0,0,0,0,51,52,52,52,52,52,52,52,52,52,52,53,0,0,0,0,0,0,0,0,0,0,0,
0,0,0,0,0,0,0,0,0,0,0,0,0,51,52,52,52,52,52,52,53,0,0,0,0,0,0,0,0,0,0,0,0,0,0,0,0,0,0,0,0,51,52,52,52,52,52,52,52,52,52,52,53,0,0,0,0,0,0,0,0,0,0,0,
0,0,0,0,0,0,0,0,0,0,0,0,0,51,52,52,52,52,52,52,53,0,0,0,0,0,0,0,0,0,0,0,0,0,0,0,0,0,0,0,0,51,52,52,52,52,52,52,52,52,52,52,53,0,0,0,0,0,0,0,0,0,0,0,
0,0,0,40,41,41,41,41,41,41,41,41,42,62,63,63,63,63,63,63,64,0,0,0,0,0,0,0,0,0,0,0,0,0,0,0,0,0,0,0,0,51,52,52,52,52,52,52,52,52,52,52,53,0,0,0,0,0,0,0,0,0,0,0,
0,0,0,51,52,52,52,52,52,52,52,52,53,0,0,0,0,0,0,0,0,0,0,0,0,0,0,0,0,0,0,0,0,0,0,0,0,0,0,0,0,51,52,52,52,52,52,52,52,52,52,52,53,0,0,0,0,0,0,0,0,0,0,0,
0,0,0,51,52,52,52,52,52,52,52,52,53,0,0,0,0,0,0,0,0,0,0,0,0,0,0,0,0,0,0,0,0,0,0,0,0,0,0,0,0,51,52,52,52,52,52,52,52,52,52,52,53,0,0,0,0,0,0,0,0,0,0,0,
0,0,0,51,52,52,52,52,52,52,52,52,53,0,0,0,0,0,0,0,0,0,0,0,0,0,0,0,0,0,0,0,0,0,0,0,0,0,0,0,0,51,52,52,52,52,52,52,52,52,52,52,53,0,0,0,0,0,0,0,0,0,0,0,
0,0,0,51,52,52,52,52,52,52,52,52,53,0,0,0,0,0,0,0,0,0,0,0,0,0,0,0,0,0,0,0,0,0,0,0,0,0,0,0,0,51,52,52,52,52,52,52,52,52,52,52,53,0,0,0,0,0,0,0,0,0,0,0,
0,0,0,51,52,52,52,52,52,52,52,52,53,0,0,0,0,0,0,0,0,0,0,0,0,0,0,0,0,0,0,0,0,0,0,0,0,0,0,0,0,62,63,63,63,63,63,63,63,63,63,63,64,0,0,0,0,0,0,0,0,0,0,0,
0,0,0,51,52,52,52,52,52,52,52,52,53,0,0,0,0,0,0,0,0,0,0,0,0,0,0,0,0,0,0,0,0,0,0,0,0,0,0,0,0,0,0,0,0,0,0,0,0,0,0,0,0,0,0,0,0,0,0,0,0,0,0,0,
0,0,0,51,52,52,52,52,52,52,52,52,53,0,0,0,0,0,0,0,0,0,0,0,0,0,0,0,0,0,0,0,0,0,0,0,0,0,0,0,0,0,0,0,0,0,0,0,0,0,0,0,0,0,0,0,0,0,0,0,0,0,0,0,
0,0,0,62,63,63,63,63,63,63,63,63,64,0,0,0,0,0,0,0,0,0,0,0,0,0,0,0,0,0,0,0,0,0,0,0,0,0,0,0,0,0,0,40,41,41,41,41,41,42,0,0,0,0,0,0,0,0,0,0,0,0,0,0,
0,0,0,0,0,0,0,0,0,0,0,0,0,0,0,0,0,0,0,0,0,0,0,0,0,0,0,0,0,0,0,0,0,0,0,0,0,0,0,0,0,0,0,51,52,52,52,52,52,53,0,0,0,0,0,0,0,0,0,0,0,0,0,0,
0,0,0,0,0,0,0,0,0,0,0,0,0,0,0,0,0,0,0,0,0,0,0,0,0,0,0,0,0,0,0,0,0,0,0,0,0,0,0,0,0,0,0,62,63,44,52,52,52,53,0,0,0,0,0,0,0,0,0,0,0,0,0,0,
0,0,0,0,0,0,0,0,0,0,0,0,0,0,0,0,0,0,0,0,0,0,0,0,0,0,0,0,0,0,0,0,0,0,0,0,0,0,0,0,0,0,0,0,0,62,63,44,52,53,0,0,0,0,0,0,0,0,0,0,0,0,0,0,
0,0,0,0,0,0,0,0,0,0,0,0,0,0,0,0,0,0,0,0,0,0,0,0,0,0,0,0,0,0,0,0,0,0,0,0,0,0,0,0,0,0,0,0,0,0,0,62,63,64,0,0,0,0,0,0,0,0,0,0,0,0,0,0,
0,0,0,0,0,0,0,0,0,0,0,0,0,0,0,0,0,0,0,0,0,0,0,0,0,0,0,0,0,0,0,0,0,0,0,0,0,0,0,0,0,0,0,0,0,0,0,0,0,0,0,0,0,0,0,0,0,0,0,0,0,0,0,0,
0,0,0,0,0,0,0,0,0,0,0,0,0,0,0,0,0,0,0,0,0,0,0,0,0,0,0,0,0,0,0,0,0,0,0,0,0,0,0,0,0,0,0,0,0,0,0,0,0,0,0,0,0,0,0,0,0,0,0,0,0,0,0,0,
0,0,0,0,0,0,0,0,0,0,0,0,0,0,0,0,0,0,0,0,0,0,0,0,0,0,0,0,0,0,0,0,0,0,0,0,0,0,0,0,0,0,0,0,0,0,0,0,0,0,0,0,0,0,0,0,0,0,0,0,0,0,0,0,
0,0,0,0,0,0,0,0,0,0,0,0,0,0,0,0,0,0,0,0,0,0,0,0,0,0,0,0,0,0,0,0,0,0,0,0,0,0,0,0,0,0,0,0,0,0,0,0,0,0,0,0,0,0,0,0,0,0,0,0,0,0,0,0,
0,0,0,0,0,0,0,0,0,0,0,0,0,0,0,0,0,0,0,0,0,0,0,0,0,0,0,0,0,0,0,0,0,0,0,0,0,0,0,0,0,0,0,0,0,0,0,0,0,0,0,0,0,0,0,0,0,0,0,0,0,0,0,0,
0,0,0,0,0,0,0,0,0,0,0,0,0,0,0,0,0,0,0,0,0,0,0,0,0,0,0,0,0,0,0,0,0,0,0,0,0,0,0,0,0,0,0,0,0,0,0,0,0,0,0,0,0,0,0,0,0,0,0,0,0,0,0,0,
0,0,0,0,0,0,0,0,0,0,0,0,0,0,0,0,0,0,0,0,0,0,0,0,0,0,0,0,0,0,0,0,0,0,0,0,0,0,0,0,0,0,0,0,0,0,0,0,0,0,0,0,0,0,0,0,0,0,0,0,0,0,0,0,
0,0,0,0,0,0,0,0,0,0,0,0,0,0,0,0,0,0,0,0,0,0,0,0,0,0,0,0,0,0,0,0,0,0,0,0,0,0,0,0,0,0,0,0,0,0,0,0,0,0,0,0,0,0,0,0,0,0,0,0,0,0,0,0,
0,0,0,0,0,0,0,0,0,0,0,0,0,0,0,0,0,0,0,0,0,0,0,0,0,0,0,0,0,0,0,0,0,0,0,0,0,0,0,0,0,0,0,0,0,0,0,0,0,0,0,0,0,0,0,0,0,0,0,0,0,0,0,0,
0,0,0,0,0,0,0,0,0,0,0,0,0,0,0,0,0,0,0,0,0,0,0,0,0,0,0,0,0,0,0,0,0,0,0,0,0,0,0,0,0,0,0,0,0,0,0,0,0,0,0,0,0,0,0,0,0,0,0,0,0,0,0,0,
0,0,0,0,0,0,0,0,0,0,0,0,0,0,0,0,0,0,0,0,0,0,0,0,0,0,0,0,0,0,0,0,0,0,0,0,0,0,0,0,0,0,0,0,0,0,0,0,0,0,0,0,0,0,0,0,0,0,0,0,0,0,0,0,
0,0,0,0,0,0,0,0,0,0,0,0,0,0,0,0,0,0,0,0,0,0,0,0,0,0,0,0,0,0,0,0,0,0,0,0,0,0,0,0,0,0,0,0,0,0,0,0,0,0,0,0,0,0,0,0,0,0,0,0,0,0,0,0,
0,0,0,0,0,0,0,0,0,0,0,0,0,0,0,0,0,0,0,0,0,0,0,0,0,0,0,0,0,0,0,0,0,0,0,0,0,0,0,0,0,0,0,0,0,0,0,0,0,0,0,0,0,0,0,0,0,0,0,0,0,0,0,0,
0,0,0,0,0,0,0,0,0,0,0,0,0,0,0,0,0,0,0,0,0,0,0,0,0,0,0,0,0,0,0,0,0,0,0,0,0,0,0,0,0,0,0,0,0,0,0,0,0,0,0,0,0,0,0,0,0,0,0,0,0,0,0,0,
0,0,0,0,0,0,0,0,0,0,0,0,0,0,0,0,0,0,0,0,0,0,0,0,0,0,0,0,0,0,0,0,0,0,0,0,0,0,0,0,0,0,0,0,0,0,0,0,0,0,0,0,0,0,0,0,0,0,0,0,0,0,0,0,
0,0,0,0,0,0,0,0,0,0,0,0,0,0,0,0,0,0,0,0,0,0,0,0,0,0,0,0,0,0,0,0,0,0,0,0,0,0,0,0,0,0,0,0,0,0,0,0,0,0,0,0,0,0,0,0,0,0,0,0,0,0,0,0,
0,0,0,0,0,0,0,0,0,0,0,0,0,0,0,0,0,0,0,0,0,0,0,0,0,0,0,0,0,0,0,0,0,0,0,0,0,0,0,0,0,0,0,0,0,0,0,0,0,0,0,0,0,0,0,0,0,0,0,0,0,0,0,0,
0,0,0,0,0,0,0,0,0,0,0,0,0,0,0,0,0,0,0,0,0,0,0,0,0,0,0,0,0,0,0,0,0,0,0,0,0,0,0,0,0,0,0,0,0,0,0,0,0,0,0,0,0,0,0,0,0,0,0,0,0,0,0,0,
0,0,0,0,0,0,0,0,0,0,0,0,0,0,0,0,0,0,0,0,0,0,0,0,0,0,0,0,0,0,0,0,0,0,0,0,0,0,0,0,0,0,0,0,0,0,0,0,0,0,0,0,0,0,0,0,0,0,0,0,0,0,0,0,
0,0,0,0,0,0,0,0,0,0,0,0,0,0,0,0,0,0,0,0,0,0,0,0,0,0,0,0,0,0,0,0,0,0,0,0,0,0,0,0,0,0,0,0,0,0,0,0,0,0,0,0,0,0,0,0,0,0,0,0,0,0,0,0,
0,0,0,0,0,0,0,0,0,0,0,0,0,0,0,0,0,0,0,0,0,0,0,0,0,0,0,0,0,0,0,0,0,0,0,0,0,0,0,0,0,0,0,0,0,0,0,0,0,0,0,0,0,0,0,0,0,0,0,0,0,0,0,0,
0,0,0,0,0,0,0,0,0,0,0,0,0,0,0,0,0,0,0,0,0,0,0,0,0,0,0,0,0,0,0,0,0,0,0,0,0,0,0,0,0,0,0,0,0,0,0,0,0,0,0,0,0,0,0,0,0,0,0,0,0,0,0,0,
0,0,0,0,0,0,0,0,0,0,0,0,0,0,0,0,0,0,0,0,0,0,0,0,0,0,0,0,0,0,0,0,0,0,0,0,0,0,0,0,0,0,0,0,0,0,0,0,0,0,0,0,0,0,0,0,0,0,0,0,0,0,0,0,
0,0,0,0,0,0,0,0,0,0,0,0,0,0,0,0,0,0,0,0,0,0,0,0,0,0,0,0,0,0,0,0,0,0,0,0,0,0,0,0,0,0,0,0,0,0,0,0,0,0,0,0,0,0,0,0,0,0,0,0,0,0,0,0,
0,0,0,0,0,0,0,0,0,0,0,0,0,0,0,0,0,0,0,0,0,0,0,0,0,0,0,0,0,0,0,0,0,0,0,0,0,0,0,0,0,0,0,0,0,0,0,0,0,0,0,0,0,0,0,0,0,0,0,0,0,0,0,0,
0,0,0,0,0,0,0,0,0,0,0,0,0,0,0,0,0,0,0,0,0,0,0,0,0,0,0,0,0,0,0,0,0,0,0,0,0,0,0,0,0,0,0,0,0,0,0,0,0,0,0,0,0,0,0,0,0,0,0,0,0,0,0,0,
0,0,0,0,0,0,0,0,0,0,0,0,0,0,0,0,0,0,0,0,0,0,0,0,0,0,0,0,0,0,0,0,0,0,0,0,0,0,0,0,0,0,0,0,0,0,0,0,0,0,0,0,0,0,0,0,0,0,0,0,0,0,0,0,
0,0,0,0,0,0,0,0,0,0,0,0,0,0,0,0,0,0,0,0,0,0,0,0,0,0,0,0,0,0,0,0,0,0,0,0,0,0,0,0,0,0,0,0,0,0,0,0,0,0,0,0,0,0,0,0,0,0,0,0,0,0,0,0,
0,0,0,0,0,0,0,0,0,0,0,0,0,0,0,0,0,0,0,0,0,0,0,0,0,0,0,0,0,0,0,0,0,0,0,0,0,0,0,0,0,0,0,0,0,0,0,0,0,0,0,0,0,0,0,0,0,0,0,0,0,0,0,0,
0,0,0,0,0,0,0,0,0,0,0,0,0,0,0,0,0,0,0,0,0,0,0,0,0,0,0,0,0,0,0,0,0,0,0,0,0,0,0,0,0,0,0,0,0,0,0,0,0,0,0,0,0,0,0,0,0,0,0,0,0,0,0,0,
0,0,0,0,0,0,0,0,0,0,0,0,0,0,0,0,0,0,0,0,0,0,0,0,0,0,0,0,0,0,0,0,0,0,0,0,0,0,0,0,0,0,0,0,0,0,0,0,0,0,0,0,0,0,0,0,0,0,0,0,0,0,0,0,
0,0,0,0,0,0,0,0,0,0,0,0,0,0,0,0,0,0,0,0,0,0,0,0,0,0,0,0,0,0,0,0,0,0,0,0,0,0,0,0,0,0,0,0,0,0,0,0,0,0,0,0,0,0,0,0,0,0,0,0,0,0,0,0,
0,0,0,0,0,0,0,0,0,0,0,0,0,0,0,0,0,0,0,0,0,0,0,0,0,0,0,0,0,0,0,0,0,0,0,0,0,0,0,0,0,0,0,0,0,0,0,0,0,0,0,0,0,0,0,0,0,0,0,0,0,0,0,0,
0,0,0,0,0,0,0,0,0,0,0,0,0,0,0,0,0,0,0,0,0,0,0,0,0,0,0,0,0,0,0,0,0,0,0,0,0,0,0,0,0,0,0,0,0,0,0,0,0,0,0,0,0,0,0,0,0,0,0,0,0,0,0,0,
0,0,0,0,0,0,0,0,0,0,0,0,0,0,0,0,0,0,0,0,0,0,0,0,0,0,0,0,0,0,0,0,0,0,0,0,0,0,0,0,0,0,0,0,0,0,0,0,0,0,0,0,0,0,0,0,0,0,0,0,0,0,0,0,
0,0,0,0,0,0,0,0,0,0,0,0,0,0,0,0,0,0,0,0,0,0,0,0,0,0,0,0,0,0,0,0,0,0,0,0,0,0,0,0,0,0,0,0,0,0,0,0,0,0,0,0,0,0,0,0,0,0,0,0,0,0,0,0,
0,0,0,0,0,0,0,0,0,0,0,0,0,0,0,0,0,0,0,0,0,0,0,0,0,0,0,0,0,0,0,0,0,0,0,0,0,0,0,0,0,0,0,0,0,0,0,0,0,0,0,0,0,0,0,0,0,0,0,0,0,0,0,0,
0,0,0,0,0,0,0,0,0,0,0,0,0,0,0,0,0,0,0,0,0,0,0,0,0,0,0,0,0,0,0,0,0,0,0,0,0,0,0,0,0,0,0,0,0,0,0,0,0,0,0,0,0,0,0,0,0,0,0,0,0,0,0,0,
0,0,0,0,0,0,0,0,0,0,0,0,0,0,0,0,0,0,0,0,0,0,0,0,0,0,0,0,0,0,0,0,0,0,0,0,0,0,0,0,0,0,0,0,0,0,0,0,0,0,0,0,0,0,0,0,0,0,0,0,0,0,0,0
</data>
 </layer>
 <layer id="3" name="Walls" width="64" height="64">
  <properties>
   <property name="wallConnectGroup" value="plaster_wall"/>
   <property name="wallConstructionId" value="plaster_wall"/>
   <property name="wallFinishId" value="plaster_plain"/>
   <property name="wallHeightCells" type="int" value="5"/>
  </properties>
  <data encoding="csv">
0,0,0,0,0,0,0,0,0,0,0,0,0,0,0,0,0,0,0,0,0,0,0,0,0,0,0,0,0,0,0,0,0,0,0,0,0,0,0,0,0,0,0,0,0,0,0,0,0,0,0,0,0,0,0,0,0,0,0,0,0,0,0,0,
0,0,0,0,0,0,0,0,0,0,0,0,0,0,0,0,0,0,0,0,0,0,0,0,0,0,0,0,0,0,0,0,0,0,0,0,0,0,0,0,0,0,0,0,0,0,0,0,0,0,0,0,0,0,0,0,0,0,0,0,0,0,0,0,
0,0,0,0,0,0,0,0,0,0,0,0,0,0,0,0,0,0,0,0,0,0,0,0,0,0,0,0,0,0,0,0,0,0,0,0,0,0,0,0,0,0,0,0,0,0,0,0,0,0,0,0,0,0,0,0,0,0,0,0,0,0,0,0,
0,0,0,0,0,0,0,0,0,0,0,0,0,0,0,0,0,0,0,0,0,0,0,0,0,0,0,0,0,0,0,0,0,0,0,0,0,0,0,0,0,0,0,0,0,0,0,0,0,0,0,0,0,0,0,0,0,0,0,0,0,0,0,0,
0,0,0,0,0,0,0,0,0,0,0,0,0,0,0,0,0,0,0,0,0,0,0,0,0,0,0,0,0,0,0,0,0,0,0,0,0,0,0,0,0,0,0,0,0,0,0,0,0,0,0,0,0,0,0,0,0,0,0,0,0,0,0,0,
0,0,0,0,0,0,0,0,0,0,0,0,0,0,0,0,0,0,1,4,4,4,4,4,4,4,4,4,4,4,4,4,24,4,4,4,4,4,4,4,4,4,3,0,0,0,0,0,0,0,0,0,0,0,0,0,0,0,0,0,0,0,0,0,
0,0,0,0,0,0,0,0,0,0,0,0,0,0,0,0,0,0,26,0,0,0,0,0,0,0,0,0,0,0,0,0,26,0,0,0,0,0,0,0,0,0,26,0,0,0,0,0,0,0,0,0,0,0,0,0,0,0,0,0,0,0,0,0,
0,0,0,0,0,0,0,0,0,0,0,0,0,0,0,0,0,0,26,0,0,0,0,0,0,0,0,0,0,0,0,0,26,0,0,0,0,0,0,0,0,0,14,4,4,4,4,4,4,4,4,4,3,0,0,0,0,0,0,0,0,0,0,0,
0,0,0,0,0,0,0,0,0,0,0,0,0,0,0,0,0,0,26,0,0,0,0,0,0,0,0,0,0,0,0,0,26,0,0,0,0,0,0,0,0,0,26,0,0,0,0,0,0,0,0,0,26,0,0,0,0,0,0,0,0,0,0,0,
0,0,0,0,0,0,0,0,0,0,0,0,0,0,0,0,0,0,26,0,0,0,0,0,0,0,0,0,0,0,0,0,26,0,0,0,0,0,0,0,0,0,26,0,0,0,0,0,0,0,0,0,26,0,0,0,0,0,0,0,0,0,0,0,
0,0,0,0,0,0,0,0,0,0,0,0,0,0,0,0,0,0,26,0,0,0,0,0,0,0,0,0,0,0,0,0,14,4,4,4,4,4,4,4,4,4,12,0,0,0,0,0,0,0,0,0,26,0,0,0,0,0,0,0,0,0,0,0,
0,0,0,0,0,0,0,0,0,0,0,0,0,0,0,0,0,0,26,0,0,0,0,0,0,0,0,0,0,0,0,0,26,0,0,0,0,0,0,0,0,0,26,0,0,0,0,0,0,0,0,0,26,0,0,0,0,0,0,0,0,0,0,0,
0,0,0,0,0,0,0,0,0,0,0,0,0,0,0,0,0,0,26,0,0,0,0,0,0,0,0,0,0,0,0,0,26,0,0,0,0,0,0,0,0,0,26,0,0,0,0,0,0,0,0,0,26,0,0,0,0,0,0,0,0,0,0,0,
0,0,0,0,0,0,0,0,0,0,0,0,0,0,0,0,0,0,26,0,0,0,0,0,0,0,0,0,0,0,0,0,26,0,0,0,0,0,0,0,0,0,26,0,0,0,0,0,0,0,0,0,26,0,0,0,0,0,0,0,0,0,0,0,
0,0,0,0,0,0,0,0,0,0,0,0,0,0,0,0,0,0,26,0,0,0,0,0,0,0,0,0,0,0,0,0,26,0,0,0,0,0,0,0,0,0,26,0,0,0,0,0,0,0,0,0,26,0,0,0,0,0,0,0,0,0,0,0,
0,0,0,0,0,0,0,0,0,0,0,0,0,0,0,0,0,0,26,0,0,0,0,0,0,0,0,0,0,0,0,0,26,0,0,0,0,0,0,0,0,0,26,0,0,0,0,0,0,0,0,0,26,0,0,0,0,0,0,0,0,0,0,0,
0,0,0,0,0,0,0,0,0,0,0,0,0,0,0,0,0,0,26,0,0,0,0,0,0,0,0,0,0,0,0,0,23,4,4,24,4,4,4,4,4,4,12,0,0,0,0,0,0,0,0,0,26,0,0,0,0,0,0,0,0,0,0,0,
0,0,0,0,0,0,0,0,0,0,0,0,0,0,0,0,0,0,26,0,0,0,0,0,0,0,0,0,0,0,0,0,0,0,0,26,0,0,0,0,0,0,26,0,0,0,0,0,0,0,0,0,26,0,0,0,0,0,0,0,0,0,0,0,
0,0,0,0,0,0,0,0,0,0,0,0,0,0,0,0,0,0,26,0,0,0,0,0,0,0,0,0,0,0,0,0,0,0,0,26,0,0,0,0,0,0,26,0,0,0,0,0,0,0,0,0,26,0,0,0,0,0,0,0,0,0,0,0,
0,0,0,0,0,0,0,0,0,0,0,0,0,0,0,0,0,0,26,0,0,0,0,0,0,0,0,0,0,0,0,0,0,0,0,26,0,0,0,0,0,0,26,0,0,0,0,0,0,0,0,0,26,0,0,0,0,0,0,0,0,0,0,0,
0,0,0,0,0,0,0,0,0,0,0,0,0,0,0,0,0,0,26,0,0,0,0,0,0,0,0,0,0,0,0,0,0,0,0,26,0,0,0,0,0,0,26,0,0,0,0,0,0,0,0,0,26,0,0,0,0,0,0,0,0,0,0,0,
0,0,0,0,0,0,0,0,0,0,0,0,0,0,0,0,0,0,26,0,0,0,0,0,0,0,0,0,0,0,0,0,0,0,0,23,4,4,4,4,24,4,12,0,0,0,0,0,0,0,0,0,26,0,0,0,0,0,0,0,0,0,0,0,
0,0,0,0,0,0,0,0,0,0,0,0,0,0,0,0,0,0,26,0,0,0,0,0,0,0,0,0,0,0,0,0,0,0,0,0,0,0,0,0,26,0,23,4,4,4,4,4,4,4,4,4,25,0,0,0,0,0,0,0,0,0,0,0,
0,0,0,0,0,0,0,0,0,0,0,0,0,0,0,0,0,0,26,0,0,0,0,0,0,0,0,0,0,0,0,0,0,0,0,0,0,0,0,0,26,0,0,0,0,0,0,0,0,0,0,0,0,0,0,0,0,0,0,0,0,0,0,0,
0,0,0,0,0,0,0,0,0,0,0,0,0,0,0,0,0,0,23,4,4,4,4,4,4,4,4,4,4,4,4,4,4,4,4,4,4,4,4,4,25,0,0,0,0,0,0,0,0,0,0,0,0,0,0,0,0,0,0,0,0,0,0,0,
0,0,0,0,0,0,0,0,0,0,0,0,0,0,0,0,0,0,0,0,0,0,0,0,0,0,0,0,0,0,0,0,0,0,0,0,0,0,0,0,0,0,0,0,0,0,0,0,0,0,0,0,0,0,0,0,0,0,0,0,0,0,0,0,
0,0,0,0,0,0,0,0,0,0,0,0,0,0,0,0,0,0,0,0,0,0,0,0,0,0,0,0,0,0,0,0,0,0,0,0,0,0,0,0,0,0,0,0,0,0,0,0,0,0,0,0,0,0,0,0,0,0,0,0,0,0,0,0,
0,0,0,0,0,0,0,0,0,0,0,0,0,0,0,0,0,0,0,0,0,0,0,0,0,0,0,0,0,0,0,0,0,0,0,0,0,0,0,0,0,0,0,0,0,0,0,0,0,0,0,0,0,0,0,0,0,0,0,0,0,0,0,0,
0,0,0,0,0,0,0,0,0,0,0,0,0,0,0,0,0,0,0,0,0,0,0,0,0,0,0,0,0,0,0,0,0,0,0,0,0,0,0,0,0,0,0,0,0,0,0,0,0,0,0,0,0,0,0,0,0,0,0,0,0,0,0,0,
0,0,0,0,0,0,0,0,0,0,0,0,0,0,0,0,0,0,0,0,0,0,0,0,0,0,0,0,0,0,0,0,0,0,0,0,0,0,0,0,0,0,0,0,0,0,0,0,0,0,0,0,0,0,0,0,0,0,0,0,0,0,0,0,
0,0,0,0,0,0,0,0,0,0,0,0,0,0,0,0,0,0,0,0,0,0,0,0,0,0,0,0,0,0,0,0,0,0,0,0,0,0,0,0,0,0,0,0,0,0,0,0,0,0,0,0,0,0,0,0,0,0,0,0,0,0,0,0,
0,0,0,0,0,0,0,0,0,0,0,0,0,0,0,0,0,0,0,0,0,0,0,0,0,0,0,0,0,0,0,0,0,0,0,0,0,0,0,0,0,0,0,0,0,0,0,0,0,0,0,0,0,0,0,0,0,0,0,0,0,0,0,0,
0,0,0,0,0,0,0,0,0,0,0,0,0,0,0,0,0,0,0,0,0,0,0,0,0,0,0,0,0,0,0,0,0,0,0,0,0,0,0,0,0,0,0,0,0,0,0,0,0,0,0,0,0,0,0,0,0,0,0,0,0,0,0,0,
0,0,0,0,0,0,0,0,0,0,0,0,0,0,0,0,0,0,0,0,0,0,0,0,0,0,0,0,0,0,0,0,0,0,0,0,0,0,0,0,0,0,0,0,0,0,0,0,0,0,0,0,0,0,0,0,0,0,0,0,0,0,0,0,
0,0,0,0,0,0,0,0,0,0,0,0,0,0,0,0,0,0,0,0,0,0,0,0,0,1,4,4,4,4,4,4,4,4,4,4,4,4,3,0,1,4,4,4,4,4,4,4,4,4,4,4,4,3,0,0,0,0,0,0,0,0,0,0,
0,0,0,0,0,0,0,0,0,0,0,0,0,0,0,0,0,0,0,0,0,0,0,0,0,26,0,0,0,0,0,0,0,0,0,0,0,0,26,0,26,0,0,0,0,0,0,0,0,0,0,0,0,26,0,0,0,0,0,0,0,0,0,0,
0,0,0,0,0,0,0,0,0,0,0,0,0,0,0,0,0,0,0,0,0,0,0,0,0,26,0,0,0,0,0,0,0,0,0,0,0,0,26,0,26,0,0,0,0,0,0,0,0,0,0,0,0,26,0,0,0,0,0,0,0,0,0,0,
0,0,0,0,0,0,0,0,0,0,0,0,0,0,0,0,0,0,0,0,0,0,0,0,0,26,0,0,0,0,0,0,0,0,0,0,0,0,26,0,26,0,0,0,0,0,0,0,0,0,0,0,0,26,0,0,0,0,0,0,0,0,0,0,
0,0,0,0,0,0,0,0,0,0,0,0,0,0,0,0,0,0,0,0,0,0,0,0,0,26,0,0,0,0,0,0,0,0,0,0,0,0,26,0,26,0,0,0,0,0,0,0,0,0,0,0,0,26,0,0,0,0,0,0,0,0,0,0,
0,0,0,0,0,0,0,0,0,0,0,0,0,0,0,0,0,0,0,0,0,0,0,0,0,26,0,0,0,0,0,0,0,0,0,0,0,0,26,0,26,0,0,0,0,0,0,0,0,0,0,0,0,26,0,0,0,0,0,0,0,0,0,0,
0,0,0,0,0,0,0,0,0,0,0,0,0,0,0,0,0,0,0,0,0,0,0,0,0,26,0,0,0,0,0,0,0,0,0,0,0,0,26,0,26,0,0,0,0,0,0,0,0,0,0,0,0,26,0,0,0,0,0,0,0,0,0,0,
0,0,0,0,0,0,0,0,0,0,0,0,0,0,0,0,0,0,0,0,0,0,0,0,0,26,0,0,0,0,0,0,0,0,0,0,0,0,26,0,26,0,0,0,0,0,0,0,0,0,0,0,0,26,0,0,0,0,0,0,0,0,0,0,
0,0,0,0,0,0,0,0,0,0,0,0,0,0,0,0,0,0,0,0,0,0,0,0,0,26,0,0,0,0,0,0,0,0,0,0,0,0,26,0,26,0,0,0,0,0,0,0,0,0,0,0,0,26,0,0,0,0,0,0,0,0,0,0,
0,0,0,0,0,0,0,0,0,0,0,0,0,0,0,0,0,0,0,0,0,0,0,0,0,26,0,0,0,0,0,0,0,0,0,0,0,0,26,0,26,0,0,0,0,0,0,0,0,0,0,0,0,26,0,0,0,0,0,0,0,0,0,0,
0,0,0,0,0,0,0,0,0,0,0,0,0,0,0,0,0,0,0,0,0,0,0,0,0,26,0,0,0,0,0,0,0,0,0,0,0,0,26,0,26,0,0,0,0,0,0,0,0,0,0,0,0,26,0,0,0,0,0,0,0,0,0,0,
0,0,0,0,0,0,0,0,0,0,0,0,0,0,0,0,0,0,0,0,0,0,0,0,0,23,4,4,4,4,4,4,4,4,4,4,4,4,25,0,23,4,4,4,4,4,4,4,4,4,4,4,4,25,0,0,0,0,0,0,0,0,0,0,
0,0,0,0,0,0,0,0,0,0,0,0,0,0,0,0,0,0,0,0,0,0,0,0,0,0,0,0,0,0,0,0,0,0,0,0,0,0,0,0,0,0,0,0,0,0,0,0,0,0,0,0,0,0,0,0,0,0,0,0,0,0,0,0,
0,0,0,0,0,0,0,0,0,0,0,0,0,0,0,0,0,0,0,0,0,0,0,0,0,0,0,0,0,0,0,0,0,0,0,0,0,0,0,0,1,4,4,4,4,4,4,4,4,4,4,4,4,3,0,0,0,0,0,0,0,0,0,0,
0,0,0,0,0,0,0,0,0,0,0,0,0,0,0,0,0,0,0,0,0,0,0,0,0,0,0,0,0,0,0,0,0,0,0,0,0,0,0,0,26,0,0,0,0,0,0,0,0,0,0,0,0,26,0,0,0,0,0,0,0,0,0,0,
0,0,0,0,0,0,0,0,0,0,0,0,0,0,0,0,0,0,0,0,0,0,0,0,0,0,0,0,0,0,0,0,0,0,0,0,0,0,0,0,26,0,0,0,0,0,0,0,0,0,0,0,0,26,0,0,0,0,0,0,0,0,0,0,
0,0,0,0,0,0,0,0,0,0,0,0,0,0,0,0,0,0,0,0,0,0,0,0,0,0,0,0,0,0,0,0,0,0,0,0,0,0,0,0,26,0,0,0,0,0,0,0,0,0,0,0,0,26,0,0,0,0,0,0,0,0,0,0,
0,0,0,0,0,0,0,0,0,0,0,0,0,0,0,0,0,0,0,0,0,0,0,0,0,0,0,0,0,0,0,0,0,0,0,0,0,0,0,0,26,0,0,0,0,0,0,0,0,0,0,0,0,26,0,0,0,0,0,0,0,0,0,0,
0,0,0,0,0,0,0,0,0,0,0,0,0,0,0,0,0,0,0,0,0,0,0,0,0,0,0,0,0,0,0,0,0,0,0,0,0,0,0,0,26,0,0,0,0,0,0,0,0,0,0,0,0,26,0,0,0,0,0,0,0,0,0,0,
0,0,0,0,0,0,0,0,0,0,0,0,0,0,0,0,0,0,0,0,0,0,0,0,0,0,0,0,0,0,0,0,0,0,0,0,0,0,0,0,26,0,0,0,0,0,0,0,0,0,0,0,0,26,0,0,0,0,0,0,0,0,0,0,
0,0,0,0,0,0,0,0,0,0,0,0,0,0,0,0,0,0,0,0,0,0,0,0,0,0,0,0,0,0,0,0,0,0,0,0,0,0,0,0,26,0,0,0,0,0,0,0,0,0,0,0,0,26,0,0,0,0,0,0,0,0,0,0,
0,0,0,0,0,0,0,0,0,0,0,0,0,0,0,0,0,0,0,0,0,0,0,0,0,0,0,0,0,0,0,0,0,0,0,0,0,0,0,0,26,0,0,0,0,0,0,0,0,0,0,0,0,26,0,0,0,0,0,0,0,0,0,0,
0,0,0,0,0,0,0,0,0,0,0,0,0,0,0,0,0,0,0,0,0,0,0,0,0,0,0,0,0,0,0,0,0,0,0,0,0,0,0,0,26,0,0,0,0,0,0,0,0,0,0,0,0,26,0,0,0,0,0,0,0,0,0,0,
0,0,0,0,0,0,0,0,0,0,0,0,0,0,0,0,0,0,0,0,0,0,0,0,0,0,0,0,0,0,0,0,0,0,0,0,0,0,0,0,26,0,0,0,0,0,0,0,0,0,0,0,0,26,0,0,0,0,0,0,0,0,0,0,
0,0,0,0,0,0,0,0,0,0,0,0,0,0,0,0,0,0,0,0,0,0,0,0,0,0,0,0,0,0,0,0,0,0,0,0,0,0,0,0,23,4,4,4,4,4,4,4,4,4,4,4,4,25,0,0,0,0,0,0,0,0,0,0,
0,0,0,0,0,0,0,0,0,0,0,0,0,0,0,0,0,0,0,0,0,0,0,0,0,0,0,0,0,0,0,0,0,0,0,0,0,0,0,0,0,0,0,0,0,0,0,0,0,0,0,0,0,0,0,0,0,0,0,0,0,0,0,0,
0,0,0,0,0,0,0,0,0,0,0,0,0,0,0,0,0,0,0,0,0,0,0,0,0,0,0,0,0,0,0,0,0,0,0,0,0,0,0,0,0,0,0,0,0,0,0,0,0,0,0,0,0,0,0,0,0,0,0,0,0,0,0,0,
0,0,0,0,0,0,0,0,0,0,0,0,0,0,0,0,0,0,0,0,0,0,0,0,0,0,0,0,0,0,0,0,0,0,0,0,0,0,0,0,0,0,0,0,0,0,0,0,0,0,0,0,0,0,0,0,0,0,0,0,0,0,0,0,
0,0,0,0,0,0,0,0,0,0,0,0,0,0,0,0,0,0,0,0,0,0,0,0,0,0,0,0,0,0,0,0,0,0,0,0,0,0,0,0,0,0,0,0,0,0,0,0,0,0,0,0,0,0,0,0,0,0,0,0,0,0,0,0,
0,0,0,0,0,0,0,0,0,0,0,0,0,0,0,0,0,0,0,0,0,0,0,0,0,0,0,0,0,0,0,0,0,0,0,0,0,0,0,0,0,0,0,0,0,0,0,0,0,0,0,0,0,0,0,0,0,0,0,0,0,0,0,0
</data>
 </layer>
 <objectgroup id="2" name="Objects">
  <object id="1" name="Portal" x="64" y="64" width="128" height="128">
   <properties>
    <property name="portalId" value="sandbox_outside"/>
    <property name="targetMap" value="Outside"/>
    <property name="targetPortalId" value="outside_sandbox"/>
    <property name="variant" value="ancient_portal"/>
   </properties>
  </object>
  <object id="2" name="Spawn" x="256" y="256" width="192" height="192">
   <properties>
    <property name="displayName" value="Open Ground"/>
    <property name="type" value="myte"/>
   </properties>
  </object>
  <object id="4" name="Door" x="1120" y="320" width="128" height="32">
   <properties>
    <property name="wallOpening" type="bool" value="true"/>
    <property name="openingHeight" type="int" value="128"/>
    <property name="sillHeight" type="int" value="0"/>
    <property name="continuesTopTrim" type="bool" value="false"/>
   </properties>
  </object>
  <object id="5" name="Door" x="1472" y="224" width="128" height="32">
   <properties>
    <property name="wallOpening" type="bool" value="true"/>
    <property name="openingHeight" type="int" value="128"/>
    <property name="sillHeight" type="int" value="0"/>
    <property name="continuesTopTrim" type="bool" value="false"/>
   </properties>
  </object>
  <object id="6" name="Door" x="1440" y="704" width="128" height="32">
   <properties>
    <property name="wallOpening" type="bool" value="true"/>
    <property name="openingHeight" type="int" value="128"/>
    <property name="sillHeight" type="int" value="0"/>
    <property name="continuesTopTrim" type="bool" value="false"/>
   </properties>
  </object>
  <object id="7" name="Door" x="960" y="768" width="128" height="32">
   <properties>
    <property name="wallOpening" type="bool" value="true"/>
    <property name="openingHeight" type="int" value="128"/>
    <property name="sillHeight" type="int" value="0"/>
    <property name="continuesTopTrim" type="bool" value="false"/>
   </properties>
  </object>
  <object id="8" name="RoomAssignment" x="832" y="1120" width="384" height="320">
   <properties>
    <property name="type" value="RoomAssignment"/>
    <property name="roomId" value="room_1"/>
    <property name="cells" value="26,35 26,36 26,37 26,38 26,39 26,40 26,41 26,42 26,43 26,44 27,35 27,36 27,37 27,38 27,39 27,40 27,41 27,42 27,43 27,44 28,35 28,36 28,37 28,38 28,39 28,40 28,41 28,42 28,43 28,44 29,35 29,36 29,37 29,38 29,39 29,40 29,41 29,42 29,43 29,44 30,35 30,36 30,37 30,38 30,39 30,40 30,41 30,42 30,43 30,44 31,35 31,36 31,37 31,38 31,39 31,40 31,41 31,42 31,43 31,44 32,35 32,36 32,37 32,38 32,39 32,40 32,41 32,42 32,43 32,44 33,35 33,36 33,37 33,38 33,39 33,40 33,41 33,42 33,43 33,44 34,35 34,36 34,37 34,38 34,39 34,40 34,41 34,42 34,43 34,44 35,35 35,36 35,37 35,38 35,39 35,40 35,41 35,42 35,43 35,44 36,35 36,36 36,37 36,38 36,39 36,40 36,41 36,42 36,43 36,44 37,35 37,36 37,37 37,38 37,39 37,40 37,41 37,42 37,43 37,44"/>
    <property name="buildingId" value="building_3"/>
    <property name="roofStyle" value="gable"/>
    <property name="roofRidgeAxis" value="x"/>
    <property name="roofFinishId" value="shingle_asphalt"/>
    <property name="roofColorId" value="charcoal"/>
    <property name="roofOverhang" type="int" value="0"/>
    <property name="roofVisibility" value="auto"/>
    <property name="roofExcludedCells" value=""/>
   </properties>
  </object>
  <object id="9" name="RoomAssignment" x="1056" y="352" width="288" height="160">
   <properties>
    <property name="type" value="RoomAssignment"/>
    <property name="roomId" value="room_2"/>
    <property name="cells" value="33,11 33,12 33,13 33,14 33,15 34,11 34,12 34,13 34,14 34,15 35,11 35,12 35,13 35,14 35,15 36,11 36,12 36,13 36,14 36,15 37,11 37,12 37,13 37,14 37,15 38,11 38,12 38,13 38,14 38,15 39,11 39,12 39,13 39,14 39,15 40,11 40,12 40,13 40,14 40,15 41,11 41,12 41,13 41,14 41,15"/>
   </properties>
  </object>
  <object id="10" name="RoomAssignment" x="1056" y="192" width="288" height="128">
   <properties>
    <property name="type" value="RoomAssignment"/>
    <property name="roomId" value="room_3"/>
    <property name="cells" value="33,6 33,7 33,8 33,9 34,6 34,7 34,8 34,9 35,6 35,7 35,8 35,9 36,6 36,7 36,8 36,9 37,6 37,7 37,8 37,9 38,6 38,7 38,8 38,9 39,6 39,7 39,8 39,9 40,6 40,7 40,8 40,9 41,6 41,7 41,8 41,9"/>
   </properties>
  </object>
  <object id="11" name="RoomAssignment" x="608" y="192" width="672" height="576">
   <properties>
    <property name="type" value="RoomAssignment"/>
    <property name="roomId" value="room_painted_1"/>
    <property name="cells" value="19,10 19,11 19,12 19,13 19,14 19,15 19,16 19,17 19,18 19,19 19,20 19,21 19,22 19,23 19,6 19,7 19,8 19,9 20,10 20,11 20,12 20,13 20,14 20,15 20,16 20,17 20,18 20,19 20,20 20,21 20,22 20,23 20,6 20,7 20,8 20,9 21,10 21,11 21,12 21,13 21,14 21,15 21,16 21,17 21,18 21,19 21,20 21,21 21,22 21,23 21,6 21,7 21,8 21,9 22,10 22,11 22,12 22,13 22,14 22,15 22,16 22,17 22,18 22,19 22,20 22,21 22,22 22,23 22,6 22,7 22,8 22,9 23,10 23,11 23,12 23,13 23,14 23,15 23,16 23,17 23,18 23,19 23,20 23,21 23,22 23,23 23,6 23,7 23,8 23,9 24,10 24,11 24,12 24,13 24,14 24,15 24,16 24,17 24,18 24,19 24,20 24,21 24,22 24,23 24,6 24,7 24,8 24,9 25,10 25,11 25,12 25,13 25,14 25,15 25,16 25,17 25,18 25,19 25,20 25,21 25,22 25,23 25,6 25,7 25,8 25,9 26,10 26,11 26,12 26,13 26,14 26,15 26,16 26,17 26,18 26,19 26,20 26,21 26,22 26,23 26,6 26,7 26,8 26,9 27,10 27,11 27,12 27,13 27,14 27,15 27,16 27,17 27,18 27,19 27,20 27,21 27,22 27,23 27,6 27,7 27,8 27,9 28,10 28,11 28,12 28,13 28,14 28,15 28,16 28,17 28,18 28,19 28,20 28,21 28,22 28,23 28,6 28,7 28,8 28,9 29,10 29,11 29,12 29,13 29,14 29,15 29,16 29,17 29,18 29,19 29,20 29,21 29,22 29,23 29,6 29,7 29,8 29,9 30,10 30,11 30,12 30,13 30,14 30,15 30,16 30,17 30,18 30,19 30,20 30,21 30,22 30,23 30,6 30,7 30,8 30,9 31,10 31,11 31,12 31,13 31,14 31,15 31,16 31,17 31,18 31,19 31,20 31,21 31,22 31,23 31,6 31,7 31,8 31,9 32,17 32,18 32,19 32,20 32,21 32,22 32,23 33,17 33,18 33,19 33,20 33,21 33,22 33,23 34,17 34,18 34,19 34,20 34,21 34,22 34,23 35,22 35,23 36,22 36,23 37,22 37,23 38,22 38,23 39,22 39,23"/>
   </properties>
  </object>
  <object id="12" name="RoomAssignment" x="1376" y="256" width="288" height="448">
   <properties>
    <property name="type" value="RoomAssignment"/>
    <property name="roomId" value="room_painted_2"/>
    <property name="cells" value="43,10 43,11 43,12 43,13 43,14 43,15 43,16 43,17 43,18 43,19 43,20 43,21 43,8 43,9 44,10 44,11 44,12 44,13 44,14 44,15 44,16 44,17 44,18 44,19 44,20 44,21 44,8 44,9 45,10 45,11 45,12 45,13 45,14 45,15 45,16 45,17 45,18 45,19 45,20 45,21 45,8 45,9 46,10 46,11 46,12 46,13 46,14 46,15 46,16 46,17 46,18 46,19 46,20 46,21 46,8 46,9 47,10 47,11 47,12 47,13 47,14 47,15 47,16 47,17 47,18 47,19 47,20 47,21 47,8 47,9 48,10 48,11 48,12 48,13 48,14 48,15 48,16 48,17 48,18 48,19 48,20 48,21 48,8 48,9 49,10 49,11 49,12 49,13 49,14 49,15 49,16 49,17 49,18 49,19 49,20 49,21 49,8 49,9 50,10 50,11 50,12 50,13 50,14 50,15 50,16 50,17 50,18 50,19 50,20 50,21 50,8 50,9 51,10 51,11 51,12 51,13 51,14 51,15 51,16 51,17 51,18 51,19 51,20 51,21 51,8 51,9"/>
   </properties>
  </object>
  <object id="13" name="RoomAssignment" x="1152" y="544" width="192" height="128">
   <properties>
    <property name="type" value="RoomAssignment"/>
    <property name="roomId" value="room_painted_3"/>
    <property name="cells" value="36,17 36,18 36,19 36,20 37,17 37,18 37,19 37,20 38,17 38,18 38,19 38,20 39,17 39,18 39,19 39,20 40,17 40,18 40,19 40,20 41,17 41,18 41,19 41,20"/>
   </properties>
  </object>
  <object id="14" name="RoomAssignment" x="1312" y="1120" width="384" height="320">
   <properties>
    <property name="type" value="RoomAssignment"/>
    <property name="roomId" value="room_painted_4"/>
    <property name="cells" value="41,35 41,36 41,37 41,38 41,39 41,40 41,41 41,42 41,43 41,44 42,35 42,36 42,37 42,38 42,39 42,40 42,41 42,42 42,43 42,44 43,35 43,36 43,37 43,38 43,39 43,40 43,41 43,42 43,43 43,44 44,35 44,36 44,37 44,38 44,39 44,40 44,41 44,42 44,43 44,44 45,35 45,36 45,37 45,38 45,39 45,40 45,41 45,42 45,43 45,44 46,35 46,36 46,37 46,38 46,39 46,40 46,41 46,42 46,43 46,44 47,35 47,36 47,37 47,38 47,39 47,40 47,41 47,42 47,43 47,44 48,35 48,36 48,37 48,38 48,39 48,40 48,41 48,42 48,43 48,44 49,35 49,36 49,37 49,38 49,39 49,40 49,41 49,42 49,43 49,44 50,35 50,36 50,37 50,38 50,39 50,40 50,41 50,42 50,43 50,44 51,35 51,36 51,37 51,38 51,39 51,40 51,41 51,42 51,43 51,44 52,35 52,36 52,37 52,38 52,39 52,40 52,41 52,42 52,43 52,44"/>
   </properties>
  </object>
  <object id="15" name="RoomAssignment" x="1312" y="1536" width="384" height="320">
   <properties>
    <property name="type" value="RoomAssignment"/>
    <property name="roomId" value="room_painted_5"/>
    <property name="cells" value="41,48 41,49 41,50 41,51 41,52 41,53 41,54 41,55 41,56 41,57 42,48 42,49 42,50 42,51 42,52 42,53 42,54 42,55 42,56 42,57 43,48 43,49 43,50 43,51 43,52 43,53 43,54 43,55 43,56 43,57 44,48 44,49 44,50 44,51 44,52 44,53 44,54 44,55 44,56 44,57 45,48 45,49 45,50 45,51 45,52 45,53 45,54 45,55 45,56 45,57 46,48 46,49 46,50 46,51 46,52 46,53 46,54 46,55 46,56 46,57 47,48 47,49 47,50 47,51 47,52 47,53 47,54 47,55 47,56 47,57 48,48 48,49 48,50 48,51 48,52 48,53 48,54 48,55 48,56 48,57 49,48 49,49 49,50 49,51 49,52 49,53 49,54 49,55 49,56 49,57 50,48 50,49 50,50 50,51 50,52 50,53 50,54 50,55 50,56 50,57 51,48 51,49 51,50 51,51 51,52 51,53 51,54 51,55 51,56 51,57 52,48 52,49 52,50 52,51 52,52 52,53 52,54 52,55 52,56 52,57"/>
   </properties>
  </object>
  <object id="16" name="WallFinishOverride" x="576" y="768" width="32" height="32">
   <properties>
    <property name="type" value="WallFinishOverride"/>
    <property name="face" value="north"/>
    <property name="finishId" value="paint_terracotta"/>
    <property name="half" type="int" value="1"/>
    <property name="fromX" type="int" value="18"/>
    <property name="fromY" type="int" value="24"/>
    <property name="toX" type="int" value="18"/>
    <property name="toY" type="int" value="24"/>
   </properties>
  </object>
  <object id="17" name="WallFinishOverride" x="576" y="768" width="32" height="32">
   <properties>
    <property name="type" value="WallFinishOverride"/>
    <property name="face" value="south"/>
    <property name="finishId" value="wallpaper_blue_flower"/>
    <property name="half" type="int" value="0"/>
    <property name="fromX" type="int" value="18"/>
    <property name="fromY" type="int" value="24"/>
    <property name="toX" type="int" value="18"/>
    <property name="toY" type="int" value="24"/>
   </properties>
  </object>
  <object id="18" name="WallFinishOverride" x="576" y="768" width="32" height="32">
   <properties>
    <property name="type" value="WallFinishOverride"/>
    <property name="face" value="south"/>
    <property name="finishId" value="wallpaper_blue_flower"/>
    <property name="half" type="int" value="1"/>
    <property name="fromX" type="int" value="18"/>
    <property name="fromY" type="int" value="24"/>
    <property name="toX" type="int" value="18"/>
    <property name="toY" type="int" value="24"/>
   </properties>
  </object>
  <object id="19" name="WallFinishOverride" x="576" y="160" width="32" height="32">
   <properties>
    <property name="type" value="WallFinishOverride"/>
    <property name="face" value="north"/>
    <property name="finishId" value="paint_sage"/>
    <property name="half" type="int" value="0"/>
    <property name="fromX" type="int" value="18"/>
    <property name="fromY" type="int" value="5"/>
    <property name="toX" type="int" value="18"/>
    <property name="toY" type="int" value="5"/>
   </properties>
  </object>
  <object id="20" name="WallFinishOverride" x="576" y="160" width="32" height="32">
   <properties>
    <property name="type" value="WallFinishOverride"/>
    <property name="face" value="south"/>
    <property name="finishId" value="wallpaper_blue_flower"/>
    <property name="half" type="int" value="0"/>
    <property name="fromX" type="int" value="18"/>
    <property name="fromY" type="int" value="5"/>
    <property name="toX" type="int" value="18"/>
    <property name="toY" type="int" value="5"/>
   </properties>
  </object>
  <object id="21" name="WallFinishOverride" x="576" y="160" width="32" height="32">
   <properties>
    <property name="type" value="WallFinishOverride"/>
    <property name="face" value="south"/>
    <property name="finishId" value="paint_sage"/>
    <property name="half" type="int" value="1"/>
    <property name="fromX" type="int" value="18"/>
    <property name="fromY" type="int" value="5"/>
    <property name="toX" type="int" value="18"/>
    <property name="toY" type="int" value="5"/>
   </properties>
  </object>
  <object id="22" name="WallFinishOverride" x="576" y="192" width="32" height="32">
   <properties>
    <property name="type" value="WallFinishOverride"/>
    <property name="face" value="north"/>
    <property name="finishId" value="wallpaper_blue_flower"/>
    <property name="half" type="int" value="0"/>
    <property name="fromX" type="int" value="18"/>
    <property name="fromY" type="int" value="6"/>
    <property name="toX" type="int" value="18"/>
    <property name="toY" type="int" value="6"/>
   </properties>
  </object>
  <object id="23" name="WallFinishOverride" x="576" y="192" width="32" height="32">
   <properties>
    <property name="type" value="WallFinishOverride"/>
    <property name="face" value="south"/>
    <property name="finishId" value="wallpaper_blue_flower"/>
    <property name="half" type="int" value="1"/>
    <property name="fromX" type="int" value="18"/>
    <property name="fromY" type="int" value="6"/>
    <property name="toX" type="int" value="18"/>
    <property name="toY" type="int" value="6"/>
   </properties>
  </object>
  <object id="24" name="WallFinishOverride" x="576" y="224" width="32" height="32">
   <properties>
    <property name="type" value="WallFinishOverride"/>
    <property name="face" value="north"/>
    <property name="finishId" value="wallpaper_blue_flower"/>
    <property name="half" type="int" value="0"/>
    <property name="fromX" type="int" value="18"/>
    <property name="fromY" type="int" value="7"/>
    <property name="toX" type="int" value="18"/>
    <property name="toY" type="int" value="7"/>
   </properties>
  </object>
  <object id="25" name="WallFinishOverride" x="576" y="224" width="32" height="32">
   <properties>
    <property name="type" value="WallFinishOverride"/>
    <property name="face" value="south"/>
    <property name="finishId" value="wallpaper_blue_flower"/>
    <property name="half" type="int" value="1"/>
    <property name="fromX" type="int" value="18"/>
    <property name="fromY" type="int" value="7"/>
    <property name="toX" type="int" value="18"/>
    <property name="toY" type="int" value="7"/>
   </properties>
  </object>
  <object id="26" name="WallFinishOverride" x="576" y="256" width="32" height="32">
   <properties>
    <property name="type" value="WallFinishOverride"/>
    <property name="face" value="north"/>
    <property name="finishId" value="wallpaper_blue_flower"/>
    <property name="half" type="int" value="0"/>
    <property name="fromX" type="int" value="18"/>
    <property name="fromY" type="int" value="8"/>
    <property name="toX" type="int" value="18"/>
    <property name="toY" type="int" value="8"/>
   </properties>
  </object>
  <object id="27" name="WallFinishOverride" x="576" y="256" width="32" height="32">
   <properties>
    <property name="type" value="WallFinishOverride"/>
    <property name="face" value="south"/>
    <property name="finishId" value="wallpaper_blue_flower"/>
    <property name="half" type="int" value="1"/>
    <property name="fromX" type="int" value="18"/>
    <property name="fromY" type="int" value="8"/>
    <property name="toX" type="int" value="18"/>
    <property name="toY" type="int" value="8"/>
   </properties>
  </object>
  <object id="28" name="WallFinishOverride" x="576" y="288" width="32" height="32">
   <properties>
    <property name="type" value="WallFinishOverride"/>
    <property name="face" value="north"/>
    <property name="finishId" value="wallpaper_blue_flower"/>
    <property name="half" type="int" value="0"/>
    <property name="fromX" type="int" value="18"/>
    <property name="fromY" type="int" value="9"/>
    <property name="toX" type="int" value="18"/>
    <property name="toY" type="int" value="9"/>
   </properties>
  </object>
  <object id="29" name="WallFinishOverride" x="576" y="288" width="32" height="32">
   <properties>
    <property name="type" value="WallFinishOverride"/>
    <property name="face" value="south"/>
    <property name="finishId" value="wallpaper_blue_flower"/>
    <property name="half" type="int" value="1"/>
    <property name="fromX" type="int" value="18"/>
    <property name="fromY" type="int" value="9"/>
    <property name="toX" type="int" value="18"/>
    <property name="toY" type="int" value="9"/>
   </properties>
  </object>
  <object id="30" name="WallFinishOverride" x="608" y="768" width="32" height="32">
   <properties>
    <property name="type" value="WallFinishOverride"/>
    <property name="face" value="north"/>
    <property name="finishId" value="paint_terracotta"/>
    <property name="half" type="int" value="1"/>
    <property name="fromX" type="int" value="19"/>
    <property name="fromY" type="int" value="24"/>
    <property name="toX" type="int" value="19"/>
    <property name="toY" type="int" value="24"/>
   </properties>
  </object>
  <object id="31" name="WallFinishOverride" x="608" y="768" width="32" height="32">
   <properties>
    <property name="type" value="WallFinishOverride"/>
    <property name="face" value="south"/>
    <property name="finishId" value="wallpaper_blue_flower"/>
    <property name="half" type="int" value="0"/>
    <property name="fromX" type="int" value="19"/>
    <property name="fromY" type="int" value="24"/>
    <property name="toX" type="int" value="19"/>
    <property name="toY" type="int" value="24"/>
   </properties>
  </object>
  <object id="32" name="WallFinishOverride" x="608" y="768" width="32" height="32">
   <properties>
    <property name="type" value="WallFinishOverride"/>
    <property name="face" value="south"/>
    <property name="finishId" value="wallpaper_blue_flower"/>
    <property name="half" type="int" value="1"/>
    <property name="fromX" type="int" value="19"/>
    <property name="fromY" type="int" value="24"/>
    <property name="toX" type="int" value="19"/>
    <property name="toY" type="int" value="24"/>
   </properties>
  </object>
  <object id="33" name="WallFinishOverride" x="608" y="160" width="32" height="32">
   <properties>
    <property name="type" value="WallFinishOverride"/>
    <property name="face" value="north"/>
    <property name="finishId" value="wallpaper_blue_flower"/>
    <property name="half" type="int" value="0"/>
    <property name="fromX" type="int" value="19"/>
    <property name="fromY" type="int" value="5"/>
    <property name="toX" type="int" value="19"/>
    <property name="toY" type="int" value="5"/>
   </properties>
  </object>
  <object id="34" name="WallFinishOverride" x="608" y="160" width="32" height="32">
   <properties>
    <property name="type" value="WallFinishOverride"/>
    <property name="face" value="south"/>
    <property name="finishId" value="paint_sage"/>
    <property name="half" type="int" value="0"/>
    <property name="fromX" type="int" value="19"/>
    <property name="fromY" type="int" value="5"/>
    <property name="toX" type="int" value="19"/>
    <property name="toY" type="int" value="5"/>
   </properties>
  </object>
  <object id="35" name="WallFinishOverride" x="608" y="160" width="32" height="32">
   <properties>
    <property name="type" value="WallFinishOverride"/>
    <property name="face" value="south"/>
    <property name="finishId" value="paint_sage"/>
    <property name="half" type="int" value="1"/>
    <property name="fromX" type="int" value="19"/>
    <property name="fromY" type="int" value="5"/>
    <property name="toX" type="int" value="19"/>
    <property name="toY" type="int" value="5"/>
   </properties>
  </object>
  <object id="36" name="WallFinishOverride" x="640" y="768" width="32" height="32">
   <properties>
    <property name="type" value="WallFinishOverride"/>
    <property name="face" value="north"/>
    <property name="finishId" value="paint_terracotta"/>
    <property name="half" type="int" value="1"/>
    <property name="fromX" type="int" value="20"/>
    <property name="fromY" type="int" value="24"/>
    <property name="toX" type="int" value="20"/>
    <property name="toY" type="int" value="24"/>
   </properties>
  </object>
  <object id="37" name="WallFinishOverride" x="640" y="768" width="32" height="32">
   <properties>
    <property name="type" value="WallFinishOverride"/>
    <property name="face" value="south"/>
    <property name="finishId" value="wallpaper_blue_flower"/>
    <property name="half" type="int" value="0"/>
    <property name="fromX" type="int" value="20"/>
    <property name="fromY" type="int" value="24"/>
    <property name="toX" type="int" value="20"/>
    <property name="toY" type="int" value="24"/>
   </properties>
  </object>
  <object id="38" name="WallFinishOverride" x="640" y="768" width="32" height="32">
   <properties>
    <property name="type" value="WallFinishOverride"/>
    <property name="face" value="south"/>
    <property name="finishId" value="wallpaper_blue_flower"/>
    <property name="half" type="int" value="1"/>
    <property name="fromX" type="int" value="20"/>
    <property name="fromY" type="int" value="24"/>
    <property name="toX" type="int" value="20"/>
    <property name="toY" type="int" value="24"/>
   </properties>
  </object>
  <object id="39" name="WallFinishOverride" x="640" y="160" width="32" height="32">
   <properties>
    <property name="type" value="WallFinishOverride"/>
    <property name="face" value="north"/>
    <property name="finishId" value="wallpaper_blue_flower"/>
    <property name="half" type="int" value="0"/>
    <property name="fromX" type="int" value="20"/>
    <property name="fromY" type="int" value="5"/>
    <property name="toX" type="int" value="20"/>
    <property name="toY" type="int" value="5"/>
   </properties>
  </object>
  <object id="40" name="WallFinishOverride" x="640" y="160" width="32" height="32">
   <properties>
    <property name="type" value="WallFinishOverride"/>
    <property name="face" value="south"/>
    <property name="finishId" value="paint_sage"/>
    <property name="half" type="int" value="0"/>
    <property name="fromX" type="int" value="20"/>
    <property name="fromY" type="int" value="5"/>
    <property name="toX" type="int" value="20"/>
    <property name="toY" type="int" value="5"/>
   </properties>
  </object>
  <object id="41" name="WallFinishOverride" x="640" y="160" width="32" height="32">
   <properties>
    <property name="type" value="WallFinishOverride"/>
    <property name="face" value="south"/>
    <property name="finishId" value="paint_sage"/>
    <property name="half" type="int" value="1"/>
    <property name="fromX" type="int" value="20"/>
    <property name="fromY" type="int" value="5"/>
    <property name="toX" type="int" value="20"/>
    <property name="toY" type="int" value="5"/>
   </properties>
  </object>
  <object id="42" name="WallFinishOverride" x="672" y="768" width="32" height="32">
   <properties>
    <property name="type" value="WallFinishOverride"/>
    <property name="face" value="north"/>
    <property name="finishId" value="paint_terracotta"/>
    <property name="half" type="int" value="1"/>
    <property name="fromX" type="int" value="21"/>
    <property name="fromY" type="int" value="24"/>
    <property name="toX" type="int" value="21"/>
    <property name="toY" type="int" value="24"/>
   </properties>
  </object>
  <object id="43" name="WallFinishOverride" x="672" y="768" width="32" height="32">
   <properties>
    <property name="type" value="WallFinishOverride"/>
    <property name="face" value="south"/>
    <property name="finishId" value="wallpaper_blue_flower"/>
    <property name="half" type="int" value="0"/>
    <property name="fromX" type="int" value="21"/>
    <property name="fromY" type="int" value="24"/>
    <property name="toX" type="int" value="21"/>
    <property name="toY" type="int" value="24"/>
   </properties>
  </object>
  <object id="44" name="WallFinishOverride" x="672" y="768" width="32" height="32">
   <properties>
    <property name="type" value="WallFinishOverride"/>
    <property name="face" value="south"/>
    <property name="finishId" value="wallpaper_blue_flower"/>
    <property name="half" type="int" value="1"/>
    <property name="fromX" type="int" value="21"/>
    <property name="fromY" type="int" value="24"/>
    <property name="toX" type="int" value="21"/>
    <property name="toY" type="int" value="24"/>
   </properties>
  </object>
  <object id="45" name="WallFinishOverride" x="672" y="160" width="32" height="32">
   <properties>
    <property name="type" value="WallFinishOverride"/>
    <property name="face" value="north"/>
    <property name="finishId" value="wallpaper_blue_flower"/>
    <property name="half" type="int" value="0"/>
    <property name="fromX" type="int" value="21"/>
    <property name="fromY" type="int" value="5"/>
    <property name="toX" type="int" value="21"/>
    <property name="toY" type="int" value="5"/>
   </properties>
  </object>
  <object id="46" name="WallFinishOverride" x="672" y="160" width="32" height="32">
   <properties>
    <property name="type" value="WallFinishOverride"/>
    <property name="face" value="south"/>
    <property name="finishId" value="paint_sage"/>
    <property name="half" type="int" value="0"/>
    <property name="fromX" type="int" value="21"/>
    <property name="fromY" type="int" value="5"/>
    <property name="toX" type="int" value="21"/>
    <property name="toY" type="int" value="5"/>
   </properties>
  </object>
  <object id="47" name="WallFinishOverride" x="672" y="160" width="32" height="32">
   <properties>
    <property name="type" value="WallFinishOverride"/>
    <property name="face" value="south"/>
    <property name="finishId" value="paint_sage"/>
    <property name="half" type="int" value="1"/>
    <property name="fromX" type="int" value="21"/>
    <property name="fromY" type="int" value="5"/>
    <property name="toX" type="int" value="21"/>
    <property name="toY" type="int" value="5"/>
   </properties>
  </object>
  <object id="48" name="WallFinishOverride" x="704" y="768" width="32" height="32">
   <properties>
    <property name="type" value="WallFinishOverride"/>
    <property name="face" value="north"/>
    <property name="finishId" value="paint_terracotta"/>
    <property name="half" type="int" value="1"/>
    <property name="fromX" type="int" value="22"/>
    <property name="fromY" type="int" value="24"/>
    <property name="toX" type="int" value="22"/>
    <property name="toY" type="int" value="24"/>
   </properties>
  </object>
  <object id="49" name="WallFinishOverride" x="704" y="768" width="32" height="32">
   <properties>
    <property name="type" value="WallFinishOverride"/>
    <property name="face" value="south"/>
    <property name="finishId" value="wallpaper_blue_flower"/>
    <property name="half" type="int" value="0"/>
    <property name="fromX" type="int" value="22"/>
    <property name="fromY" type="int" value="24"/>
    <property name="toX" type="int" value="22"/>
    <property name="toY" type="int" value="24"/>
   </properties>
  </object>
  <object id="50" name="WallFinishOverride" x="704" y="768" width="32" height="32">
   <properties>
    <property name="type" value="WallFinishOverride"/>
    <property name="face" value="south"/>
    <property name="finishId" value="wallpaper_blue_flower"/>
    <property name="half" type="int" value="1"/>
    <property name="fromX" type="int" value="22"/>
    <property name="fromY" type="int" value="24"/>
    <property name="toX" type="int" value="22"/>
    <property name="toY" type="int" value="24"/>
   </properties>
  </object>
  <object id="51" name="WallFinishOverride" x="704" y="160" width="32" height="32">
   <properties>
    <property name="type" value="WallFinishOverride"/>
    <property name="face" value="north"/>
    <property name="finishId" value="wallpaper_blue_flower"/>
    <property name="half" type="int" value="0"/>
    <property name="fromX" type="int" value="22"/>
    <property name="fromY" type="int" value="5"/>
    <property name="toX" type="int" value="22"/>
    <property name="toY" type="int" value="5"/>
   </properties>
  </object>
  <object id="52" name="WallFinishOverride" x="704" y="160" width="32" height="32">
   <properties>
    <property name="type" value="WallFinishOverride"/>
    <property name="face" value="south"/>
    <property name="finishId" value="paint_sage"/>
    <property name="half" type="int" value="0"/>
    <property name="fromX" type="int" value="22"/>
    <property name="fromY" type="int" value="5"/>
    <property name="toX" type="int" value="22"/>
    <property name="toY" type="int" value="5"/>
   </properties>
  </object>
  <object id="53" name="WallFinishOverride" x="704" y="160" width="32" height="32">
   <properties>
    <property name="type" value="WallFinishOverride"/>
    <property name="face" value="south"/>
    <property name="finishId" value="paint_sage"/>
    <property name="half" type="int" value="1"/>
    <property name="fromX" type="int" value="22"/>
    <property name="fromY" type="int" value="5"/>
    <property name="toX" type="int" value="22"/>
    <property name="toY" type="int" value="5"/>
   </properties>
  </object>
  <object id="54" name="WallFinishOverride" x="736" y="768" width="32" height="32">
   <properties>
    <property name="type" value="WallFinishOverride"/>
    <property name="face" value="north"/>
    <property name="finishId" value="paint_terracotta"/>
    <property name="half" type="int" value="1"/>
    <property name="fromX" type="int" value="23"/>
    <property name="fromY" type="int" value="24"/>
    <property name="toX" type="int" value="23"/>
    <property name="toY" type="int" value="24"/>
   </properties>
  </object>
  <object id="55" name="WallFinishOverride" x="736" y="768" width="32" height="32">
   <properties>
    <property name="type" value="WallFinishOverride"/>
    <property name="face" value="south"/>
    <property name="finishId" value="wallpaper_blue_flower"/>
    <property name="half" type="int" value="0"/>
    <property name="fromX" type="int" value="23"/>
    <property name="fromY" type="int" value="24"/>
    <property name="toX" type="int" value="23"/>
    <property name="toY" type="int" value="24"/>
   </properties>
  </object>
  <object id="56" name="WallFinishOverride" x="736" y="768" width="32" height="32">
   <properties>
    <property name="type" value="WallFinishOverride"/>
    <property name="face" value="south"/>
    <property name="finishId" value="wallpaper_blue_flower"/>
    <property name="half" type="int" value="1"/>
    <property name="fromX" type="int" value="23"/>
    <property name="fromY" type="int" value="24"/>
    <property name="toX" type="int" value="23"/>
    <property name="toY" type="int" value="24"/>
   </properties>
  </object>
  <object id="57" name="WallFinishOverride" x="736" y="160" width="32" height="32">
   <properties>
    <property name="type" value="WallFinishOverride"/>
    <property name="face" value="north"/>
    <property name="finishId" value="wallpaper_blue_flower"/>
    <property name="half" type="int" value="0"/>
    <property name="fromX" type="int" value="23"/>
    <property name="fromY" type="int" value="5"/>
    <property name="toX" type="int" value="23"/>
    <property name="toY" type="int" value="5"/>
   </properties>
  </object>
  <object id="58" name="WallFinishOverride" x="736" y="160" width="32" height="32">
   <properties>
    <property name="type" value="WallFinishOverride"/>
    <property name="face" value="south"/>
    <property name="finishId" value="paint_sage"/>
    <property name="half" type="int" value="0"/>
    <property name="fromX" type="int" value="23"/>
    <property name="fromY" type="int" value="5"/>
    <property name="toX" type="int" value="23"/>
    <property name="toY" type="int" value="5"/>
   </properties>
  </object>
  <object id="59" name="WallFinishOverride" x="736" y="160" width="32" height="32">
   <properties>
    <property name="type" value="WallFinishOverride"/>
    <property name="face" value="south"/>
    <property name="finishId" value="paint_sage"/>
    <property name="half" type="int" value="1"/>
    <property name="fromX" type="int" value="23"/>
    <property name="fromY" type="int" value="5"/>
    <property name="toX" type="int" value="23"/>
    <property name="toY" type="int" value="5"/>
   </properties>
  </object>
  <object id="60" name="WallFinishOverride" x="768" y="768" width="32" height="32">
   <properties>
    <property name="type" value="WallFinishOverride"/>
    <property name="face" value="north"/>
    <property name="finishId" value="paint_terracotta"/>
    <property name="half" type="int" value="1"/>
    <property name="fromX" type="int" value="24"/>
    <property name="fromY" type="int" value="24"/>
    <property name="toX" type="int" value="24"/>
    <property name="toY" type="int" value="24"/>
   </properties>
  </object>
  <object id="61" name="WallFinishOverride" x="768" y="768" width="32" height="32">
   <properties>
    <property name="type" value="WallFinishOverride"/>
    <property name="face" value="south"/>
    <property name="finishId" value="wallpaper_blue_flower"/>
    <property name="half" type="int" value="0"/>
    <property name="fromX" type="int" value="24"/>
    <property name="fromY" type="int" value="24"/>
    <property name="toX" type="int" value="24"/>
    <property name="toY" type="int" value="24"/>
   </properties>
  </object>
  <object id="62" name="WallFinishOverride" x="768" y="768" width="32" height="32">
   <properties>
    <property name="type" value="WallFinishOverride"/>
    <property name="face" value="south"/>
    <property name="finishId" value="wallpaper_blue_flower"/>
    <property name="half" type="int" value="1"/>
    <property name="fromX" type="int" value="24"/>
    <property name="fromY" type="int" value="24"/>
    <property name="toX" type="int" value="24"/>
    <property name="toY" type="int" value="24"/>
   </properties>
  </object>
  <object id="63" name="WallFinishOverride" x="768" y="160" width="32" height="32">
   <properties>
    <property name="type" value="WallFinishOverride"/>
    <property name="face" value="north"/>
    <property name="finishId" value="wallpaper_blue_flower"/>
    <property name="half" type="int" value="0"/>
    <property name="fromX" type="int" value="24"/>
    <property name="fromY" type="int" value="5"/>
    <property name="toX" type="int" value="24"/>
    <property name="toY" type="int" value="5"/>
   </properties>
  </object>
  <object id="64" name="WallFinishOverride" x="768" y="160" width="32" height="32">
   <properties>
    <property name="type" value="WallFinishOverride"/>
    <property name="face" value="south"/>
    <property name="finishId" value="paint_sage"/>
    <property name="half" type="int" value="0"/>
    <property name="fromX" type="int" value="24"/>
    <property name="fromY" type="int" value="5"/>
    <property name="toX" type="int" value="24"/>
    <property name="toY" type="int" value="5"/>
   </properties>
  </object>
  <object id="65" name="WallFinishOverride" x="768" y="160" width="32" height="32">
   <properties>
    <property name="type" value="WallFinishOverride"/>
    <property name="face" value="south"/>
    <property name="finishId" value="paint_sage"/>
    <property name="half" type="int" value="1"/>
    <property name="fromX" type="int" value="24"/>
    <property name="fromY" type="int" value="5"/>
    <property name="toX" type="int" value="24"/>
    <property name="toY" type="int" value="5"/>
   </properties>
  </object>
  <object id="66" name="WallFinishOverride" x="800" y="768" width="32" height="32">
   <properties>
    <property name="type" value="WallFinishOverride"/>
    <property name="face" value="north"/>
    <property name="finishId" value="paint_terracotta"/>
    <property name="half" type="int" value="0"/>
    <property name="fromX" type="int" value="25"/>
    <property name="fromY" type="int" value="24"/>
    <property name="toX" type="int" value="25"/>
    <property name="toY" type="int" value="24"/>
   </properties>
  </object>
  <object id="67" name="WallFinishOverride" x="800" y="768" width="32" height="32">
   <properties>
    <property name="type" value="WallFinishOverride"/>
    <property name="face" value="north"/>
    <property name="finishId" value="paint_terracotta"/>
    <property name="half" type="int" value="1"/>
    <property name="fromX" type="int" value="25"/>
    <property name="fromY" type="int" value="24"/>
    <property name="toX" type="int" value="25"/>
    <property name="toY" type="int" value="24"/>
   </properties>
  </object>
  <object id="68" name="WallFinishOverride" x="800" y="768" width="32" height="32">
   <properties>
    <property name="type" value="WallFinishOverride"/>
    <property name="face" value="south"/>
    <property name="finishId" value="wallpaper_blue_flower"/>
    <property name="half" type="int" value="0"/>
    <property name="fromX" type="int" value="25"/>
    <property name="fromY" type="int" value="24"/>
    <property name="toX" type="int" value="25"/>
    <property name="toY" type="int" value="24"/>
   </properties>
  </object>
  <object id="69" name="WallFinishOverride" x="800" y="768" width="32" height="32">
   <properties>
    <property name="type" value="WallFinishOverride"/>
    <property name="face" value="south"/>
    <property name="finishId" value="wallpaper_blue_flower"/>
    <property name="half" type="int" value="1"/>
    <property name="fromX" type="int" value="25"/>
    <property name="fromY" type="int" value="24"/>
    <property name="toX" type="int" value="25"/>
    <property name="toY" type="int" value="24"/>
   </properties>
  </object>
  <object id="70" name="WallFinishOverride" x="800" y="160" width="32" height="32">
   <properties>
    <property name="type" value="WallFinishOverride"/>
    <property name="face" value="south"/>
    <property name="finishId" value="paint_sage"/>
    <property name="half" type="int" value="0"/>
    <property name="fromX" type="int" value="25"/>
    <property name="fromY" type="int" value="5"/>
    <property name="toX" type="int" value="25"/>
    <property name="toY" type="int" value="5"/>
   </properties>
  </object>
  <object id="71" name="WallFinishOverride" x="800" y="160" width="32" height="32">
   <properties>
    <property name="type" value="WallFinishOverride"/>
    <property name="face" value="south"/>
    <property name="finishId" value="paint_sage"/>
    <property name="half" type="int" value="1"/>
    <property name="fromX" type="int" value="25"/>
    <property name="fromY" type="int" value="5"/>
    <property name="toX" type="int" value="25"/>
    <property name="toY" type="int" value="5"/>
   </properties>
  </object>
  <object id="72" name="WallFinishOverride" x="832" y="768" width="32" height="32">
   <properties>
    <property name="type" value="WallFinishOverride"/>
    <property name="face" value="north"/>
    <property name="finishId" value="paint_terracotta"/>
    <property name="half" type="int" value="0"/>
    <property name="fromX" type="int" value="26"/>
    <property name="fromY" type="int" value="24"/>
    <property name="toX" type="int" value="26"/>
    <property name="toY" type="int" value="24"/>
   </properties>
  </object>
  <object id="73" name="WallFinishOverride" x="832" y="768" width="32" height="32">
   <properties>
    <property name="type" value="WallFinishOverride"/>
    <property name="face" value="north"/>
    <property name="finishId" value="paint_terracotta"/>
    <property name="half" type="int" value="1"/>
    <property name="fromX" type="int" value="26"/>
    <property name="fromY" type="int" value="24"/>
    <property name="toX" type="int" value="26"/>
    <property name="toY" type="int" value="24"/>
   </properties>
  </object>
  <object id="74" name="WallFinishOverride" x="832" y="768" width="32" height="32">
   <properties>
    <property name="type" value="WallFinishOverride"/>
    <property name="face" value="south"/>
    <property name="finishId" value="wallpaper_blue_flower"/>
    <property name="half" type="int" value="0"/>
    <property name="fromX" type="int" value="26"/>
    <property name="fromY" type="int" value="24"/>
    <property name="toX" type="int" value="26"/>
    <property name="toY" type="int" value="24"/>
   </properties>
  </object>
  <object id="75" name="WallFinishOverride" x="832" y="768" width="32" height="32">
   <properties>
    <property name="type" value="WallFinishOverride"/>
    <property name="face" value="south"/>
    <property name="finishId" value="wallpaper_blue_flower"/>
    <property name="half" type="int" value="1"/>
    <property name="fromX" type="int" value="26"/>
    <property name="fromY" type="int" value="24"/>
    <property name="toX" type="int" value="26"/>
    <property name="toY" type="int" value="24"/>
   </properties>
  </object>
  <object id="76" name="WallFinishOverride" x="832" y="160" width="32" height="32">
   <properties>
    <property name="type" value="WallFinishOverride"/>
    <property name="face" value="south"/>
    <property name="finishId" value="paint_sage"/>
    <property name="half" type="int" value="0"/>
    <property name="fromX" type="int" value="26"/>
    <property name="fromY" type="int" value="5"/>
    <property name="toX" type="int" value="26"/>
    <property name="toY" type="int" value="5"/>
   </properties>
  </object>
  <object id="77" name="WallFinishOverride" x="832" y="160" width="32" height="32">
   <properties>
    <property name="type" value="WallFinishOverride"/>
    <property name="face" value="south"/>
    <property name="finishId" value="paint_sage"/>
    <property name="half" type="int" value="1"/>
    <property name="fromX" type="int" value="26"/>
    <property name="fromY" type="int" value="5"/>
    <property name="toX" type="int" value="26"/>
    <property name="toY" type="int" value="5"/>
   </properties>
  </object>
  <object id="78" name="WallFinishOverride" x="864" y="768" width="32" height="32">
   <properties>
    <property name="type" value="WallFinishOverride"/>
    <property name="face" value="north"/>
    <property name="finishId" value="paint_terracotta"/>
    <property name="half" type="int" value="0"/>
    <property name="fromX" type="int" value="27"/>
    <property name="fromY" type="int" value="24"/>
    <property name="toX" type="int" value="27"/>
    <property name="toY" type="int" value="24"/>
   </properties>
  </object>
  <object id="79" name="WallFinishOverride" x="864" y="768" width="32" height="32">
   <properties>
    <property name="type" value="WallFinishOverride"/>
    <property name="face" value="north"/>
    <property name="finishId" value="paint_terracotta"/>
    <property name="half" type="int" value="1"/>
    <property name="fromX" type="int" value="27"/>
    <property name="fromY" type="int" value="24"/>
    <property name="toX" type="int" value="27"/>
    <property name="toY" type="int" value="24"/>
   </properties>
  </object>
  <object id="80" name="WallFinishOverride" x="864" y="768" width="32" height="32">
   <properties>
    <property name="type" value="WallFinishOverride"/>
    <property name="face" value="south"/>
    <property name="finishId" value="wallpaper_blue_flower"/>
    <property name="half" type="int" value="0"/>
    <property name="fromX" type="int" value="27"/>
    <property name="fromY" type="int" value="24"/>
    <property name="toX" type="int" value="27"/>
    <property name="toY" type="int" value="24"/>
   </properties>
  </object>
  <object id="81" name="WallFinishOverride" x="864" y="768" width="32" height="32">
   <properties>
    <property name="type" value="WallFinishOverride"/>
    <property name="face" value="south"/>
    <property name="finishId" value="wallpaper_blue_flower"/>
    <property name="half" type="int" value="1"/>
    <property name="fromX" type="int" value="27"/>
    <property name="fromY" type="int" value="24"/>
    <property name="toX" type="int" value="27"/>
    <property name="toY" type="int" value="24"/>
   </properties>
  </object>
  <object id="82" name="WallFinishOverride" x="864" y="160" width="32" height="32">
   <properties>
    <property name="type" value="WallFinishOverride"/>
    <property name="face" value="south"/>
    <property name="finishId" value="paint_sage"/>
    <property name="half" type="int" value="0"/>
    <property name="fromX" type="int" value="27"/>
    <property name="fromY" type="int" value="5"/>
    <property name="toX" type="int" value="27"/>
    <property name="toY" type="int" value="5"/>
   </properties>
  </object>
  <object id="83" name="WallFinishOverride" x="864" y="160" width="32" height="32">
   <properties>
    <property name="type" value="WallFinishOverride"/>
    <property name="face" value="south"/>
    <property name="finishId" value="paint_sage"/>
    <property name="half" type="int" value="1"/>
    <property name="fromX" type="int" value="27"/>
    <property name="fromY" type="int" value="5"/>
    <property name="toX" type="int" value="27"/>
    <property name="toY" type="int" value="5"/>
   </properties>
  </object>
  <object id="84" name="WallFinishOverride" x="896" y="768" width="32" height="32">
   <properties>
    <property name="type" value="WallFinishOverride"/>
    <property name="face" value="north"/>
    <property name="finishId" value="paint_terracotta"/>
    <property name="half" type="int" value="0"/>
    <property name="fromX" type="int" value="28"/>
    <property name="fromY" type="int" value="24"/>
    <property name="toX" type="int" value="28"/>
    <property name="toY" type="int" value="24"/>
   </properties>
  </object>
  <object id="85" name="WallFinishOverride" x="896" y="768" width="32" height="32">
   <properties>
    <property name="type" value="WallFinishOverride"/>
    <property name="face" value="north"/>
    <property name="finishId" value="paint_terracotta"/>
    <property name="half" type="int" value="1"/>
    <property name="fromX" type="int" value="28"/>
    <property name="fromY" type="int" value="24"/>
    <property name="toX" type="int" value="28"/>
    <property name="toY" type="int" value="24"/>
   </properties>
  </object>
  <object id="86" name="WallFinishOverride" x="896" y="768" width="32" height="32">
   <properties>
    <property name="type" value="WallFinishOverride"/>
    <property name="face" value="south"/>
    <property name="finishId" value="wallpaper_blue_flower"/>
    <property name="half" type="int" value="0"/>
    <property name="fromX" type="int" value="28"/>
    <property name="fromY" type="int" value="24"/>
    <property name="toX" type="int" value="28"/>
    <property name="toY" type="int" value="24"/>
   </properties>
  </object>
  <object id="87" name="WallFinishOverride" x="896" y="768" width="32" height="32">
   <properties>
    <property name="type" value="WallFinishOverride"/>
    <property name="face" value="south"/>
    <property name="finishId" value="wallpaper_blue_flower"/>
    <property name="half" type="int" value="1"/>
    <property name="fromX" type="int" value="28"/>
    <property name="fromY" type="int" value="24"/>
    <property name="toX" type="int" value="28"/>
    <property name="toY" type="int" value="24"/>
   </properties>
  </object>
  <object id="88" name="WallFinishOverride" x="896" y="160" width="32" height="32">
   <properties>
    <property name="type" value="WallFinishOverride"/>
    <property name="face" value="south"/>
    <property name="finishId" value="paint_sage"/>
    <property name="half" type="int" value="0"/>
    <property name="fromX" type="int" value="28"/>
    <property name="fromY" type="int" value="5"/>
    <property name="toX" type="int" value="28"/>
    <property name="toY" type="int" value="5"/>
   </properties>
  </object>
  <object id="89" name="WallFinishOverride" x="896" y="160" width="32" height="32">
   <properties>
    <property name="type" value="WallFinishOverride"/>
    <property name="face" value="south"/>
    <property name="finishId" value="paint_sage"/>
    <property name="half" type="int" value="1"/>
    <property name="fromX" type="int" value="28"/>
    <property name="fromY" type="int" value="5"/>
    <property name="toX" type="int" value="28"/>
    <property name="toY" type="int" value="5"/>
   </properties>
  </object>
  <object id="90" name="WallFinishOverride" x="928" y="768" width="32" height="32">
   <properties>
    <property name="type" value="WallFinishOverride"/>
    <property name="face" value="north"/>
    <property name="finishId" value="paint_terracotta"/>
    <property name="half" type="int" value="0"/>
    <property name="fromX" type="int" value="29"/>
    <property name="fromY" type="int" value="24"/>
    <property name="toX" type="int" value="29"/>
    <property name="toY" type="int" value="24"/>
   </properties>
  </object>
  <object id="91" name="WallFinishOverride" x="928" y="768" width="32" height="32">
   <properties>
    <property name="type" value="WallFinishOverride"/>
    <property name="face" value="north"/>
    <property name="finishId" value="paint_terracotta"/>
    <property name="half" type="int" value="1"/>
    <property name="fromX" type="int" value="29"/>
    <property name="fromY" type="int" value="24"/>
    <property name="toX" type="int" value="29"/>
    <property name="toY" type="int" value="24"/>
   </properties>
  </object>
  <object id="92" name="WallFinishOverride" x="928" y="768" width="32" height="32">
   <properties>
    <property name="type" value="WallFinishOverride"/>
    <property name="face" value="south"/>
    <property name="finishId" value="wallpaper_blue_flower"/>
    <property name="half" type="int" value="0"/>
    <property name="fromX" type="int" value="29"/>
    <property name="fromY" type="int" value="24"/>
    <property name="toX" type="int" value="29"/>
    <property name="toY" type="int" value="24"/>
   </properties>
  </object>
  <object id="93" name="WallFinishOverride" x="928" y="768" width="32" height="32">
   <properties>
    <property name="type" value="WallFinishOverride"/>
    <property name="face" value="south"/>
    <property name="finishId" value="wallpaper_blue_flower"/>
    <property name="half" type="int" value="1"/>
    <property name="fromX" type="int" value="29"/>
    <property name="fromY" type="int" value="24"/>
    <property name="toX" type="int" value="29"/>
    <property name="toY" type="int" value="24"/>
   </properties>
  </object>
  <object id="94" name="WallFinishOverride" x="928" y="160" width="32" height="32">
   <properties>
    <property name="type" value="WallFinishOverride"/>
    <property name="face" value="south"/>
    <property name="finishId" value="paint_sage"/>
    <property name="half" type="int" value="0"/>
    <property name="fromX" type="int" value="29"/>
    <property name="fromY" type="int" value="5"/>
    <property name="toX" type="int" value="29"/>
    <property name="toY" type="int" value="5"/>
   </properties>
  </object>
  <object id="95" name="WallFinishOverride" x="928" y="160" width="32" height="32">
   <properties>
    <property name="type" value="WallFinishOverride"/>
    <property name="face" value="south"/>
    <property name="finishId" value="paint_sage"/>
    <property name="half" type="int" value="1"/>
    <property name="fromX" type="int" value="29"/>
    <property name="fromY" type="int" value="5"/>
    <property name="toX" type="int" value="29"/>
    <property name="toY" type="int" value="5"/>
   </properties>
  </object>
  <object id="96" name="WallFinishOverride" x="960" y="768" width="32" height="32">
   <properties>
    <property name="type" value="WallFinishOverride"/>
    <property name="face" value="north"/>
    <property name="finishId" value="paint_terracotta"/>
    <property name="half" type="int" value="0"/>
    <property name="fromX" type="int" value="30"/>
    <property name="fromY" type="int" value="24"/>
    <property name="toX" type="int" value="30"/>
    <property name="toY" type="int" value="24"/>
   </properties>
  </object>
  <object id="97" name="WallFinishOverride" x="960" y="768" width="32" height="32">
   <properties>
    <property name="type" value="WallFinishOverride"/>
    <property name="face" value="north"/>
    <property name="finishId" value="paint_terracotta"/>
    <property name="half" type="int" value="1"/>
    <property name="fromX" type="int" value="30"/>
    <property name="fromY" type="int" value="24"/>
    <property name="toX" type="int" value="30"/>
    <property name="toY" type="int" value="24"/>
   </properties>
  </object>
  <object id="98" name="WallFinishOverride" x="960" y="768" width="32" height="32">
   <properties>
    <property name="type" value="WallFinishOverride"/>
    <property name="face" value="south"/>
    <property name="finishId" value="wallpaper_blue_flower"/>
    <property name="half" type="int" value="0"/>
    <property name="fromX" type="int" value="30"/>
    <property name="fromY" type="int" value="24"/>
    <property name="toX" type="int" value="30"/>
    <property name="toY" type="int" value="24"/>
   </properties>
  </object>
  <object id="99" name="WallFinishOverride" x="960" y="768" width="32" height="32">
   <properties>
    <property name="type" value="WallFinishOverride"/>
    <property name="face" value="south"/>
    <property name="finishId" value="wallpaper_blue_flower"/>
    <property name="half" type="int" value="1"/>
    <property name="fromX" type="int" value="30"/>
    <property name="fromY" type="int" value="24"/>
    <property name="toX" type="int" value="30"/>
    <property name="toY" type="int" value="24"/>
   </properties>
  </object>
  <object id="100" name="WallFinishOverride" x="960" y="160" width="32" height="32">
   <properties>
    <property name="type" value="WallFinishOverride"/>
    <property name="face" value="south"/>
    <property name="finishId" value="paint_sage"/>
    <property name="half" type="int" value="0"/>
    <property name="fromX" type="int" value="30"/>
    <property name="fromY" type="int" value="5"/>
    <property name="toX" type="int" value="30"/>
    <property name="toY" type="int" value="5"/>
   </properties>
  </object>
  <object id="101" name="WallFinishOverride" x="960" y="160" width="32" height="32">
   <properties>
    <property name="type" value="WallFinishOverride"/>
    <property name="face" value="south"/>
    <property name="finishId" value="paint_sage"/>
    <property name="half" type="int" value="1"/>
    <property name="fromX" type="int" value="30"/>
    <property name="fromY" type="int" value="5"/>
    <property name="toX" type="int" value="30"/>
    <property name="toY" type="int" value="5"/>
   </properties>
  </object>
  <object id="102" name="WallFinishOverride" x="992" y="768" width="32" height="32">
   <properties>
    <property name="type" value="WallFinishOverride"/>
    <property name="face" value="north"/>
    <property name="finishId" value="paint_terracotta"/>
    <property name="half" type="int" value="0"/>
    <property name="fromX" type="int" value="31"/>
    <property name="fromY" type="int" value="24"/>
    <property name="toX" type="int" value="31"/>
    <property name="toY" type="int" value="24"/>
   </properties>
  </object>
  <object id="103" name="WallFinishOverride" x="992" y="768" width="32" height="32">
   <properties>
    <property name="type" value="WallFinishOverride"/>
    <property name="face" value="north"/>
    <property name="finishId" value="paint_terracotta"/>
    <property name="half" type="int" value="1"/>
    <property name="fromX" type="int" value="31"/>
    <property name="fromY" type="int" value="24"/>
    <property name="toX" type="int" value="31"/>
    <property name="toY" type="int" value="24"/>
   </properties>
  </object>
  <object id="104" name="WallFinishOverride" x="992" y="768" width="32" height="32">
   <properties>
    <property name="type" value="WallFinishOverride"/>
    <property name="face" value="south"/>
    <property name="finishId" value="wallpaper_blue_flower"/>
    <property name="half" type="int" value="0"/>
    <property name="fromX" type="int" value="31"/>
    <property name="fromY" type="int" value="24"/>
    <property name="toX" type="int" value="31"/>
    <property name="toY" type="int" value="24"/>
   </properties>
  </object>
  <object id="105" name="WallFinishOverride" x="992" y="768" width="32" height="32">
   <properties>
    <property name="type" value="WallFinishOverride"/>
    <property name="face" value="south"/>
    <property name="finishId" value="wallpaper_blue_flower"/>
    <property name="half" type="int" value="1"/>
    <property name="fromX" type="int" value="31"/>
    <property name="fromY" type="int" value="24"/>
    <property name="toX" type="int" value="31"/>
    <property name="toY" type="int" value="24"/>
   </properties>
  </object>
  <object id="106" name="WallFinishOverride" x="992" y="160" width="32" height="32">
   <properties>
    <property name="type" value="WallFinishOverride"/>
    <property name="face" value="south"/>
    <property name="finishId" value="paint_sage"/>
    <property name="half" type="int" value="0"/>
    <property name="fromX" type="int" value="31"/>
    <property name="fromY" type="int" value="5"/>
    <property name="toX" type="int" value="31"/>
    <property name="toY" type="int" value="5"/>
   </properties>
  </object>
  <object id="107" name="WallFinishOverride" x="992" y="160" width="32" height="32">
   <properties>
    <property name="type" value="WallFinishOverride"/>
    <property name="face" value="south"/>
    <property name="finishId" value="paint_sage"/>
    <property name="half" type="int" value="1"/>
    <property name="fromX" type="int" value="31"/>
    <property name="fromY" type="int" value="5"/>
    <property name="toX" type="int" value="31"/>
    <property name="toY" type="int" value="5"/>
   </properties>
  </object>
  <object id="108" name="WallFinishOverride" x="1024" y="320" width="32" height="32">
   <properties>
    <property name="type" value="WallFinishOverride"/>
    <property name="face" value="north"/>
    <property name="finishId" value="plaster_plain"/>
    <property name="half" type="int" value="1"/>
    <property name="fromX" type="int" value="32"/>
    <property name="fromY" type="int" value="10"/>
    <property name="toX" type="int" value="32"/>
    <property name="toY" type="int" value="10"/>
   </properties>
  </object>
  <object id="109" name="WallFinishOverride" x="1024" y="768" width="32" height="32">
   <properties>
    <property name="type" value="WallFinishOverride"/>
    <property name="face" value="north"/>
    <property name="finishId" value="paint_terracotta"/>
    <property name="half" type="int" value="0"/>
    <property name="fromX" type="int" value="32"/>
    <property name="fromY" type="int" value="24"/>
    <property name="toX" type="int" value="32"/>
    <property name="toY" type="int" value="24"/>
   </properties>
  </object>
  <object id="110" name="WallFinishOverride" x="1024" y="768" width="32" height="32">
   <properties>
    <property name="type" value="WallFinishOverride"/>
    <property name="face" value="north"/>
    <property name="finishId" value="paint_terracotta"/>
    <property name="half" type="int" value="1"/>
    <property name="fromX" type="int" value="32"/>
    <property name="fromY" type="int" value="24"/>
    <property name="toX" type="int" value="32"/>
    <property name="toY" type="int" value="24"/>
   </properties>
  </object>
  <object id="111" name="WallFinishOverride" x="1024" y="768" width="32" height="32">
   <properties>
    <property name="type" value="WallFinishOverride"/>
    <property name="face" value="south"/>
    <property name="finishId" value="wallpaper_blue_flower"/>
    <property name="half" type="int" value="0"/>
    <property name="fromX" type="int" value="32"/>
    <property name="fromY" type="int" value="24"/>
    <property name="toX" type="int" value="32"/>
    <property name="toY" type="int" value="24"/>
   </properties>
  </object>
  <object id="112" name="WallFinishOverride" x="1024" y="768" width="32" height="32">
   <properties>
    <property name="type" value="WallFinishOverride"/>
    <property name="face" value="south"/>
    <property name="finishId" value="wallpaper_blue_flower"/>
    <property name="half" type="int" value="1"/>
    <property name="fromX" type="int" value="32"/>
    <property name="fromY" type="int" value="24"/>
    <property name="toX" type="int" value="32"/>
    <property name="toY" type="int" value="24"/>
   </properties>
  </object>
  <object id="113" name="WallFinishOverride" x="1024" y="160" width="32" height="32">
   <properties>
    <property name="type" value="WallFinishOverride"/>
    <property name="face" value="east"/>
    <property name="finishId" value="paint_sage"/>
    <property name="half" type="int" value="1"/>
    <property name="fromX" type="int" value="32"/>
    <property name="fromY" type="int" value="5"/>
    <property name="toX" type="int" value="32"/>
    <property name="toY" type="int" value="5"/>
   </properties>
  </object>
  <object id="114" name="WallFinishOverride" x="1024" y="160" width="32" height="32">
   <properties>
    <property name="type" value="WallFinishOverride"/>
    <property name="face" value="north"/>
    <property name="finishId" value="wallpaper_blue_flower"/>
    <property name="half" type="int" value="1"/>
    <property name="fromX" type="int" value="32"/>
    <property name="fromY" type="int" value="5"/>
    <property name="toX" type="int" value="32"/>
    <property name="toY" type="int" value="5"/>
   </properties>
  </object>
  <object id="115" name="WallFinishOverride" x="1024" y="160" width="32" height="32">
   <properties>
    <property name="type" value="WallFinishOverride"/>
    <property name="face" value="south"/>
    <property name="finishId" value="paint_sage"/>
    <property name="half" type="int" value="0"/>
    <property name="fromX" type="int" value="32"/>
    <property name="fromY" type="int" value="5"/>
    <property name="toX" type="int" value="32"/>
    <property name="toY" type="int" value="5"/>
   </properties>
  </object>
  <object id="116" name="WallFinishOverride" x="1024" y="160" width="32" height="32">
   <properties>
    <property name="type" value="WallFinishOverride"/>
    <property name="face" value="south"/>
    <property name="finishId" value="paint_sage"/>
    <property name="half" type="int" value="1"/>
    <property name="fromX" type="int" value="32"/>
    <property name="fromY" type="int" value="5"/>
    <property name="toX" type="int" value="32"/>
    <property name="toY" type="int" value="5"/>
   </properties>
  </object>
  <object id="117" name="WallFinishOverride" x="1024" y="160" width="32" height="32">
   <properties>
    <property name="type" value="WallFinishOverride"/>
    <property name="face" value="west"/>
    <property name="finishId" value="paint_sage"/>
    <property name="half" type="int" value="1"/>
    <property name="fromX" type="int" value="32"/>
    <property name="fromY" type="int" value="5"/>
    <property name="toX" type="int" value="32"/>
    <property name="toY" type="int" value="5"/>
   </properties>
  </object>
  <object id="118" name="WallFinishOverride" x="1024" y="192" width="32" height="32">
   <properties>
    <property name="type" value="WallFinishOverride"/>
    <property name="face" value="north"/>
    <property name="finishId" value="wallpaper_blue_flower"/>
    <property name="half" type="int" value="1"/>
    <property name="fromX" type="int" value="32"/>
    <property name="fromY" type="int" value="6"/>
    <property name="toX" type="int" value="32"/>
    <property name="toY" type="int" value="6"/>
   </properties>
  </object>
  <object id="119" name="WallFinishOverride" x="1024" y="192" width="32" height="32">
   <properties>
    <property name="type" value="WallFinishOverride"/>
    <property name="face" value="south"/>
    <property name="finishId" value="wallpaper_blue_flower"/>
    <property name="half" type="int" value="0"/>
    <property name="fromX" type="int" value="32"/>
    <property name="fromY" type="int" value="6"/>
    <property name="toX" type="int" value="32"/>
    <property name="toY" type="int" value="6"/>
   </properties>
  </object>
  <object id="120" name="WallFinishOverride" x="1024" y="224" width="32" height="32">
   <properties>
    <property name="type" value="WallFinishOverride"/>
    <property name="face" value="north"/>
    <property name="finishId" value="wallpaper_blue_flower"/>
    <property name="half" type="int" value="1"/>
    <property name="fromX" type="int" value="32"/>
    <property name="fromY" type="int" value="7"/>
    <property name="toX" type="int" value="32"/>
    <property name="toY" type="int" value="7"/>
   </properties>
  </object>
  <object id="121" name="WallFinishOverride" x="1024" y="224" width="32" height="32">
   <properties>
    <property name="type" value="WallFinishOverride"/>
    <property name="face" value="south"/>
    <property name="finishId" value="wallpaper_blue_flower"/>
    <property name="half" type="int" value="0"/>
    <property name="fromX" type="int" value="32"/>
    <property name="fromY" type="int" value="7"/>
    <property name="toX" type="int" value="32"/>
    <property name="toY" type="int" value="7"/>
   </properties>
  </object>
  <object id="122" name="WallFinishOverride" x="1024" y="256" width="32" height="32">
   <properties>
    <property name="type" value="WallFinishOverride"/>
    <property name="face" value="north"/>
    <property name="finishId" value="wallpaper_blue_flower"/>
    <property name="half" type="int" value="1"/>
    <property name="fromX" type="int" value="32"/>
    <property name="fromY" type="int" value="8"/>
    <property name="toX" type="int" value="32"/>
    <property name="toY" type="int" value="8"/>
   </properties>
  </object>
  <object id="123" name="WallFinishOverride" x="1024" y="256" width="32" height="32">
   <properties>
    <property name="type" value="WallFinishOverride"/>
    <property name="face" value="south"/>
    <property name="finishId" value="wallpaper_blue_flower"/>
    <property name="half" type="int" value="0"/>
    <property name="fromX" type="int" value="32"/>
    <property name="fromY" type="int" value="8"/>
    <property name="toX" type="int" value="32"/>
    <property name="toY" type="int" value="8"/>
   </properties>
  </object>
  <object id="124" name="WallFinishOverride" x="1024" y="288" width="32" height="32">
   <properties>
    <property name="type" value="WallFinishOverride"/>
    <property name="face" value="north"/>
    <property name="finishId" value="wallpaper_blue_flower"/>
    <property name="half" type="int" value="1"/>
    <property name="fromX" type="int" value="32"/>
    <property name="fromY" type="int" value="9"/>
    <property name="toX" type="int" value="32"/>
    <property name="toY" type="int" value="9"/>
   </properties>
  </object>
  <object id="125" name="WallFinishOverride" x="1024" y="288" width="32" height="32">
   <properties>
    <property name="type" value="WallFinishOverride"/>
    <property name="face" value="south"/>
    <property name="finishId" value="wallpaper_blue_flower"/>
    <property name="half" type="int" value="0"/>
    <property name="fromX" type="int" value="32"/>
    <property name="fromY" type="int" value="9"/>
    <property name="toX" type="int" value="32"/>
    <property name="toY" type="int" value="9"/>
   </properties>
  </object>
  <object id="126" name="WallFinishOverride" x="1056" y="320" width="32" height="32">
   <properties>
    <property name="type" value="WallFinishOverride"/>
    <property name="face" value="north"/>
    <property name="finishId" value="plaster_plain"/>
    <property name="half" type="int" value="0"/>
    <property name="fromX" type="int" value="33"/>
    <property name="fromY" type="int" value="10"/>
    <property name="toX" type="int" value="33"/>
    <property name="toY" type="int" value="10"/>
   </properties>
  </object>
  <object id="127" name="WallFinishOverride" x="1056" y="320" width="32" height="32">
   <properties>
    <property name="type" value="WallFinishOverride"/>
    <property name="face" value="north"/>
    <property name="finishId" value="plaster_plain"/>
    <property name="half" type="int" value="1"/>
    <property name="fromX" type="int" value="33"/>
    <property name="fromY" type="int" value="10"/>
    <property name="toX" type="int" value="33"/>
    <property name="toY" type="int" value="10"/>
   </properties>
  </object>
  <object id="128" name="WallFinishOverride" x="1056" y="768" width="32" height="32">
   <properties>
    <property name="type" value="WallFinishOverride"/>
    <property name="face" value="north"/>
    <property name="finishId" value="paint_terracotta"/>
    <property name="half" type="int" value="0"/>
    <property name="fromX" type="int" value="33"/>
    <property name="fromY" type="int" value="24"/>
    <property name="toX" type="int" value="33"/>
    <property name="toY" type="int" value="24"/>
   </properties>
  </object>
  <object id="129" name="WallFinishOverride" x="1056" y="768" width="32" height="32">
   <properties>
    <property name="type" value="WallFinishOverride"/>
    <property name="face" value="north"/>
    <property name="finishId" value="paint_terracotta"/>
    <property name="half" type="int" value="1"/>
    <property name="fromX" type="int" value="33"/>
    <property name="fromY" type="int" value="24"/>
    <property name="toX" type="int" value="33"/>
    <property name="toY" type="int" value="24"/>
   </properties>
  </object>
  <object id="130" name="WallFinishOverride" x="1056" y="768" width="32" height="32">
   <properties>
    <property name="type" value="WallFinishOverride"/>
    <property name="face" value="south"/>
    <property name="finishId" value="wallpaper_blue_flower"/>
    <property name="half" type="int" value="0"/>
    <property name="fromX" type="int" value="33"/>
    <property name="fromY" type="int" value="24"/>
    <property name="toX" type="int" value="33"/>
    <property name="toY" type="int" value="24"/>
   </properties>
  </object>
  <object id="131" name="WallFinishOverride" x="1056" y="768" width="32" height="32">
   <properties>
    <property name="type" value="WallFinishOverride"/>
    <property name="face" value="south"/>
    <property name="finishId" value="wallpaper_blue_flower"/>
    <property name="half" type="int" value="1"/>
    <property name="fromX" type="int" value="33"/>
    <property name="fromY" type="int" value="24"/>
    <property name="toX" type="int" value="33"/>
    <property name="toY" type="int" value="24"/>
   </properties>
  </object>
  <object id="132" name="WallFinishOverride" x="1056" y="160" width="32" height="32">
   <properties>
    <property name="type" value="WallFinishOverride"/>
    <property name="face" value="south"/>
    <property name="finishId" value="paint_sage"/>
    <property name="half" type="int" value="0"/>
    <property name="fromX" type="int" value="33"/>
    <property name="fromY" type="int" value="5"/>
    <property name="toX" type="int" value="33"/>
    <property name="toY" type="int" value="5"/>
   </properties>
  </object>
  <object id="133" name="WallFinishOverride" x="1056" y="160" width="32" height="32">
   <properties>
    <property name="type" value="WallFinishOverride"/>
    <property name="face" value="south"/>
    <property name="finishId" value="paint_sage"/>
    <property name="half" type="int" value="1"/>
    <property name="fromX" type="int" value="33"/>
    <property name="fromY" type="int" value="5"/>
    <property name="toX" type="int" value="33"/>
    <property name="toY" type="int" value="5"/>
   </properties>
  </object>
  <object id="134" name="WallFinishOverride" x="1088" y="320" width="32" height="32">
   <properties>
    <property name="type" value="WallFinishOverride"/>
    <property name="face" value="north"/>
    <property name="finishId" value="plaster_plain"/>
    <property name="half" type="int" value="0"/>
    <property name="fromX" type="int" value="34"/>
    <property name="fromY" type="int" value="10"/>
    <property name="toX" type="int" value="34"/>
    <property name="toY" type="int" value="10"/>
   </properties>
  </object>
  <object id="135" name="WallFinishOverride" x="1088" y="320" width="32" height="32">
   <properties>
    <property name="type" value="WallFinishOverride"/>
    <property name="face" value="north"/>
    <property name="finishId" value="plaster_plain"/>
    <property name="half" type="int" value="1"/>
    <property name="fromX" type="int" value="34"/>
    <property name="fromY" type="int" value="10"/>
    <property name="toX" type="int" value="34"/>
    <property name="toY" type="int" value="10"/>
   </properties>
  </object>
  <object id="136" name="WallFinishOverride" x="1088" y="768" width="32" height="32">
   <properties>
    <property name="type" value="WallFinishOverride"/>
    <property name="face" value="north"/>
    <property name="finishId" value="paint_terracotta"/>
    <property name="half" type="int" value="0"/>
    <property name="fromX" type="int" value="34"/>
    <property name="fromY" type="int" value="24"/>
    <property name="toX" type="int" value="34"/>
    <property name="toY" type="int" value="24"/>
   </properties>
  </object>
  <object id="137" name="WallFinishOverride" x="1088" y="768" width="32" height="32">
   <properties>
    <property name="type" value="WallFinishOverride"/>
    <property name="face" value="north"/>
    <property name="finishId" value="paint_terracotta"/>
    <property name="half" type="int" value="1"/>
    <property name="fromX" type="int" value="34"/>
    <property name="fromY" type="int" value="24"/>
    <property name="toX" type="int" value="34"/>
    <property name="toY" type="int" value="24"/>
   </properties>
  </object>
  <object id="138" name="WallFinishOverride" x="1088" y="768" width="32" height="32">
   <properties>
    <property name="type" value="WallFinishOverride"/>
    <property name="face" value="south"/>
    <property name="finishId" value="wallpaper_blue_flower"/>
    <property name="half" type="int" value="0"/>
    <property name="fromX" type="int" value="34"/>
    <property name="fromY" type="int" value="24"/>
    <property name="toX" type="int" value="34"/>
    <property name="toY" type="int" value="24"/>
   </properties>
  </object>
  <object id="139" name="WallFinishOverride" x="1088" y="768" width="32" height="32">
   <properties>
    <property name="type" value="WallFinishOverride"/>
    <property name="face" value="south"/>
    <property name="finishId" value="wallpaper_blue_flower"/>
    <property name="half" type="int" value="1"/>
    <property name="fromX" type="int" value="34"/>
    <property name="fromY" type="int" value="24"/>
    <property name="toX" type="int" value="34"/>
    <property name="toY" type="int" value="24"/>
   </properties>
  </object>
  <object id="140" name="WallFinishOverride" x="1088" y="160" width="32" height="32">
   <properties>
    <property name="type" value="WallFinishOverride"/>
    <property name="face" value="south"/>
    <property name="finishId" value="paint_sage"/>
    <property name="half" type="int" value="0"/>
    <property name="fromX" type="int" value="34"/>
    <property name="fromY" type="int" value="5"/>
    <property name="toX" type="int" value="34"/>
    <property name="toY" type="int" value="5"/>
   </properties>
  </object>
  <object id="141" name="WallFinishOverride" x="1088" y="160" width="32" height="32">
   <properties>
    <property name="type" value="WallFinishOverride"/>
    <property name="face" value="south"/>
    <property name="finishId" value="paint_sage"/>
    <property name="half" type="int" value="1"/>
    <property name="fromX" type="int" value="34"/>
    <property name="fromY" type="int" value="5"/>
    <property name="toX" type="int" value="34"/>
    <property name="toY" type="int" value="5"/>
   </properties>
  </object>
  <object id="142" name="WallFinishOverride" x="1120" y="320" width="32" height="32">
   <properties>
    <property name="type" value="WallFinishOverride"/>
    <property name="face" value="north"/>
    <property name="finishId" value="plaster_plain"/>
    <property name="half" type="int" value="0"/>
    <property name="fromX" type="int" value="35"/>
    <property name="fromY" type="int" value="10"/>
    <property name="toX" type="int" value="35"/>
    <property name="toY" type="int" value="10"/>
   </properties>
  </object>
  <object id="143" name="WallFinishOverride" x="1120" y="320" width="32" height="32">
   <properties>
    <property name="type" value="WallFinishOverride"/>
    <property name="face" value="north"/>
    <property name="finishId" value="plaster_plain"/>
    <property name="half" type="int" value="1"/>
    <property name="fromX" type="int" value="35"/>
    <property name="fromY" type="int" value="10"/>
    <property name="toX" type="int" value="35"/>
    <property name="toY" type="int" value="10"/>
   </properties>
  </object>
  <object id="144" name="WallFinishOverride" x="1120" y="672" width="32" height="32">
   <properties>
    <property name="type" value="WallFinishOverride"/>
    <property name="face" value="south"/>
    <property name="finishId" value="paint_sage"/>
    <property name="half" type="int" value="0"/>
    <property name="fromX" type="int" value="35"/>
    <property name="fromY" type="int" value="21"/>
    <property name="toX" type="int" value="35"/>
    <property name="toY" type="int" value="21"/>
   </properties>
  </object>
  <object id="145" name="WallFinishOverride" x="1120" y="672" width="32" height="32">
   <properties>
    <property name="type" value="WallFinishOverride"/>
    <property name="face" value="south"/>
    <property name="finishId" value="paint_sage"/>
    <property name="half" type="int" value="1"/>
    <property name="fromX" type="int" value="35"/>
    <property name="fromY" type="int" value="21"/>
    <property name="toX" type="int" value="35"/>
    <property name="toY" type="int" value="21"/>
   </properties>
  </object>
  <object id="146" name="WallFinishOverride" x="1120" y="768" width="32" height="32">
   <properties>
    <property name="type" value="WallFinishOverride"/>
    <property name="face" value="north"/>
    <property name="finishId" value="paint_terracotta"/>
    <property name="half" type="int" value="0"/>
    <property name="fromX" type="int" value="35"/>
    <property name="fromY" type="int" value="24"/>
    <property name="toX" type="int" value="35"/>
    <property name="toY" type="int" value="24"/>
   </properties>
  </object>
  <object id="147" name="WallFinishOverride" x="1120" y="768" width="32" height="32">
   <properties>
    <property name="type" value="WallFinishOverride"/>
    <property name="face" value="north"/>
    <property name="finishId" value="paint_terracotta"/>
    <property name="half" type="int" value="1"/>
    <property name="fromX" type="int" value="35"/>
    <property name="fromY" type="int" value="24"/>
    <property name="toX" type="int" value="35"/>
    <property name="toY" type="int" value="24"/>
   </properties>
  </object>
  <object id="148" name="WallFinishOverride" x="1120" y="768" width="32" height="32">
   <properties>
    <property name="type" value="WallFinishOverride"/>
    <property name="face" value="south"/>
    <property name="finishId" value="wallpaper_blue_flower"/>
    <property name="half" type="int" value="0"/>
    <property name="fromX" type="int" value="35"/>
    <property name="fromY" type="int" value="24"/>
    <property name="toX" type="int" value="35"/>
    <property name="toY" type="int" value="24"/>
   </properties>
  </object>
  <object id="149" name="WallFinishOverride" x="1120" y="768" width="32" height="32">
   <properties>
    <property name="type" value="WallFinishOverride"/>
    <property name="face" value="south"/>
    <property name="finishId" value="wallpaper_blue_flower"/>
    <property name="half" type="int" value="1"/>
    <property name="fromX" type="int" value="35"/>
    <property name="fromY" type="int" value="24"/>
    <property name="toX" type="int" value="35"/>
    <property name="toY" type="int" value="24"/>
   </properties>
  </object>
  <object id="150" name="WallFinishOverride" x="1120" y="160" width="32" height="32">
   <properties>
    <property name="type" value="WallFinishOverride"/>
    <property name="face" value="south"/>
    <property name="finishId" value="paint_sage"/>
    <property name="half" type="int" value="0"/>
    <property name="fromX" type="int" value="35"/>
    <property name="fromY" type="int" value="5"/>
    <property name="toX" type="int" value="35"/>
    <property name="toY" type="int" value="5"/>
   </properties>
  </object>
  <object id="151" name="WallFinishOverride" x="1120" y="160" width="32" height="32">
   <properties>
    <property name="type" value="WallFinishOverride"/>
    <property name="face" value="south"/>
    <property name="finishId" value="paint_sage"/>
    <property name="half" type="int" value="1"/>
    <property name="fromX" type="int" value="35"/>
    <property name="fromY" type="int" value="5"/>
    <property name="toX" type="int" value="35"/>
    <property name="toY" type="int" value="5"/>
   </properties>
  </object>
  <object id="152" name="WallFinishOverride" x="1152" y="320" width="32" height="32">
   <properties>
    <property name="type" value="WallFinishOverride"/>
    <property name="face" value="north"/>
    <property name="finishId" value="plaster_plain"/>
    <property name="half" type="int" value="0"/>
    <property name="fromX" type="int" value="36"/>
    <property name="fromY" type="int" value="10"/>
    <property name="toX" type="int" value="36"/>
    <property name="toY" type="int" value="10"/>
   </properties>
  </object>
  <object id="153" name="WallFinishOverride" x="1152" y="320" width="32" height="32">
   <properties>
    <property name="type" value="WallFinishOverride"/>
    <property name="face" value="north"/>
    <property name="finishId" value="plaster_plain"/>
    <property name="half" type="int" value="1"/>
    <property name="fromX" type="int" value="36"/>
    <property name="fromY" type="int" value="10"/>
    <property name="toX" type="int" value="36"/>
    <property name="toY" type="int" value="10"/>
   </properties>
  </object>
  <object id="154" name="WallFinishOverride" x="1152" y="672" width="32" height="32">
   <properties>
    <property name="type" value="WallFinishOverride"/>
    <property name="face" value="south"/>
    <property name="finishId" value="paint_sage"/>
    <property name="half" type="int" value="0"/>
    <property name="fromX" type="int" value="36"/>
    <property name="fromY" type="int" value="21"/>
    <property name="toX" type="int" value="36"/>
    <property name="toY" type="int" value="21"/>
   </properties>
  </object>
  <object id="155" name="WallFinishOverride" x="1152" y="672" width="32" height="32">
   <properties>
    <property name="type" value="WallFinishOverride"/>
    <property name="face" value="south"/>
    <property name="finishId" value="paint_sage"/>
    <property name="half" type="int" value="1"/>
    <property name="fromX" type="int" value="36"/>
    <property name="fromY" type="int" value="21"/>
    <property name="toX" type="int" value="36"/>
    <property name="toY" type="int" value="21"/>
   </properties>
  </object>
  <object id="156" name="WallFinishOverride" x="1152" y="768" width="32" height="32">
   <properties>
    <property name="type" value="WallFinishOverride"/>
    <property name="face" value="north"/>
    <property name="finishId" value="paint_terracotta"/>
    <property name="half" type="int" value="0"/>
    <property name="fromX" type="int" value="36"/>
    <property name="fromY" type="int" value="24"/>
    <property name="toX" type="int" value="36"/>
    <property name="toY" type="int" value="24"/>
   </properties>
  </object>
  <object id="157" name="WallFinishOverride" x="1152" y="768" width="32" height="32">
   <properties>
    <property name="type" value="WallFinishOverride"/>
    <property name="face" value="north"/>
    <property name="finishId" value="paint_terracotta"/>
    <property name="half" type="int" value="1"/>
    <property name="fromX" type="int" value="36"/>
    <property name="fromY" type="int" value="24"/>
    <property name="toX" type="int" value="36"/>
    <property name="toY" type="int" value="24"/>
   </properties>
  </object>
  <object id="158" name="WallFinishOverride" x="1152" y="768" width="32" height="32">
   <properties>
    <property name="type" value="WallFinishOverride"/>
    <property name="face" value="south"/>
    <property name="finishId" value="wallpaper_blue_flower"/>
    <property name="half" type="int" value="0"/>
    <property name="fromX" type="int" value="36"/>
    <property name="fromY" type="int" value="24"/>
    <property name="toX" type="int" value="36"/>
    <property name="toY" type="int" value="24"/>
   </properties>
  </object>
  <object id="159" name="WallFinishOverride" x="1152" y="768" width="32" height="32">
   <properties>
    <property name="type" value="WallFinishOverride"/>
    <property name="face" value="south"/>
    <property name="finishId" value="wallpaper_blue_flower"/>
    <property name="half" type="int" value="1"/>
    <property name="fromX" type="int" value="36"/>
    <property name="fromY" type="int" value="24"/>
    <property name="toX" type="int" value="36"/>
    <property name="toY" type="int" value="24"/>
   </properties>
  </object>
  <object id="160" name="WallFinishOverride" x="1152" y="160" width="32" height="32">
   <properties>
    <property name="type" value="WallFinishOverride"/>
    <property name="face" value="south"/>
    <property name="finishId" value="paint_sage"/>
    <property name="half" type="int" value="0"/>
    <property name="fromX" type="int" value="36"/>
    <property name="fromY" type="int" value="5"/>
    <property name="toX" type="int" value="36"/>
    <property name="toY" type="int" value="5"/>
   </properties>
  </object>
  <object id="161" name="WallFinishOverride" x="1152" y="160" width="32" height="32">
   <properties>
    <property name="type" value="WallFinishOverride"/>
    <property name="face" value="south"/>
    <property name="finishId" value="paint_sage"/>
    <property name="half" type="int" value="1"/>
    <property name="fromX" type="int" value="36"/>
    <property name="fromY" type="int" value="5"/>
    <property name="toX" type="int" value="36"/>
    <property name="toY" type="int" value="5"/>
   </properties>
  </object>
  <object id="162" name="WallFinishOverride" x="1184" y="320" width="32" height="32">
   <properties>
    <property name="type" value="WallFinishOverride"/>
    <property name="face" value="north"/>
    <property name="finishId" value="plaster_plain"/>
    <property name="half" type="int" value="0"/>
    <property name="fromX" type="int" value="37"/>
    <property name="fromY" type="int" value="10"/>
    <property name="toX" type="int" value="37"/>
    <property name="toY" type="int" value="10"/>
   </properties>
  </object>
  <object id="163" name="WallFinishOverride" x="1184" y="320" width="32" height="32">
   <properties>
    <property name="type" value="WallFinishOverride"/>
    <property name="face" value="north"/>
    <property name="finishId" value="plaster_plain"/>
    <property name="half" type="int" value="1"/>
    <property name="fromX" type="int" value="37"/>
    <property name="fromY" type="int" value="10"/>
    <property name="toX" type="int" value="37"/>
    <property name="toY" type="int" value="10"/>
   </properties>
  </object>
  <object id="164" name="WallFinishOverride" x="1184" y="672" width="32" height="32">
   <properties>
    <property name="type" value="WallFinishOverride"/>
    <property name="face" value="south"/>
    <property name="finishId" value="paint_sage"/>
    <property name="half" type="int" value="0"/>
    <property name="fromX" type="int" value="37"/>
    <property name="fromY" type="int" value="21"/>
    <property name="toX" type="int" value="37"/>
    <property name="toY" type="int" value="21"/>
   </properties>
  </object>
  <object id="165" name="WallFinishOverride" x="1184" y="672" width="32" height="32">
   <properties>
    <property name="type" value="WallFinishOverride"/>
    <property name="face" value="south"/>
    <property name="finishId" value="paint_sage"/>
    <property name="half" type="int" value="1"/>
    <property name="fromX" type="int" value="37"/>
    <property name="fromY" type="int" value="21"/>
    <property name="toX" type="int" value="37"/>
    <property name="toY" type="int" value="21"/>
   </properties>
  </object>
  <object id="166" name="WallFinishOverride" x="1184" y="768" width="32" height="32">
   <properties>
    <property name="type" value="WallFinishOverride"/>
    <property name="face" value="north"/>
    <property name="finishId" value="paint_terracotta"/>
    <property name="half" type="int" value="0"/>
    <property name="fromX" type="int" value="37"/>
    <property name="fromY" type="int" value="24"/>
    <property name="toX" type="int" value="37"/>
    <property name="toY" type="int" value="24"/>
   </properties>
  </object>
  <object id="167" name="WallFinishOverride" x="1184" y="768" width="32" height="32">
   <properties>
    <property name="type" value="WallFinishOverride"/>
    <property name="face" value="north"/>
    <property name="finishId" value="paint_terracotta"/>
    <property name="half" type="int" value="1"/>
    <property name="fromX" type="int" value="37"/>
    <property name="fromY" type="int" value="24"/>
    <property name="toX" type="int" value="37"/>
    <property name="toY" type="int" value="24"/>
   </properties>
  </object>
  <object id="168" name="WallFinishOverride" x="1184" y="768" width="32" height="32">
   <properties>
    <property name="type" value="WallFinishOverride"/>
    <property name="face" value="south"/>
    <property name="finishId" value="wallpaper_blue_flower"/>
    <property name="half" type="int" value="0"/>
    <property name="fromX" type="int" value="37"/>
    <property name="fromY" type="int" value="24"/>
    <property name="toX" type="int" value="37"/>
    <property name="toY" type="int" value="24"/>
   </properties>
  </object>
  <object id="169" name="WallFinishOverride" x="1184" y="768" width="32" height="32">
   <properties>
    <property name="type" value="WallFinishOverride"/>
    <property name="face" value="south"/>
    <property name="finishId" value="wallpaper_blue_flower"/>
    <property name="half" type="int" value="1"/>
    <property name="fromX" type="int" value="37"/>
    <property name="fromY" type="int" value="24"/>
    <property name="toX" type="int" value="37"/>
    <property name="toY" type="int" value="24"/>
   </properties>
  </object>
  <object id="170" name="WallFinishOverride" x="1184" y="160" width="32" height="32">
   <properties>
    <property name="type" value="WallFinishOverride"/>
    <property name="face" value="south"/>
    <property name="finishId" value="paint_sage"/>
    <property name="half" type="int" value="0"/>
    <property name="fromX" type="int" value="37"/>
    <property name="fromY" type="int" value="5"/>
    <property name="toX" type="int" value="37"/>
    <property name="toY" type="int" value="5"/>
   </properties>
  </object>
  <object id="171" name="WallFinishOverride" x="1184" y="160" width="32" height="32">
   <properties>
    <property name="type" value="WallFinishOverride"/>
    <property name="face" value="south"/>
    <property name="finishId" value="paint_sage"/>
    <property name="half" type="int" value="1"/>
    <property name="fromX" type="int" value="37"/>
    <property name="fromY" type="int" value="5"/>
    <property name="toX" type="int" value="37"/>
    <property name="toY" type="int" value="5"/>
   </properties>
  </object>
  <object id="172" name="WallFinishOverride" x="1216" y="320" width="32" height="32">
   <properties>
    <property name="type" value="WallFinishOverride"/>
    <property name="face" value="north"/>
    <property name="finishId" value="plaster_plain"/>
    <property name="half" type="int" value="0"/>
    <property name="fromX" type="int" value="38"/>
    <property name="fromY" type="int" value="10"/>
    <property name="toX" type="int" value="38"/>
    <property name="toY" type="int" value="10"/>
   </properties>
  </object>
  <object id="173" name="WallFinishOverride" x="1216" y="320" width="32" height="32">
   <properties>
    <property name="type" value="WallFinishOverride"/>
    <property name="face" value="north"/>
    <property name="finishId" value="plaster_plain"/>
    <property name="half" type="int" value="1"/>
    <property name="fromX" type="int" value="38"/>
    <property name="fromY" type="int" value="10"/>
    <property name="toX" type="int" value="38"/>
    <property name="toY" type="int" value="10"/>
   </properties>
  </object>
  <object id="174" name="WallFinishOverride" x="1216" y="672" width="32" height="32">
   <properties>
    <property name="type" value="WallFinishOverride"/>
    <property name="face" value="south"/>
    <property name="finishId" value="paint_sage"/>
    <property name="half" type="int" value="0"/>
    <property name="fromX" type="int" value="38"/>
    <property name="fromY" type="int" value="21"/>
    <property name="toX" type="int" value="38"/>
    <property name="toY" type="int" value="21"/>
   </properties>
  </object>
  <object id="175" name="WallFinishOverride" x="1216" y="672" width="32" height="32">
   <properties>
    <property name="type" value="WallFinishOverride"/>
    <property name="face" value="south"/>
    <property name="finishId" value="paint_sage"/>
    <property name="half" type="int" value="1"/>
    <property name="fromX" type="int" value="38"/>
    <property name="fromY" type="int" value="21"/>
    <property name="toX" type="int" value="38"/>
    <property name="toY" type="int" value="21"/>
   </properties>
  </object>
  <object id="176" name="WallFinishOverride" x="1216" y="768" width="32" height="32">
   <properties>
    <property name="type" value="WallFinishOverride"/>
    <property name="face" value="north"/>
    <property name="finishId" value="paint_terracotta"/>
    <property name="half" type="int" value="0"/>
    <property name="fromX" type="int" value="38"/>
    <property name="fromY" type="int" value="24"/>
    <property name="toX" type="int" value="38"/>
    <property name="toY" type="int" value="24"/>
   </properties>
  </object>
  <object id="177" name="WallFinishOverride" x="1216" y="768" width="32" height="32">
   <properties>
    <property name="type" value="WallFinishOverride"/>
    <property name="face" value="north"/>
    <property name="finishId" value="paint_terracotta"/>
    <property name="half" type="int" value="1"/>
    <property name="fromX" type="int" value="38"/>
    <property name="fromY" type="int" value="24"/>
    <property name="toX" type="int" value="38"/>
    <property name="toY" type="int" value="24"/>
   </properties>
  </object>
  <object id="178" name="WallFinishOverride" x="1216" y="768" width="32" height="32">
   <properties>
    <property name="type" value="WallFinishOverride"/>
    <property name="face" value="south"/>
    <property name="finishId" value="wallpaper_blue_flower"/>
    <property name="half" type="int" value="0"/>
    <property name="fromX" type="int" value="38"/>
    <property name="fromY" type="int" value="24"/>
    <property name="toX" type="int" value="38"/>
    <property name="toY" type="int" value="24"/>
   </properties>
  </object>
  <object id="179" name="WallFinishOverride" x="1216" y="768" width="32" height="32">
   <properties>
    <property name="type" value="WallFinishOverride"/>
    <property name="face" value="south"/>
    <property name="finishId" value="wallpaper_blue_flower"/>
    <property name="half" type="int" value="1"/>
    <property name="fromX" type="int" value="38"/>
    <property name="fromY" type="int" value="24"/>
    <property name="toX" type="int" value="38"/>
    <property name="toY" type="int" value="24"/>
   </properties>
  </object>
  <object id="180" name="WallFinishOverride" x="1216" y="160" width="32" height="32">
   <properties>
    <property name="type" value="WallFinishOverride"/>
    <property name="face" value="south"/>
    <property name="finishId" value="paint_sage"/>
    <property name="half" type="int" value="0"/>
    <property name="fromX" type="int" value="38"/>
    <property name="fromY" type="int" value="5"/>
    <property name="toX" type="int" value="38"/>
    <property name="toY" type="int" value="5"/>
   </properties>
  </object>
  <object id="181" name="WallFinishOverride" x="1216" y="160" width="32" height="32">
   <properties>
    <property name="type" value="WallFinishOverride"/>
    <property name="face" value="south"/>
    <property name="finishId" value="paint_sage"/>
    <property name="half" type="int" value="1"/>
    <property name="fromX" type="int" value="38"/>
    <property name="fromY" type="int" value="5"/>
    <property name="toX" type="int" value="38"/>
    <property name="toY" type="int" value="5"/>
   </properties>
  </object>
  <object id="182" name="WallFinishOverride" x="1248" y="320" width="32" height="32">
   <properties>
    <property name="type" value="WallFinishOverride"/>
    <property name="face" value="north"/>
    <property name="finishId" value="plaster_plain"/>
    <property name="half" type="int" value="0"/>
    <property name="fromX" type="int" value="39"/>
    <property name="fromY" type="int" value="10"/>
    <property name="toX" type="int" value="39"/>
    <property name="toY" type="int" value="10"/>
   </properties>
  </object>
  <object id="183" name="WallFinishOverride" x="1248" y="320" width="32" height="32">
   <properties>
    <property name="type" value="WallFinishOverride"/>
    <property name="face" value="north"/>
    <property name="finishId" value="plaster_plain"/>
    <property name="half" type="int" value="1"/>
    <property name="fromX" type="int" value="39"/>
    <property name="fromY" type="int" value="10"/>
    <property name="toX" type="int" value="39"/>
    <property name="toY" type="int" value="10"/>
   </properties>
  </object>
  <object id="184" name="WallFinishOverride" x="1248" y="672" width="32" height="32">
   <properties>
    <property name="type" value="WallFinishOverride"/>
    <property name="face" value="south"/>
    <property name="finishId" value="paint_sage"/>
    <property name="half" type="int" value="0"/>
    <property name="fromX" type="int" value="39"/>
    <property name="fromY" type="int" value="21"/>
    <property name="toX" type="int" value="39"/>
    <property name="toY" type="int" value="21"/>
   </properties>
  </object>
  <object id="185" name="WallFinishOverride" x="1248" y="672" width="32" height="32">
   <properties>
    <property name="type" value="WallFinishOverride"/>
    <property name="face" value="south"/>
    <property name="finishId" value="paint_sage"/>
    <property name="half" type="int" value="1"/>
    <property name="fromX" type="int" value="39"/>
    <property name="fromY" type="int" value="21"/>
    <property name="toX" type="int" value="39"/>
    <property name="toY" type="int" value="21"/>
   </properties>
  </object>
  <object id="186" name="WallFinishOverride" x="1248" y="768" width="32" height="32">
   <properties>
    <property name="type" value="WallFinishOverride"/>
    <property name="face" value="north"/>
    <property name="finishId" value="paint_terracotta"/>
    <property name="half" type="int" value="0"/>
    <property name="fromX" type="int" value="39"/>
    <property name="fromY" type="int" value="24"/>
    <property name="toX" type="int" value="39"/>
    <property name="toY" type="int" value="24"/>
   </properties>
  </object>
  <object id="187" name="WallFinishOverride" x="1248" y="768" width="32" height="32">
   <properties>
    <property name="type" value="WallFinishOverride"/>
    <property name="face" value="north"/>
    <property name="finishId" value="paint_terracotta"/>
    <property name="half" type="int" value="1"/>
    <property name="fromX" type="int" value="39"/>
    <property name="fromY" type="int" value="24"/>
    <property name="toX" type="int" value="39"/>
    <property name="toY" type="int" value="24"/>
   </properties>
  </object>
  <object id="188" name="WallFinishOverride" x="1248" y="768" width="32" height="32">
   <properties>
    <property name="type" value="WallFinishOverride"/>
    <property name="face" value="south"/>
    <property name="finishId" value="wallpaper_blue_flower"/>
    <property name="half" type="int" value="0"/>
    <property name="fromX" type="int" value="39"/>
    <property name="fromY" type="int" value="24"/>
    <property name="toX" type="int" value="39"/>
    <property name="toY" type="int" value="24"/>
   </properties>
  </object>
  <object id="189" name="WallFinishOverride" x="1248" y="768" width="32" height="32">
   <properties>
    <property name="type" value="WallFinishOverride"/>
    <property name="face" value="south"/>
    <property name="finishId" value="wallpaper_blue_flower"/>
    <property name="half" type="int" value="1"/>
    <property name="fromX" type="int" value="39"/>
    <property name="fromY" type="int" value="24"/>
    <property name="toX" type="int" value="39"/>
    <property name="toY" type="int" value="24"/>
   </properties>
  </object>
  <object id="190" name="WallFinishOverride" x="1248" y="160" width="32" height="32">
   <properties>
    <property name="type" value="WallFinishOverride"/>
    <property name="face" value="south"/>
    <property name="finishId" value="paint_sage"/>
    <property name="half" type="int" value="0"/>
    <property name="fromX" type="int" value="39"/>
    <property name="fromY" type="int" value="5"/>
    <property name="toX" type="int" value="39"/>
    <property name="toY" type="int" value="5"/>
   </properties>
  </object>
  <object id="191" name="WallFinishOverride" x="1248" y="160" width="32" height="32">
   <properties>
    <property name="type" value="WallFinishOverride"/>
    <property name="face" value="south"/>
    <property name="finishId" value="paint_sage"/>
    <property name="half" type="int" value="1"/>
    <property name="fromX" type="int" value="39"/>
    <property name="fromY" type="int" value="5"/>
    <property name="toX" type="int" value="39"/>
    <property name="toY" type="int" value="5"/>
   </properties>
  </object>
  <object id="192" name="WallFinishOverride" x="1280" y="320" width="32" height="32">
   <properties>
    <property name="type" value="WallFinishOverride"/>
    <property name="face" value="north"/>
    <property name="finishId" value="plaster_plain"/>
    <property name="half" type="int" value="0"/>
    <property name="fromX" type="int" value="40"/>
    <property name="fromY" type="int" value="10"/>
    <property name="toX" type="int" value="40"/>
    <property name="toY" type="int" value="10"/>
   </properties>
  </object>
  <object id="193" name="WallFinishOverride" x="1280" y="320" width="32" height="32">
   <properties>
    <property name="type" value="WallFinishOverride"/>
    <property name="face" value="north"/>
    <property name="finishId" value="plaster_plain"/>
    <property name="half" type="int" value="1"/>
    <property name="fromX" type="int" value="40"/>
    <property name="fromY" type="int" value="10"/>
    <property name="toX" type="int" value="40"/>
    <property name="toY" type="int" value="10"/>
   </properties>
  </object>
  <object id="194" name="WallFinishOverride" x="1280" y="672" width="32" height="32">
   <properties>
    <property name="type" value="WallFinishOverride"/>
    <property name="face" value="east"/>
    <property name="finishId" value="wallpaper_blue_flower"/>
    <property name="half" type="int" value="0"/>
    <property name="fromX" type="int" value="40"/>
    <property name="fromY" type="int" value="21"/>
    <property name="toX" type="int" value="40"/>
    <property name="toY" type="int" value="21"/>
   </properties>
  </object>
  <object id="195" name="WallFinishOverride" x="1280" y="672" width="32" height="32">
   <properties>
    <property name="type" value="WallFinishOverride"/>
    <property name="face" value="north"/>
    <property name="finishId" value="wallpaper_blue_flower"/>
    <property name="half" type="int" value="1"/>
    <property name="fromX" type="int" value="40"/>
    <property name="fromY" type="int" value="21"/>
    <property name="toX" type="int" value="40"/>
    <property name="toY" type="int" value="21"/>
   </properties>
  </object>
  <object id="196" name="WallFinishOverride" x="1280" y="672" width="32" height="32">
   <properties>
    <property name="type" value="WallFinishOverride"/>
    <property name="face" value="south"/>
    <property name="finishId" value="paint_sage"/>
    <property name="half" type="int" value="0"/>
    <property name="fromX" type="int" value="40"/>
    <property name="fromY" type="int" value="21"/>
    <property name="toX" type="int" value="40"/>
    <property name="toY" type="int" value="21"/>
   </properties>
  </object>
  <object id="197" name="WallFinishOverride" x="1280" y="672" width="32" height="32">
   <properties>
    <property name="type" value="WallFinishOverride"/>
    <property name="face" value="west"/>
    <property name="finishId" value="paint_sage"/>
    <property name="half" type="int" value="1"/>
    <property name="fromX" type="int" value="40"/>
    <property name="fromY" type="int" value="21"/>
    <property name="toX" type="int" value="40"/>
    <property name="toY" type="int" value="21"/>
   </properties>
  </object>
  <object id="198" name="WallFinishOverride" x="1280" y="768" width="32" height="32">
   <properties>
    <property name="type" value="WallFinishOverride"/>
    <property name="face" value="north"/>
    <property name="finishId" value="paint_terracotta"/>
    <property name="half" type="int" value="0"/>
    <property name="fromX" type="int" value="40"/>
    <property name="fromY" type="int" value="24"/>
    <property name="toX" type="int" value="40"/>
    <property name="toY" type="int" value="24"/>
   </properties>
  </object>
  <object id="199" name="WallFinishOverride" x="1280" y="768" width="32" height="32">
   <properties>
    <property name="type" value="WallFinishOverride"/>
    <property name="face" value="south"/>
    <property name="finishId" value="wallpaper_blue_flower"/>
    <property name="half" type="int" value="0"/>
    <property name="fromX" type="int" value="40"/>
    <property name="fromY" type="int" value="24"/>
    <property name="toX" type="int" value="40"/>
    <property name="toY" type="int" value="24"/>
   </properties>
  </object>
  <object id="200" name="WallFinishOverride" x="1280" y="768" width="32" height="32">
   <properties>
    <property name="type" value="WallFinishOverride"/>
    <property name="face" value="south"/>
    <property name="finishId" value="wallpaper_blue_flower"/>
    <property name="half" type="int" value="1"/>
    <property name="fromX" type="int" value="40"/>
    <property name="fromY" type="int" value="24"/>
    <property name="toX" type="int" value="40"/>
    <property name="toY" type="int" value="24"/>
   </properties>
  </object>
  <object id="201" name="WallFinishOverride" x="1280" y="160" width="32" height="32">
   <properties>
    <property name="type" value="WallFinishOverride"/>
    <property name="face" value="south"/>
    <property name="finishId" value="paint_sage"/>
    <property name="half" type="int" value="0"/>
    <property name="fromX" type="int" value="40"/>
    <property name="fromY" type="int" value="5"/>
    <property name="toX" type="int" value="40"/>
    <property name="toY" type="int" value="5"/>
   </properties>
  </object>
  <object id="202" name="WallFinishOverride" x="1280" y="160" width="32" height="32">
   <properties>
    <property name="type" value="WallFinishOverride"/>
    <property name="face" value="south"/>
    <property name="finishId" value="paint_sage"/>
    <property name="half" type="int" value="1"/>
    <property name="fromX" type="int" value="40"/>
    <property name="fromY" type="int" value="5"/>
    <property name="toX" type="int" value="40"/>
    <property name="toY" type="int" value="5"/>
   </properties>
  </object>
  <object id="203" name="WallFinishOverride" x="1312" y="320" width="32" height="32">
   <properties>
    <property name="type" value="WallFinishOverride"/>
    <property name="face" value="north"/>
    <property name="finishId" value="plaster_plain"/>
    <property name="half" type="int" value="0"/>
    <property name="fromX" type="int" value="41"/>
    <property name="fromY" type="int" value="10"/>
    <property name="toX" type="int" value="41"/>
    <property name="toY" type="int" value="10"/>
   </properties>
  </object>
  <object id="204" name="WallFinishOverride" x="1312" y="320" width="32" height="32">
   <properties>
    <property name="type" value="WallFinishOverride"/>
    <property name="face" value="north"/>
    <property name="finishId" value="plaster_plain"/>
    <property name="half" type="int" value="1"/>
    <property name="fromX" type="int" value="41"/>
    <property name="fromY" type="int" value="10"/>
    <property name="toX" type="int" value="41"/>
    <property name="toY" type="int" value="10"/>
   </properties>
  </object>
  <object id="205" name="WallFinishOverride" x="1312" y="672" width="32" height="32">
   <properties>
    <property name="type" value="WallFinishOverride"/>
    <property name="face" value="south"/>
    <property name="finishId" value="wallpaper_blue_flower"/>
    <property name="half" type="int" value="0"/>
    <property name="fromX" type="int" value="41"/>
    <property name="fromY" type="int" value="21"/>
    <property name="toX" type="int" value="41"/>
    <property name="toY" type="int" value="21"/>
   </properties>
  </object>
  <object id="206" name="WallFinishOverride" x="1312" y="672" width="32" height="32">
   <properties>
    <property name="type" value="WallFinishOverride"/>
    <property name="face" value="south"/>
    <property name="finishId" value="wallpaper_blue_flower"/>
    <property name="half" type="int" value="1"/>
    <property name="fromX" type="int" value="41"/>
    <property name="fromY" type="int" value="21"/>
    <property name="toX" type="int" value="41"/>
    <property name="toY" type="int" value="21"/>
   </properties>
  </object>
  <object id="207" name="WallFinishOverride" x="1312" y="160" width="32" height="32">
   <properties>
    <property name="type" value="WallFinishOverride"/>
    <property name="face" value="south"/>
    <property name="finishId" value="paint_sage"/>
    <property name="half" type="int" value="0"/>
    <property name="fromX" type="int" value="41"/>
    <property name="fromY" type="int" value="5"/>
    <property name="toX" type="int" value="41"/>
    <property name="toY" type="int" value="5"/>
   </properties>
  </object>
  <object id="208" name="WallFinishOverride" x="1312" y="160" width="32" height="32">
   <properties>
    <property name="type" value="WallFinishOverride"/>
    <property name="face" value="south"/>
    <property name="finishId" value="paint_sage"/>
    <property name="half" type="int" value="1"/>
    <property name="fromX" type="int" value="41"/>
    <property name="fromY" type="int" value="5"/>
    <property name="toX" type="int" value="41"/>
    <property name="toY" type="int" value="5"/>
   </properties>
  </object>
  <object id="209" name="WallFinishOverride" x="1344" y="320" width="32" height="32">
   <properties>
    <property name="type" value="WallFinishOverride"/>
    <property name="face" value="north"/>
    <property name="finishId" value="plaster_plain"/>
    <property name="half" type="int" value="0"/>
    <property name="fromX" type="int" value="42"/>
    <property name="fromY" type="int" value="10"/>
    <property name="toX" type="int" value="42"/>
    <property name="toY" type="int" value="10"/>
   </properties>
  </object>
  <object id="210" name="WallFinishOverride" x="1344" y="320" width="32" height="32">
   <properties>
    <property name="type" value="WallFinishOverride"/>
    <property name="face" value="south"/>
    <property name="finishId" value="paint_sage"/>
    <property name="half" type="int" value="1"/>
    <property name="fromX" type="int" value="42"/>
    <property name="fromY" type="int" value="10"/>
    <property name="toX" type="int" value="42"/>
    <property name="toY" type="int" value="10"/>
   </properties>
  </object>
  <object id="211" name="WallFinishOverride" x="1344" y="352" width="32" height="32">
   <properties>
    <property name="type" value="WallFinishOverride"/>
    <property name="face" value="north"/>
    <property name="finishId" value="paint_sage"/>
    <property name="half" type="int" value="0"/>
    <property name="fromX" type="int" value="42"/>
    <property name="fromY" type="int" value="11"/>
    <property name="toX" type="int" value="42"/>
    <property name="toY" type="int" value="11"/>
   </properties>
  </object>
  <object id="212" name="WallFinishOverride" x="1344" y="352" width="32" height="32">
   <properties>
    <property name="type" value="WallFinishOverride"/>
    <property name="face" value="south"/>
    <property name="finishId" value="paint_sage"/>
    <property name="half" type="int" value="1"/>
    <property name="fromX" type="int" value="42"/>
    <property name="fromY" type="int" value="11"/>
    <property name="toX" type="int" value="42"/>
    <property name="toY" type="int" value="11"/>
   </properties>
  </object>
  <object id="213" name="WallFinishOverride" x="1344" y="384" width="32" height="32">
   <properties>
    <property name="type" value="WallFinishOverride"/>
    <property name="face" value="north"/>
    <property name="finishId" value="paint_sage"/>
    <property name="half" type="int" value="0"/>
    <property name="fromX" type="int" value="42"/>
    <property name="fromY" type="int" value="12"/>
    <property name="toX" type="int" value="42"/>
    <property name="toY" type="int" value="12"/>
   </properties>
  </object>
  <object id="214" name="WallFinishOverride" x="1344" y="384" width="32" height="32">
   <properties>
    <property name="type" value="WallFinishOverride"/>
    <property name="face" value="south"/>
    <property name="finishId" value="paint_sage"/>
    <property name="half" type="int" value="1"/>
    <property name="fromX" type="int" value="42"/>
    <property name="fromY" type="int" value="12"/>
    <property name="toX" type="int" value="42"/>
    <property name="toY" type="int" value="12"/>
   </properties>
  </object>
  <object id="215" name="WallFinishOverride" x="1344" y="416" width="32" height="32">
   <properties>
    <property name="type" value="WallFinishOverride"/>
    <property name="face" value="north"/>
    <property name="finishId" value="paint_sage"/>
    <property name="half" type="int" value="0"/>
    <property name="fromX" type="int" value="42"/>
    <property name="fromY" type="int" value="13"/>
    <property name="toX" type="int" value="42"/>
    <property name="toY" type="int" value="13"/>
   </properties>
  </object>
  <object id="216" name="WallFinishOverride" x="1344" y="416" width="32" height="32">
   <properties>
    <property name="type" value="WallFinishOverride"/>
    <property name="face" value="south"/>
    <property name="finishId" value="paint_sage"/>
    <property name="half" type="int" value="1"/>
    <property name="fromX" type="int" value="42"/>
    <property name="fromY" type="int" value="13"/>
    <property name="toX" type="int" value="42"/>
    <property name="toY" type="int" value="13"/>
   </properties>
  </object>
  <object id="217" name="WallFinishOverride" x="1344" y="448" width="32" height="32">
   <properties>
    <property name="type" value="WallFinishOverride"/>
    <property name="face" value="north"/>
    <property name="finishId" value="paint_sage"/>
    <property name="half" type="int" value="0"/>
    <property name="fromX" type="int" value="42"/>
    <property name="fromY" type="int" value="14"/>
    <property name="toX" type="int" value="42"/>
    <property name="toY" type="int" value="14"/>
   </properties>
  </object>
  <object id="218" name="WallFinishOverride" x="1344" y="448" width="32" height="32">
   <properties>
    <property name="type" value="WallFinishOverride"/>
    <property name="face" value="south"/>
    <property name="finishId" value="paint_sage"/>
    <property name="half" type="int" value="1"/>
    <property name="fromX" type="int" value="42"/>
    <property name="fromY" type="int" value="14"/>
    <property name="toX" type="int" value="42"/>
    <property name="toY" type="int" value="14"/>
   </properties>
  </object>
  <object id="219" name="WallFinishOverride" x="1344" y="672" width="32" height="32">
   <properties>
    <property name="type" value="WallFinishOverride"/>
    <property name="face" value="north"/>
    <property name="finishId" value="wallpaper_blue_flower"/>
    <property name="half" type="int" value="0"/>
    <property name="fromX" type="int" value="42"/>
    <property name="fromY" type="int" value="21"/>
    <property name="toX" type="int" value="42"/>
    <property name="toY" type="int" value="21"/>
   </properties>
  </object>
  <object id="220" name="WallFinishOverride" x="1344" y="160" width="32" height="32">
   <properties>
    <property name="type" value="WallFinishOverride"/>
    <property name="face" value="north"/>
    <property name="finishId" value="paint_sage"/>
    <property name="half" type="int" value="1"/>
    <property name="fromX" type="int" value="42"/>
    <property name="fromY" type="int" value="5"/>
    <property name="toX" type="int" value="42"/>
    <property name="toY" type="int" value="5"/>
   </properties>
  </object>
  <object id="221" name="WallFinishOverride" x="1344" y="160" width="32" height="32">
   <properties>
    <property name="type" value="WallFinishOverride"/>
    <property name="face" value="south"/>
    <property name="finishId" value="paint_sage"/>
    <property name="half" type="int" value="0"/>
    <property name="fromX" type="int" value="42"/>
    <property name="fromY" type="int" value="5"/>
    <property name="toX" type="int" value="42"/>
    <property name="toY" type="int" value="5"/>
   </properties>
  </object>
  <object id="222" name="WallFinishOverride" x="1344" y="224" width="32" height="32">
   <properties>
    <property name="type" value="WallFinishOverride"/>
    <property name="face" value="north"/>
    <property name="finishId" value="wallpaper_blue_flower"/>
    <property name="half" type="int" value="0"/>
    <property name="fromX" type="int" value="42"/>
    <property name="fromY" type="int" value="7"/>
    <property name="toX" type="int" value="42"/>
    <property name="toY" type="int" value="7"/>
   </properties>
  </object>
  <object id="223" name="WallFinishOverride" x="1344" y="224" width="32" height="32">
   <properties>
    <property name="type" value="WallFinishOverride"/>
    <property name="face" value="south"/>
    <property name="finishId" value="wallpaper_blue_flower"/>
    <property name="half" type="int" value="1"/>
    <property name="fromX" type="int" value="42"/>
    <property name="fromY" type="int" value="7"/>
    <property name="toX" type="int" value="42"/>
    <property name="toY" type="int" value="7"/>
   </properties>
  </object>
  <object id="224" name="WallFinishOverride" x="1344" y="256" width="32" height="32">
   <properties>
    <property name="type" value="WallFinishOverride"/>
    <property name="face" value="north"/>
    <property name="finishId" value="paint_sage"/>
    <property name="half" type="int" value="0"/>
    <property name="fromX" type="int" value="42"/>
    <property name="fromY" type="int" value="8"/>
    <property name="toX" type="int" value="42"/>
    <property name="toY" type="int" value="8"/>
   </properties>
  </object>
  <object id="225" name="WallFinishOverride" x="1344" y="256" width="32" height="32">
   <properties>
    <property name="type" value="WallFinishOverride"/>
    <property name="face" value="south"/>
    <property name="finishId" value="paint_sage"/>
    <property name="half" type="int" value="1"/>
    <property name="fromX" type="int" value="42"/>
    <property name="fromY" type="int" value="8"/>
    <property name="toX" type="int" value="42"/>
    <property name="toY" type="int" value="8"/>
   </properties>
  </object>
  <object id="226" name="WallFinishOverride" x="1344" y="288" width="32" height="32">
   <properties>
    <property name="type" value="WallFinishOverride"/>
    <property name="face" value="north"/>
    <property name="finishId" value="paint_sage"/>
    <property name="half" type="int" value="0"/>
    <property name="fromX" type="int" value="42"/>
    <property name="fromY" type="int" value="9"/>
    <property name="toX" type="int" value="42"/>
    <property name="toY" type="int" value="9"/>
   </properties>
  </object>
  <object id="227" name="WallFinishOverride" x="1344" y="288" width="32" height="32">
   <properties>
    <property name="type" value="WallFinishOverride"/>
    <property name="face" value="south"/>
    <property name="finishId" value="paint_sage"/>
    <property name="half" type="int" value="1"/>
    <property name="fromX" type="int" value="42"/>
    <property name="fromY" type="int" value="9"/>
    <property name="toX" type="int" value="42"/>
    <property name="toY" type="int" value="9"/>
   </properties>
  </object>
  <object id="228" name="WallFinishOverride" x="1376" y="224" width="32" height="32">
   <properties>
    <property name="type" value="WallFinishOverride"/>
    <property name="face" value="south"/>
    <property name="finishId" value="wallpaper_blue_flower"/>
    <property name="half" type="int" value="0"/>
    <property name="fromX" type="int" value="43"/>
    <property name="fromY" type="int" value="7"/>
    <property name="toX" type="int" value="43"/>
    <property name="toY" type="int" value="7"/>
   </properties>
  </object>
  <object id="229" name="WallFinishOverride" x="1376" y="224" width="32" height="32">
   <properties>
    <property name="type" value="WallFinishOverride"/>
    <property name="face" value="south"/>
    <property name="finishId" value="wallpaper_blue_flower"/>
    <property name="half" type="int" value="1"/>
    <property name="fromX" type="int" value="43"/>
    <property name="fromY" type="int" value="7"/>
    <property name="toX" type="int" value="43"/>
    <property name="toY" type="int" value="7"/>
   </properties>
  </object>
  <object id="230" name="WallFinishOverride" x="1408" y="224" width="32" height="32">
   <properties>
    <property name="type" value="WallFinishOverride"/>
    <property name="face" value="south"/>
    <property name="finishId" value="wallpaper_blue_flower"/>
    <property name="half" type="int" value="0"/>
    <property name="fromX" type="int" value="44"/>
    <property name="fromY" type="int" value="7"/>
    <property name="toX" type="int" value="44"/>
    <property name="toY" type="int" value="7"/>
   </properties>
  </object>
  <object id="231" name="WallFinishOverride" x="1408" y="224" width="32" height="32">
   <properties>
    <property name="type" value="WallFinishOverride"/>
    <property name="face" value="south"/>
    <property name="finishId" value="wallpaper_blue_flower"/>
    <property name="half" type="int" value="1"/>
    <property name="fromX" type="int" value="44"/>
    <property name="fromY" type="int" value="7"/>
    <property name="toX" type="int" value="44"/>
    <property name="toY" type="int" value="7"/>
   </properties>
  </object>
  <object id="232" name="WallFinishOverride" x="1440" y="224" width="32" height="32">
   <properties>
    <property name="type" value="WallFinishOverride"/>
    <property name="face" value="south"/>
    <property name="finishId" value="wallpaper_blue_flower"/>
    <property name="half" type="int" value="0"/>
    <property name="fromX" type="int" value="45"/>
    <property name="fromY" type="int" value="7"/>
    <property name="toX" type="int" value="45"/>
    <property name="toY" type="int" value="7"/>
   </properties>
  </object>
  <object id="233" name="WallFinishOverride" x="1440" y="224" width="32" height="32">
   <properties>
    <property name="type" value="WallFinishOverride"/>
    <property name="face" value="south"/>
    <property name="finishId" value="wallpaper_blue_flower"/>
    <property name="half" type="int" value="1"/>
    <property name="fromX" type="int" value="45"/>
    <property name="fromY" type="int" value="7"/>
    <property name="toX" type="int" value="45"/>
    <property name="toY" type="int" value="7"/>
   </properties>
  </object>
  <object id="234" name="WallFinishOverride" x="1472" y="224" width="32" height="32">
   <properties>
    <property name="type" value="WallFinishOverride"/>
    <property name="face" value="south"/>
    <property name="finishId" value="wallpaper_blue_flower"/>
    <property name="half" type="int" value="0"/>
    <property name="fromX" type="int" value="46"/>
    <property name="fromY" type="int" value="7"/>
    <property name="toX" type="int" value="46"/>
    <property name="toY" type="int" value="7"/>
   </properties>
  </object>
  <object id="235" name="WallFinishOverride" x="1472" y="224" width="32" height="32">
   <properties>
    <property name="type" value="WallFinishOverride"/>
    <property name="face" value="south"/>
    <property name="finishId" value="wallpaper_blue_flower"/>
    <property name="half" type="int" value="1"/>
    <property name="fromX" type="int" value="46"/>
    <property name="fromY" type="int" value="7"/>
    <property name="toX" type="int" value="46"/>
    <property name="toY" type="int" value="7"/>
   </properties>
  </object>
  <object id="236" name="WallFinishOverride" x="1504" y="224" width="32" height="32">
   <properties>
    <property name="type" value="WallFinishOverride"/>
    <property name="face" value="south"/>
    <property name="finishId" value="wallpaper_blue_flower"/>
    <property name="half" type="int" value="0"/>
    <property name="fromX" type="int" value="47"/>
    <property name="fromY" type="int" value="7"/>
    <property name="toX" type="int" value="47"/>
    <property name="toY" type="int" value="7"/>
   </properties>
  </object>
  <object id="237" name="WallFinishOverride" x="1504" y="224" width="32" height="32">
   <properties>
    <property name="type" value="WallFinishOverride"/>
    <property name="face" value="south"/>
    <property name="finishId" value="wallpaper_blue_flower"/>
    <property name="half" type="int" value="1"/>
    <property name="fromX" type="int" value="47"/>
    <property name="fromY" type="int" value="7"/>
    <property name="toX" type="int" value="47"/>
    <property name="toY" type="int" value="7"/>
   </properties>
  </object>
  <object id="238" name="WallFinishOverride" x="1536" y="224" width="32" height="32">
   <properties>
    <property name="type" value="WallFinishOverride"/>
    <property name="face" value="south"/>
    <property name="finishId" value="wallpaper_blue_flower"/>
    <property name="half" type="int" value="0"/>
    <property name="fromX" type="int" value="48"/>
    <property name="fromY" type="int" value="7"/>
    <property name="toX" type="int" value="48"/>
    <property name="toY" type="int" value="7"/>
   </properties>
  </object>
  <object id="239" name="WallFinishOverride" x="1536" y="224" width="32" height="32">
   <properties>
    <property name="type" value="WallFinishOverride"/>
    <property name="face" value="south"/>
    <property name="finishId" value="wallpaper_blue_flower"/>
    <property name="half" type="int" value="1"/>
    <property name="fromX" type="int" value="48"/>
    <property name="fromY" type="int" value="7"/>
    <property name="toX" type="int" value="48"/>
    <property name="toY" type="int" value="7"/>
   </properties>
  </object>
  <object id="240" name="WallFinishOverride" x="1568" y="224" width="32" height="32">
   <properties>
    <property name="type" value="WallFinishOverride"/>
    <property name="face" value="north"/>
    <property name="finishId" value="wallpaper_blue_flower"/>
    <property name="half" type="int" value="1"/>
    <property name="fromX" type="int" value="49"/>
    <property name="fromY" type="int" value="7"/>
    <property name="toX" type="int" value="49"/>
    <property name="toY" type="int" value="7"/>
   </properties>
  </object>
  <object id="241" name="WallFinishOverride" x="1568" y="224" width="32" height="32">
   <properties>
    <property name="type" value="WallFinishOverride"/>
    <property name="face" value="south"/>
    <property name="finishId" value="wallpaper_blue_flower"/>
    <property name="half" type="int" value="0"/>
    <property name="fromX" type="int" value="49"/>
    <property name="fromY" type="int" value="7"/>
    <property name="toX" type="int" value="49"/>
    <property name="toY" type="int" value="7"/>
   </properties>
  </object>
  <object id="242" name="WallFinishOverride" x="1568" y="224" width="32" height="32">
   <properties>
    <property name="type" value="WallFinishOverride"/>
    <property name="face" value="south"/>
    <property name="finishId" value="wallpaper_blue_flower"/>
    <property name="half" type="int" value="1"/>
    <property name="fromX" type="int" value="49"/>
    <property name="fromY" type="int" value="7"/>
    <property name="toX" type="int" value="49"/>
    <property name="toY" type="int" value="7"/>
   </properties>
  </object>
  <object id="243" name="WallFinishOverride" x="1600" y="224" width="32" height="32">
   <properties>
    <property name="type" value="WallFinishOverride"/>
    <property name="face" value="north"/>
    <property name="finishId" value="wallpaper_blue_flower"/>
    <property name="half" type="int" value="1"/>
    <property name="fromX" type="int" value="50"/>
    <property name="fromY" type="int" value="7"/>
    <property name="toX" type="int" value="50"/>
    <property name="toY" type="int" value="7"/>
   </properties>
  </object>
  <object id="244" name="WallFinishOverride" x="1600" y="224" width="32" height="32">
   <properties>
    <property name="type" value="WallFinishOverride"/>
    <property name="face" value="south"/>
    <property name="finishId" value="wallpaper_blue_flower"/>
    <property name="half" type="int" value="0"/>
    <property name="fromX" type="int" value="50"/>
    <property name="fromY" type="int" value="7"/>
    <property name="toX" type="int" value="50"/>
    <property name="toY" type="int" value="7"/>
   </properties>
  </object>
  <object id="245" name="WallFinishOverride" x="1600" y="224" width="32" height="32">
   <properties>
    <property name="type" value="WallFinishOverride"/>
    <property name="face" value="south"/>
    <property name="finishId" value="wallpaper_blue_flower"/>
    <property name="half" type="int" value="1"/>
    <property name="fromX" type="int" value="50"/>
    <property name="fromY" type="int" value="7"/>
    <property name="toX" type="int" value="50"/>
    <property name="toY" type="int" value="7"/>
   </properties>
  </object>
  <object id="246" name="WallFinishOverride" x="1632" y="224" width="32" height="32">
   <properties>
    <property name="type" value="WallFinishOverride"/>
    <property name="face" value="north"/>
    <property name="finishId" value="wallpaper_blue_flower"/>
    <property name="half" type="int" value="1"/>
    <property name="fromX" type="int" value="51"/>
    <property name="fromY" type="int" value="7"/>
    <property name="toX" type="int" value="51"/>
    <property name="toY" type="int" value="7"/>
   </properties>
  </object>
  <object id="247" name="WallFinishOverride" x="1632" y="224" width="32" height="32">
   <properties>
    <property name="type" value="WallFinishOverride"/>
    <property name="face" value="south"/>
    <property name="finishId" value="wallpaper_blue_flower"/>
    <property name="half" type="int" value="0"/>
    <property name="fromX" type="int" value="51"/>
    <property name="fromY" type="int" value="7"/>
    <property name="toX" type="int" value="51"/>
    <property name="toY" type="int" value="7"/>
   </properties>
  </object>
  <object id="248" name="WallFinishOverride" x="1632" y="224" width="32" height="32">
   <properties>
    <property name="type" value="WallFinishOverride"/>
    <property name="face" value="south"/>
    <property name="finishId" value="wallpaper_blue_flower"/>
    <property name="half" type="int" value="1"/>
    <property name="fromX" type="int" value="51"/>
    <property name="fromY" type="int" value="7"/>
    <property name="toX" type="int" value="51"/>
    <property name="toY" type="int" value="7"/>
   </properties>
  </object>
  <object id="249" name="WallFinishOverride" x="1664" y="320" width="32" height="32">
   <properties>
    <property name="type" value="WallFinishOverride"/>
    <property name="face" value="north"/>
    <property name="finishId" value="paint_sage"/>
    <property name="half" type="int" value="1"/>
    <property name="fromX" type="int" value="52"/>
    <property name="fromY" type="int" value="10"/>
    <property name="toX" type="int" value="52"/>
    <property name="toY" type="int" value="10"/>
   </properties>
  </object>
  <object id="250" name="WallFinishOverride" x="1664" y="320" width="32" height="32">
   <properties>
    <property name="type" value="WallFinishOverride"/>
    <property name="face" value="south"/>
    <property name="finishId" value="paint_sage"/>
    <property name="half" type="int" value="0"/>
    <property name="fromX" type="int" value="52"/>
    <property name="fromY" type="int" value="10"/>
    <property name="toX" type="int" value="52"/>
    <property name="toY" type="int" value="10"/>
   </properties>
  </object>
  <object id="251" name="WallFinishOverride" x="1664" y="352" width="32" height="32">
   <properties>
    <property name="type" value="WallFinishOverride"/>
    <property name="face" value="north"/>
    <property name="finishId" value="paint_sage"/>
    <property name="half" type="int" value="1"/>
    <property name="fromX" type="int" value="52"/>
    <property name="fromY" type="int" value="11"/>
    <property name="toX" type="int" value="52"/>
    <property name="toY" type="int" value="11"/>
   </properties>
  </object>
  <object id="252" name="WallFinishOverride" x="1664" y="352" width="32" height="32">
   <properties>
    <property name="type" value="WallFinishOverride"/>
    <property name="face" value="south"/>
    <property name="finishId" value="paint_sage"/>
    <property name="half" type="int" value="0"/>
    <property name="fromX" type="int" value="52"/>
    <property name="fromY" type="int" value="11"/>
    <property name="toX" type="int" value="52"/>
    <property name="toY" type="int" value="11"/>
   </properties>
  </object>
  <object id="253" name="WallFinishOverride" x="1664" y="384" width="32" height="32">
   <properties>
    <property name="type" value="WallFinishOverride"/>
    <property name="face" value="north"/>
    <property name="finishId" value="paint_sage"/>
    <property name="half" type="int" value="1"/>
    <property name="fromX" type="int" value="52"/>
    <property name="fromY" type="int" value="12"/>
    <property name="toX" type="int" value="52"/>
    <property name="toY" type="int" value="12"/>
   </properties>
  </object>
  <object id="254" name="WallFinishOverride" x="1664" y="384" width="32" height="32">
   <properties>
    <property name="type" value="WallFinishOverride"/>
    <property name="face" value="south"/>
    <property name="finishId" value="paint_sage"/>
    <property name="half" type="int" value="0"/>
    <property name="fromX" type="int" value="52"/>
    <property name="fromY" type="int" value="12"/>
    <property name="toX" type="int" value="52"/>
    <property name="toY" type="int" value="12"/>
   </properties>
  </object>
  <object id="255" name="WallFinishOverride" x="1664" y="416" width="32" height="32">
   <properties>
    <property name="type" value="WallFinishOverride"/>
    <property name="face" value="north"/>
    <property name="finishId" value="paint_sage"/>
    <property name="half" type="int" value="1"/>
    <property name="fromX" type="int" value="52"/>
    <property name="fromY" type="int" value="13"/>
    <property name="toX" type="int" value="52"/>
    <property name="toY" type="int" value="13"/>
   </properties>
  </object>
  <object id="256" name="WallFinishOverride" x="1664" y="416" width="32" height="32">
   <properties>
    <property name="type" value="WallFinishOverride"/>
    <property name="face" value="south"/>
    <property name="finishId" value="paint_sage"/>
    <property name="half" type="int" value="0"/>
    <property name="fromX" type="int" value="52"/>
    <property name="fromY" type="int" value="13"/>
    <property name="toX" type="int" value="52"/>
    <property name="toY" type="int" value="13"/>
   </properties>
  </object>
  <object id="257" name="WallFinishOverride" x="1664" y="448" width="32" height="32">
   <properties>
    <property name="type" value="WallFinishOverride"/>
    <property name="face" value="north"/>
    <property name="finishId" value="paint_sage"/>
    <property name="half" type="int" value="1"/>
    <property name="fromX" type="int" value="52"/>
    <property name="fromY" type="int" value="14"/>
    <property name="toX" type="int" value="52"/>
    <property name="toY" type="int" value="14"/>
   </properties>
  </object>
  <object id="258" name="WallFinishOverride" x="1664" y="448" width="32" height="32">
   <properties>
    <property name="type" value="WallFinishOverride"/>
    <property name="face" value="south"/>
    <property name="finishId" value="paint_sage"/>
    <property name="half" type="int" value="0"/>
    <property name="fromX" type="int" value="52"/>
    <property name="fromY" type="int" value="14"/>
    <property name="toX" type="int" value="52"/>
    <property name="toY" type="int" value="14"/>
   </properties>
  </object>
  <object id="259" name="WallFinishOverride" x="1664" y="224" width="32" height="32">
   <properties>
    <property name="type" value="WallFinishOverride"/>
    <property name="face" value="north"/>
    <property name="finishId" value="wallpaper_blue_flower"/>
    <property name="half" type="int" value="1"/>
    <property name="fromX" type="int" value="52"/>
    <property name="fromY" type="int" value="7"/>
    <property name="toX" type="int" value="52"/>
    <property name="toY" type="int" value="7"/>
   </properties>
  </object>
  <object id="260" name="WallFinishOverride" x="1664" y="224" width="32" height="32">
   <properties>
    <property name="type" value="WallFinishOverride"/>
    <property name="face" value="south"/>
    <property name="finishId" value="wallpaper_blue_flower"/>
    <property name="half" type="int" value="0"/>
    <property name="fromX" type="int" value="52"/>
    <property name="fromY" type="int" value="7"/>
    <property name="toX" type="int" value="52"/>
    <property name="toY" type="int" value="7"/>
   </properties>
  </object>
  <object id="261" name="WallFinishOverride" x="1664" y="224" width="32" height="32">
   <properties>
    <property name="type" value="WallFinishOverride"/>
    <property name="face" value="south"/>
    <property name="finishId" value="wallpaper_blue_flower"/>
    <property name="half" type="int" value="1"/>
    <property name="fromX" type="int" value="52"/>
    <property name="fromY" type="int" value="7"/>
    <property name="toX" type="int" value="52"/>
    <property name="toY" type="int" value="7"/>
   </properties>
  </object>
  <object id="262" name="WallFinishOverride" x="1664" y="256" width="32" height="32">
   <properties>
    <property name="type" value="WallFinishOverride"/>
    <property name="face" value="north"/>
    <property name="finishId" value="paint_sage"/>
    <property name="half" type="int" value="1"/>
    <property name="fromX" type="int" value="52"/>
    <property name="fromY" type="int" value="8"/>
    <property name="toX" type="int" value="52"/>
    <property name="toY" type="int" value="8"/>
   </properties>
  </object>
  <object id="263" name="WallFinishOverride" x="1664" y="256" width="32" height="32">
   <properties>
    <property name="type" value="WallFinishOverride"/>
    <property name="face" value="south"/>
    <property name="finishId" value="paint_sage"/>
    <property name="half" type="int" value="0"/>
    <property name="fromX" type="int" value="52"/>
    <property name="fromY" type="int" value="8"/>
    <property name="toX" type="int" value="52"/>
    <property name="toY" type="int" value="8"/>
   </properties>
  </object>
  <object id="264" name="WallFinishOverride" x="1664" y="288" width="32" height="32">
   <properties>
    <property name="type" value="WallFinishOverride"/>
    <property name="face" value="north"/>
    <property name="finishId" value="paint_sage"/>
    <property name="half" type="int" value="1"/>
    <property name="fromX" type="int" value="52"/>
    <property name="fromY" type="int" value="9"/>
    <property name="toX" type="int" value="52"/>
    <property name="toY" type="int" value="9"/>
   </properties>
  </object>
  <object id="265" name="WallFinishOverride" x="1664" y="288" width="32" height="32">
   <properties>
    <property name="type" value="WallFinishOverride"/>
    <property name="face" value="south"/>
    <property name="finishId" value="paint_sage"/>
    <property name="half" type="int" value="0"/>
    <property name="fromX" type="int" value="52"/>
    <property name="fromY" type="int" value="9"/>
    <property name="toX" type="int" value="52"/>
    <property name="toY" type="int" value="9"/>
   </properties>
  </object>
 </objectgroup>
</map>
